LUT/BlackWhite.cube
LUT_3D_SIZE 6
-0.018968 -0.018968 -0.018968
0.051196 0.051195 0.051195
0.160091 0.160091 0.160091
0.302580 0.302580 0.302580
0.433051 0.433051 0.433051
0.530452 0.530452 0.530452
0.088957 0.088957 0.088957
0.095361 0.095361 0.095361
0.196653 0.196653 0.196653
0.329380 0.329380 0.329380
0.452430 0.452430 0.452430
0.543601 0.543601 0.543601
0.267118 0.267118 0.267118
0.273198 0.273198 0.273198
0.287224 0.287224 0.287224
0.426803 0.426803 0.426803
0.530726 0.530726 0.530726
0.600308 0.600308 0.600308
0.502856 0.502856 0.502856
0.507008 0.507008 0.507008
0.525776 0.525776 0.525776
0.551607 0.551607 0.551607
0.653949 0.653949 0.653949
0.697308 0.697308 0.697308
0.719503 0.719503 0.719503
0.722439 0.722439 0.722439
0.735933 0.735933 0.735933
0.762370 0.762370 0.762370
0.799717 0.799717 0.799717
0.821841 0.821841 0.821841
0.983469 0.983469 0.983469
0.985634 0.985634 0.985634
0.994193 0.994193 0.994193
1.009180 1.009180 1.009180
1.031843 1.031843 1.031843
1.075929 1.075929 1.075929
-0.537016 -0.537016 -0.537016
-0.536603 -0.536603 -0.536603
-0.526160 -0.526160 -0.526160
-0.474594 -0.474594 -0.474594
-0.358052 -0.358052 -0.358052
-0.094833 -0.094832 -0.094832
0.092525 0.092525 0.092525
0.102693 0.102693 0.102693
0.171612 0.171612 0.171612
0.303601 0.303601 0.303601
0.432327 0.432327 0.432327
0.529870 0.529870 0.529870
0.269541 0.269541 0.269541
0.270721 0.270721 0.270721
0.293272 0.293272 0.293272
0.417608 0.417608 0.417608
0.519861 0.519861 0.519861
0.591461 0.591461 0.591461
0.504530 0.504530 0.504530
0.503621 0.503621 0.503621
0.524408 0.524408 0.524408
0.554224 0.554224 0.554224
0.649066 0.649066 0.649066
0.691632 0.691632 0.691632
0.720719 0.720719 0.720719
0.719642 0.719642 0.719642
0.734153 0.734153 0.734153
0.761514 0.761514 0.761514
0.800914 0.800914 0.800914
0.819036 0.819036 0.819036
0.984170 0.984170 0.984170
0.983273 0.983273 0.983273
0.992443 0.992443 0.992443
1.007617 1.007617 1.007617
1.030784 1.030784 1.030784
1.075930 1.075930 1.075930
-0.532980 -0.532980 -0.532980
-0.529566 -0.529566 -0.529566
-0.519655 -0.519655 -0.519655
-0.463219 -0.463219 -0.463219
-0.340030 -0.340030 -0.340030
0.105002 0.105002 0.105002
0.160943 0.160943 0.160943
0.119019 0.119019 0.119019
0.193866 0.193866 0.193866
0.323559 0.323559 0.323559
0.446978 0.446978 0.446978
0.539858 0.539858 0.539858
0.273561 0.273561 0.273561
0.279183 0.279183 0.279183
0.307604 0.307604 0.307604
0.382672 0.382672 0.382672
0.480117 0.480117 0.480117
0.564073 0.564073 0.564073
0.511098 0.511098 0.511098
0.511607 0.511607 0.511607
0.521874 0.521874 0.521874
0.567605 0.567605 0.567605
0.635554 0.635554 0.635554
0.676851 0.676851 0.676851
0.725441 0.725441 0.725441
0.725294 0.725294 0.725294
0.729422 0.729422 0.729422
0.760681 0.760681 0.760681
0.807516 0.807516 0.807516
0.812446 0.812446 0.812446
0.986796 0.986796 0.986796
0.986231 0.986231 0.986231
0.987317 0.987317 0.987317
1.004180 1.004180 1.004180
1.028811 1.028811 1.028811
1.077111 1.077111 1.077111
-0.516135 -0.516135 -0.516135
-0.510434 -0.510434 -0.510434
-0.487352 -0.487352 -0.487352
-0.446192 -0.446192 -0.446192
-0.305483 -0.305483 -0.305483
0.190870 0.190871 0.190871
0.239557 0.239557 0.239557
0.189601 0.189601 0.189601
0.266704 0.266704 0.266704
0.345484 0.345484 0.345484
0.465444 0.465444 0.465444
0.552549 0.552549 0.552549
0.369709 0.369709 0.369709
0.360076 0.360076 0.360076
0.313638 0.313638 0.313638
0.405905 0.405905 0.405905
0.501501 0.501501 0.501501
0.578534 0.578534 0.578534
0.518205 0.518205 0.518205
0.520585 0.520585 0.520585
0.538607 0.538607 0.538607
0.578774 0.578774 0.578774
0.640825 0.640825 0.640825
0.695957 0.695957 0.695957
0.734753 0.734753 0.734753
0.734952 0.734952 0.734952
0.740747 0.740747 0.740747
0.767280 0.767280 0.767280
0.820014 0.820014 0.820014
0.823825 0.823825 0.823825
0.991392 0.991392 0.991392
0.990767 0.990767 0.990767
0.991798 0.991798 0.991798
1.008015 1.008015 1.008015
1.033114 1.033114 1.033114
1.081922 1.081922 1.081922
-0.484732 -0.484732 -0.484732
-0.477512 -0.477512 -0.477512
-0.447459 -0.447459 -0.447459
-0.386611 -0.386611 -0.386611
-0.255212 -0.255212 -0.255212
0.257957 0.257956 0.257956
0.311167 0.311167 0.311166
0.270174 0.270174 0.270174
0.330962 0.330962 0.330962
0.404098 0.404098 0.404098
0.492457 0.492457 0.492457
0.572065 0.572065 0.572065
0.427354 0.427354 0.427354
0.414124 0.414124 0.414124
0.354398 0.354398 0.354398
0.439744 0.439744 0.439744
0.529044 0.529044 0.529044
0.597434 0.597434 0.597434
0.580885 0.580885 0.580885
0.575967 0.575967 0.575967
0.563865 0.563865 0.563865
0.580207 0.580207 0.580207
0.652445 0.652445 0.652445
0.703459 0.703459 0.703459
0.747071 0.747071 0.747071
0.748229 0.748229 0.748229
0.757627 0.757627 0.757627
0.786780 0.786780 0.786780
0.827191 0.827191 0.827191
0.873406 0.873406 0.873406
0.999037 0.999037 0.999037
0.998553 0.998553 0.998553
0.999829 0.999829 0.999829
1.015214 1.015214 1.015214
1.052257 1.052257 1.052257
1.090374 1.090374 1.090374
-0.453412 -0.453412 -0.453412
-0.446346 -0.446346 -0.446346
-0.416755 -0.416755 -0.416755
-0.356244 -0.356244 -0.356244
-0.225826 -0.225826 -0.225825
0.332018 0.332018 0.332018
0.359327 0.359327 0.359327
0.329813 0.329813 0.329813
0.374081 0.374081 0.374081
0.432409 0.432409 0.432409
0.507735 0.507735 0.507735
0.603393 0.603393 0.603393
0.452912 0.452912 0.452912
0.440678 0.440678 0.440678
0.395559 0.395559 0.395559
0.460752 0.460752 0.460752
0.534055 0.534055 0.534055
0.628549 0.628549 0.628549
0.587993 0.587993 0.587993
0.581430 0.581430 0.581430
0.564730 0.564730 0.564730
0.596287 0.596287 0.596287
0.647223 0.647223 0.647223
0.723411 0.723411 0.723411
0.741512 0.741512 0.741512
0.738845 0.738845 0.738845
0.734239 0.734239 0.734239
0.755569 0.755569 0.755569
0.837331 0.837331 0.837331
0.878132 0.878132 0.878132
0.921465 0.921465 0.921465
0.922098 0.922098 0.922098
0.927023 0.927023 0.927023
0.944978 0.944978 0.944978
0.978351 0.978351 0.978351
1.011224 1.011224 1.011224
