LUT/BlackWhite.cube
LUT_3D_SIZE 16
-0.018968 -0.018968 -0.018968
-0.020567 -0.020567 -0.020567
0.023155 0.023155 0.023155
0.051196 0.051195 0.051195
0.081745 0.081745 0.081745
0.119207 0.119207 0.119207
0.160091 0.160091 0.160091
0.205710 0.205710 0.205710
0.254986 0.254986 0.254986
0.302580 0.302580 0.302580
0.348969 0.348969 0.348969
0.391616 0.391616 0.391616
0.433051 0.433051 0.433051
0.473115 0.473115 0.473115
0.506629 0.506629 0.506629
0.530452 0.530452 0.530452
-0.023080 -0.023080 -0.023080
-0.024758 -0.024758 -0.024758
0.025734 0.025734 0.025734
0.053044 0.053044 0.053044
0.083046 0.083046 0.083046
0.120320 0.120320 0.120320
0.161024 0.161024 0.161024
0.206528 0.206528 0.206528
0.255734 0.255734 0.255734
0.303226 0.303226 0.303226
0.349560 0.349560 0.349560
0.392115 0.392115 0.392115
0.433492 0.433492 0.433492
0.473527 0.473527 0.473527
0.507011 0.507011 0.507011
0.530742 0.530742 0.530742
0.046675 0.046675 0.046675
0.046919 0.046919 0.046919
0.050490 0.050490 0.050490
0.073703 0.073703 0.073703
0.100357 0.100357 0.100357
0.134846 0.134846 0.134846
0.173450 0.173450 0.173450
0.217464 0.217464 0.217464
0.265473 0.265474 0.265474
0.311867 0.311868 0.311868
0.357224 0.357224 0.357224
0.398980 0.398980 0.398980
0.439635 0.439635 0.439635
0.479052 0.479052 0.479052
0.511927 0.511927 0.511927
0.534858 0.534858 0.534858
0.088957 0.088957 0.088957
0.089232 0.089232 0.089232
0.092744 0.092744 0.092744
0.095361 0.095361 0.095361
0.126075 0.126075 0.126075
0.160288 0.160288 0.160288
0.196653 0.196653 0.196653
0.238672 0.238672 0.238672
0.284866 0.284866 0.284866
0.329380 0.329380 0.329380
0.373053 0.373053 0.373053
0.413161 0.413161 0.413161
0.452430 0.452430 0.452430
0.490590 0.490590 0.490590
0.522290 0.522291 0.522291
0.543601 0.543601 0.543601
0.138961 0.138961 0.138961
0.139157 0.139157 0.139157
0.142025 0.142025 0.142025
0.147044 0.147044 0.147044
0.148195 0.148195 0.148195
0.190381 0.190381 0.190381
0.227750 0.227750 0.227750
0.268356 0.268356 0.268356
0.312853 0.312853 0.312853
0.355288 0.355288 0.355288
0.396864 0.396864 0.396864
0.434815 0.434815 0.434815
0.472183 0.472183 0.472182
0.508599 0.508599 0.508599
0.538529 0.538529 0.538529
0.557465 0.557465 0.557465
0.198708 0.198708 0.198708
0.198881 0.198881 0.198881
0.201149 0.201149 0.201149
0.205933 0.205932 0.205932
0.211937 0.211937 0.211937
0.213711 0.213711 0.213711
0.261570 0.261570 0.261570
0.304122 0.304122 0.304122
0.347655 0.347655 0.347655
0.388293 0.388293 0.388293
0.427743 0.427743 0.427743
0.463356 0.463356 0.463356
0.498508 0.498508 0.498508
0.532835 0.532835 0.532835
0.560574 0.560574 0.560574
0.576398 0.576398 0.576398
0.267118 0.267118 0.267118
0.267245 0.267245 0.267245
0.269155 0.269155 0.269155
0.273198 0.273198 0.273198
0.279561 0.279561 0.279561
0.286683 0.286683 0.286683
0.287224 0.287224 0.287224
0.341478 0.341478 0.341478
0.387408 0.387408 0.387408
0.426803 0.426803 0.426803
0.464458 0.464458 0.464458
0.497835 0.497835 0.497835
0.530726 0.530726 0.530726
0.562776 0.562776 0.562776
0.588128 0.588128 0.588128
0.600308 0.600308 0.600308
0.342399 0.342399 0.342399
0.342524 0.342524 0.342524
0.344183 0.344183 0.344183
0.347685 0.347685 0.347685
0.353303 0.353303 0.353303
0.361114 0.361114 0.361114
0.369227 0.369227 0.369227
0.370237 0.370237 0.370237
0.428135 0.428135 0.428135
0.469426 0.469426 0.469426
0.505780 0.505780 0.505780
0.537117 0.537117 0.537117
0.567952 0.567952 0.567952
0.597748 0.597748 0.597748
0.620567 0.620567 0.620567
0.628743 0.628743 0.628743
0.423909 0.423909 0.423909
0.423998 0.423998 0.423998
0.425469 0.425469 0.425469
0.428589 0.428589 0.428589
0.433567 0.433567 0.433567
0.440571 0.440571 0.440571
0.449596 0.449596 0.449596
0.458720 0.458720 0.458720
0.461914 0.461914 0.461914
0.513037 0.513037 0.513037
0.550673 0.550673 0.550673
0.580344 0.580344 0.580344
0.609240 0.609240 0.609240
0.637016 0.637016 0.637016
0.657295 0.657295 0.657295
0.661231 0.661231 0.661231
0.502856 0.502856 0.502856
0.502950 0.502950 0.502950
0.504253 0.504253 0.504253
0.507008 0.507008 0.507008
0.511414 0.511414 0.511414
0.517663 0.517663 0.517663
0.525776 0.525776 0.525776
0.535741 0.535741 0.535741
0.546026 0.546026 0.546026
0.551607 0.551607 0.551607
0.596581 0.596581 0.596581
0.626597 0.626597 0.626597
0.653949 0.653949 0.653949
0.679777 0.679777 0.679777
0.697616 0.697616 0.697616
0.697308 0.697308 0.697308
0.578372 0.578372 0.578372
0.578446 0.578446 0.578446
0.579606 0.579606 0.579606
0.582034 0.582034 0.582034
0.585967 0.585967 0.585967
0.591525 0.591525 0.591525
0.598785 0.598785 0.598785
0.607812 0.607812 0.607812
0.618586 0.618586 0.618586
0.629630 0.629630 0.629630
0.639234 0.639234 0.639234
0.673923 0.673923 0.673923
0.701168 0.701168 0.701168
0.725301 0.725301 0.725301
0.740900 0.740900 0.740900
0.736357 0.736357 0.736357
0.650874 0.650874 0.650874
0.650955 0.650955 0.650955
0.651939 0.651939 0.651939
0.654121 0.654121 0.654121
0.657634 0.657634 0.657634
0.662585 0.662585 0.662585
0.669099 0.669099 0.669099
0.677239 0.677239 0.677239
0.686961 0.686961 0.686961
0.698286 0.698286 0.698286
0.710254 0.710254 0.710254
0.720999 0.720999 0.720999
0.749638 0.749638 0.749638
0.773346 0.773346 0.773346
0.786840 0.786840 0.786840
0.778120 0.778120 0.778120
0.719503 0.719503 0.719503
0.719615 0.719615 0.719615
0.720585 0.720585 0.720585
0.722439 0.722439 0.722439
0.725657 0.725657 0.725657
0.730041 0.730041 0.730041
0.735933 0.735933 0.735933
0.743304 0.743304 0.743304
0.752047 0.752047 0.752047
0.762370 0.762370 0.762370
0.774180 0.774180 0.774180
0.786969 0.786969 0.786969
0.799717 0.799717 0.799717
0.822770 0.822770 0.822770
0.834614 0.834614 0.834614
0.821841 0.821841 0.821841
0.783917 0.783917 0.783917
0.783969 0.783969 0.783969
0.784845 0.784845 0.784845
0.786520 0.786520 0.786520
0.789384 0.789384 0.789384
0.793395 0.793395 0.793395
0.798658 0.798658 0.798658
0.805238 0.805238 0.805238
0.813190 0.813190 0.813190
0.822490 0.822490 0.822490
0.833289 0.833289 0.833289
0.845410 0.845410 0.845410
0.858540 0.858540 0.858540
0.876077 0.876077 0.876077
0.885154 0.885154 0.885154
0.867729 0.867729 0.867729
0.840601 0.840601 0.840601
0.840672 0.840672 0.840672
0.841389 0.841389 0.841389
0.842887 0.842887 0.842887
0.845466 0.845466 0.845466
0.849074 0.849074 0.849074
0.853732 0.853732 0.853732
0.859661 0.859661 0.859661
0.866861 0.866861 0.866861
0.875258 0.875258 0.875258
0.884994 0.884994 0.884994
0.895995 0.895995 0.895995
0.908202 0.908202 0.908202
0.922344 0.922344 0.922344
0.944327 0.944327 0.944327
0.917162 0.917162 0.917162
0.983469 0.983469 0.983469
0.983493 0.983493 0.983493
0.984203 0.984203 0.984203
0.985634 0.985634 0.985634
0.987656 0.987656 0.987656
0.990526 0.990526 0.990526
0.994193 0.994193 0.994193
0.998527 0.998527 0.998527
1.003465 1.003465 1.003465
1.009180 1.009180 1.009180
1.015740 1.015740 1.015740
1.023291 1.023291 1.023291
1.031843 1.031843 1.031843
1.041738 1.041738 1.041738
1.055063 1.055063 1.055063
1.075929 1.075929 1.075929
-0.537358 -0.537358 -0.537358
-0.537497 -0.537497 -0.537497
-0.537593 -0.537593 -0.537593
-0.537462 -0.537462 -0.537462
-0.536497 -0.536497 -0.536497
-0.533576 -0.533576 -0.533576
-0.527621 -0.527621 -0.527621
-0.517043 -0.517043 -0.517043
-0.500046 -0.500046 -0.500046
-0.476972 -0.476972 -0.476972
-0.446681 -0.446681 -0.446681
-0.409732 -0.409732 -0.409732
-0.361860 -0.361860 -0.361860
-0.297618 -0.297618 -0.297618
-0.218244 -0.218243 -0.218243
-0.112833 -0.112833 -0.112833
-0.021528 -0.021528 -0.021528
-0.022529 -0.022529 -0.022529
0.020597 0.020597 0.020597
0.049025 0.049025 0.049025
0.079284 0.079284 0.079284
0.116732 0.116732 0.116732
0.157704 0.157704 0.157704
0.203492 0.203492 0.203492
0.252955 0.252955 0.252955
0.300697 0.300697 0.300697
0.347280 0.347280 0.347280
0.390079 0.390079 0.390079
0.431647 0.431647 0.431647
0.471886 0.471886 0.471886
0.505524 0.505525 0.505525
0.529466 0.529466 0.529466
0.047595 0.047595 0.047595
0.046799 0.046799 0.046799
0.052059 0.052059 0.052059
0.072761 0.072761 0.072761
0.098683 0.098683 0.098683
0.132845 0.132845 0.132845
0.171397 0.171397 0.171397
0.215451 0.215450 0.215450
0.263562 0.263562 0.263562
0.310112 0.310112 0.310112
0.355628 0.355628 0.355628
0.397512 0.397512 0.397512
0.438316 0.438316 0.438316
0.477840 0.477840 0.477840
0.510837 0.510837 0.510837
0.533923 0.533923 0.533923
0.089506 0.089506 0.089506
0.088839 0.088839 0.088839
0.092780 0.092780 0.092780
0.096252 0.096252 0.096252
0.125487 0.125487 0.125487
0.159089 0.159089 0.159089
0.195172 0.195172 0.195172
0.237075 0.237075 0.237075
0.283229 0.283229 0.283229
0.327830 0.327830 0.327830
0.371580 0.371580 0.371580
0.411783 0.411783 0.411783
0.451186 0.451186 0.451186
0.489470 0.489470 0.489470
0.521243 0.521243 0.521243
0.542738 0.542738 0.542738
0.139373 0.139373 0.139373
0.138751 0.138751 0.138751
0.141856 0.141856 0.141856
0.147078 0.147078 0.147078
0.148842 0.148842 0.148842
0.189952 0.189952 0.189952
0.226853 0.226853 0.226853
0.267209 0.267209 0.267209
0.311592 0.311592 0.311592
0.354016 0.354016 0.354016
0.395585 0.395585 0.395585
0.433605 0.433605 0.433605
0.471033 0.471033 0.471033
0.507539 0.507539 0.507539
0.537578 0.537578 0.537578
0.556627 0.556627 0.556627
0.199054 0.199054 0.199054
0.198476 0.198476 0.198476
0.200945 0.200945 0.200945
0.205800 0.205800 0.205800
0.211976 0.211976 0.211976
0.214201 0.214201 0.214201
0.261245 0.261245 0.261245
0.303412 0.303412 0.303412
0.346752 0.346752 0.346752
0.387286 0.387286 0.387286
0.426716 0.426716 0.426716
0.462329 0.462328 0.462328
0.497535 0.497535 0.497535
0.531864 0.531864 0.531864
0.559719 0.559719 0.559719
0.575626 0.575626 0.575626
0.267418 0.267418 0.267418
0.266859 0.266859 0.266859
0.268924 0.268924 0.268924
0.273018 0.273018 0.273018
0.279465 0.279465 0.279465
0.286711 0.286711 0.286711
0.287616 0.287616 0.287616
0.341236 0.341236 0.341236
0.386858 0.386858 0.386858
0.426086 0.426086 0.426086
0.463647 0.463647 0.463647
0.496991 0.496991 0.496991
0.529896 0.529896 0.529896
0.561971 0.561971 0.561971
0.587357 0.587357 0.587357
0.599573 0.599573 0.599573
0.342679 0.342679 0.342679
0.342151 0.342151 0.342151
0.343944 0.343944 0.343944
0.347476 0.347476 0.347476
0.353127 0.353127 0.353127
0.360990 0.360990 0.360990
0.369239 0.369239 0.369239
0.370523 0.370523 0.370523
0.427925 0.427925 0.427925
0.469010 0.469010 0.469010
0.505194 0.505194 0.505194
0.536502 0.536502 0.536502
0.567245 0.567245 0.567245
0.597075 0.597075 0.597075
0.619892 0.619892 0.619892
0.628128 0.628128 0.628128
0.424144 0.424144 0.424144
0.423620 0.423620 0.423620
0.425230 0.425230 0.425230
0.428345 0.428345 0.428345
0.433383 0.433383 0.433383
0.440412 0.440412 0.440412
0.449515 0.449515 0.449515
0.458718 0.458718 0.458718
0.462130 0.462130 0.462130
0.512870 0.512870 0.512870
0.550302 0.550302 0.550302
0.579888 0.579888 0.579888
0.608744 0.608744 0.608744
0.636456 0.636456 0.636456
0.656685 0.656685 0.656685
0.660731 0.660731 0.660731
0.503063 0.503063 0.503063
0.502605 0.502605 0.502605
0.503997 0.503997 0.503997
0.506753 0.506753 0.506753
0.511240 0.511240 0.511240
0.517479 0.517479 0.517479
0.525634 0.525634 0.525634
0.535655 0.535655 0.535655
0.546018 0.546018 0.546018
0.551805 0.551805 0.551805
0.596450 0.596450 0.596450
0.626287 0.626287 0.626287
0.653569 0.653569 0.653569
0.679339 0.679339 0.679339
0.697131 0.697131 0.697131
0.696900 0.696900 0.696900
0.578574 0.578574 0.578574
0.578131 0.578131 0.578131
0.579382 0.579382 0.579382
0.581822 0.581822 0.581822
0.585770 0.585770 0.585770
0.591346 0.591346 0.591346
0.598633 0.598633 0.598633
0.607676 0.607676 0.607676
0.618537 0.618537 0.618537
0.629621 0.629621 0.629621
0.639368 0.639368 0.639368
0.673782 0.673782 0.673782
0.700886 0.700886 0.700886
0.725010 0.725010 0.725010
0.740462 0.740462 0.740462
0.736066 0.736066 0.736066
0.651027 0.651027 0.651027
0.650643 0.650643 0.650643
0.651715 0.651715 0.651715
0.653952 0.653952 0.653952
0.657443 0.657443 0.657443
0.662432 0.662432 0.662432
0.668931 0.668931 0.668931
0.677137 0.677137 0.677137
0.686896 0.686896 0.686896
0.698262 0.698262 0.698262
0.710310 0.710310 0.710310
0.721169 0.721169 0.721169
0.749518 0.749518 0.749518
0.773115 0.773115 0.773115
0.786544 0.786544 0.786544
0.777877 0.777877 0.777877
0.719694 0.719694 0.719694
0.719369 0.719369 0.719369
0.720353 0.720353 0.720353
0.722343 0.722343 0.722343
0.725448 0.725448 0.725448
0.729853 0.729853 0.729853
0.735772 0.735772 0.735772
0.743133 0.743133 0.743133
0.751924 0.751924 0.751924
0.762283 0.762283 0.762283
0.774200 0.774200 0.774200
0.786958 0.786958 0.786958
0.799793 0.799793 0.799793
0.822660 0.822660 0.822660
0.834438 0.834438 0.834438
0.821641 0.821641 0.821641
0.784070 0.784070 0.784070
0.783790 0.783790 0.783790
0.784641 0.784641 0.784641
0.786337 0.786337 0.786337
0.789191 0.789191 0.789191
0.793233 0.793233 0.793233
0.798487 0.798487 0.798487
0.805084 0.805084 0.805084
0.813054 0.813054 0.813054
0.822453 0.822453 0.822453
0.833202 0.833202 0.833202
0.845351 0.845351 0.845351
0.858528 0.858528 0.858528
0.876117 0.876117 0.876117
0.885103 0.885103 0.885103
0.867531 0.867531 0.867531
0.840765 0.840765 0.840765
0.840437 0.840437 0.840437
0.841240 0.841240 0.841240
0.842809 0.842809 0.842809
0.845279 0.845279 0.845279
0.848895 0.848895 0.848895
0.853678 0.853678 0.853678
0.859564 0.859564 0.859564
0.866781 0.866781 0.866781
0.875186 0.875186 0.875186
0.884890 0.884890 0.884890
0.895957 0.895957 0.895957
0.908148 0.908148 0.908148
0.922330 0.922330 0.922330
0.944318 0.944318 0.944318
0.917055 0.917055 0.917055
0.983488 0.983488 0.983488
0.983298 0.983298 0.983298
0.984070 0.984070 0.984070
0.985403 0.985403 0.985403
0.987523 0.987523 0.987523
0.990392 0.990392 0.990392
0.994055 0.994055 0.994055
0.998335 0.998335 0.998335
1.003303 1.003303 1.003303
1.009023 1.009023 1.009023
1.015599 1.015599 1.015599
1.023165 1.023165 1.023165
1.031736 1.031736 1.031736
1.041632 1.041632 1.041632
1.054986 1.054986 1.054986
1.075893 1.075893 1.075893
-0.537241 -0.537241 -0.537241
-0.537287 -0.537287 -0.537287
-0.537398 -0.537398 -0.537398
-0.537224 -0.537224 -0.537224
-0.536237 -0.536237 -0.536237
-0.533223 -0.533223 -0.533223
-0.527225 -0.527225 -0.527225
-0.516511 -0.516511 -0.516511
-0.499414 -0.499414 -0.499414
-0.476244 -0.476244 -0.476244
-0.445814 -0.445815 -0.445815
-0.408705 -0.408705 -0.408705
-0.360648 -0.360648 -0.360648
-0.296039 -0.296039 -0.296039
-0.215886 -0.215886 -0.215886
-0.107328 -0.107328 -0.107328
0.022370 0.022370 0.022370
-0.009903 -0.009903 -0.009903
0.029980 0.029980 0.029980
0.054970 0.054970 0.054970
0.084758 0.084758 0.084758
0.121812 0.121812 0.121812
0.162404 0.162404 0.162404
0.207788 0.207788 0.207788
0.256857 0.256857 0.256857
0.304250 0.304250 0.304250
0.350473 0.350473 0.350473
0.392957 0.392957 0.392957
0.434251 0.434251 0.434251
0.474210 0.474210 0.474210
0.507581 0.507581 0.507581
0.531280 0.531280 0.531280
0.049812 0.049812 0.049812
0.049915 0.049915 0.049915
0.054914 0.054914 0.054914
0.068609 0.068609 0.068609
0.089708 0.089708 0.089708
0.121521 0.121521 0.121521
0.159714 0.159714 0.159714
0.204112 0.204112 0.204112
0.252834 0.252834 0.252834
0.300211 0.300211 0.300211
0.346605 0.346605 0.346605
0.389308 0.389308 0.389308
0.430904 0.430904 0.430904
0.471167 0.471167 0.471167
0.504897 0.504897 0.504897
0.528913 0.528913 0.528913
0.091014 0.091014 0.091014
0.090862 0.090862 0.090862
0.092898 0.092898 0.092898
0.099718 0.099718 0.099718
0.123755 0.123755 0.123755
0.154544 0.154544 0.154544
0.189321 0.189321 0.189321
0.230621 0.230621 0.230621
0.276622 0.276622 0.276622
0.321443 0.321443 0.321443
0.365566 0.365566 0.365566
0.406264 0.406264 0.406264
0.446061 0.446061 0.446061
0.484765 0.484765 0.484765
0.517045 0.517045 0.517045
0.539192 0.539192 0.539192
0.140440 0.140440 0.140440
0.140319 0.140319 0.140319
0.140956 0.140956 0.140956
0.147534 0.147534 0.147534
0.151548 0.151548 0.151548
0.188508 0.188508 0.188508
0.223419 0.223419 0.223419
0.262691 0.262691 0.262691
0.306497 0.306497 0.306497
0.348769 0.348769 0.348769
0.390403 0.390403 0.390403
0.428680 0.428680 0.428680
0.466419 0.466419 0.466419
0.503203 0.503203 0.503203
0.533606 0.533606 0.533606
0.553241 0.553241 0.553241
0.199899 0.199899 0.199899
0.199817 0.199817 0.199817
0.199825 0.199825 0.199825
0.205571 0.205571 0.205571
0.212402 0.212402 0.212402
0.216446 0.216446 0.216446
0.260127 0.260127 0.260127
0.300698 0.300698 0.300698
0.343142 0.343142 0.343142
0.383240 0.383240 0.383240
0.422499 0.422499 0.422499
0.458159 0.458159 0.458159
0.493502 0.493502 0.493502
0.527992 0.527991 0.527991
0.556129 0.556129 0.556129
0.572538 0.572538 0.572538
0.268123 0.268123 0.268123
0.268050 0.268050 0.268050
0.267662 0.267662 0.267662
0.272483 0.272483 0.272483
0.279217 0.279217 0.279217
0.287038 0.287038 0.287038
0.289384 0.289384 0.289384
0.340254 0.340254 0.340254
0.384622 0.384622 0.384622
0.423203 0.423203 0.423203
0.460405 0.460405 0.460405
0.493608 0.493608 0.493608
0.526506 0.526506 0.526506
0.558593 0.558593 0.558593
0.584157 0.584157 0.584157
0.596803 0.596803 0.596803
0.343290 0.343290 0.343290
0.343230 0.343230 0.343230
0.342549 0.342549 0.342549
0.346733 0.346733 0.346733
0.352557 0.352557 0.352557
0.360714 0.360714 0.360714
0.369378 0.369378 0.369378
0.371845 0.371845 0.371845
0.427113 0.427113 0.427113
0.467219 0.467219 0.467219
0.502887 0.502887 0.502887
0.533864 0.533864 0.533864
0.564479 0.564479 0.564479
0.594251 0.594251 0.594251
0.617128 0.617128 0.617128
0.625619 0.625619 0.625619
0.424678 0.424678 0.424678
0.424650 0.424650 0.424650
0.423836 0.423836 0.423836
0.427545 0.427545 0.427545
0.432687 0.432687 0.432687
0.439902 0.439902 0.439902
0.449206 0.449206 0.449206
0.458806 0.458806 0.458806
0.463104 0.463104 0.463104
0.512197 0.512197 0.512197
0.548810 0.548810 0.548810
0.578011 0.578011 0.578011
0.606605 0.606605 0.606605
0.634168 0.634168 0.634168
0.654384 0.654384 0.654384
0.658550 0.658550 0.658550
0.503566 0.503566 0.503566
0.503506 0.503506 0.503506
0.502653 0.502653 0.502653
0.505943 0.505943 0.505943
0.510468 0.510468 0.510468
0.516852 0.516852 0.516852
0.525152 0.525152 0.525152
0.535407 0.535407 0.535407
0.546030 0.546030 0.546030
0.552569 0.552569 0.552569
0.595878 0.595878 0.595878
0.625134 0.625134 0.625134
0.651996 0.651996 0.651996
0.677555 0.677555 0.677555
0.695258 0.695258 0.695258
0.695070 0.695070 0.695070
0.578986 0.578986 0.578986
0.578947 0.578947 0.578947
0.578129 0.578129 0.578129
0.581041 0.581041 0.581041
0.585037 0.585037 0.585037
0.590703 0.590703 0.590703
0.598099 0.598099 0.598099
0.607291 0.607291 0.607291
0.618297 0.618297 0.618297
0.629643 0.629643 0.629643
0.639945 0.639945 0.639945
0.673311 0.673311 0.673311
0.699876 0.699876 0.699876
0.723657 0.723657 0.723657
0.739079 0.739079 0.739079
0.734566 0.734566 0.734566
0.651399 0.651399 0.651399
0.651361 0.651361 0.651361
0.650618 0.650618 0.650618
0.653216 0.653216 0.653216
0.656707 0.656707 0.656707
0.661818 0.661818 0.661818
0.668401 0.668401 0.668401
0.676590 0.676590 0.676590
0.686563 0.686563 0.686563
0.698021 0.698021 0.698021
0.710245 0.710245 0.710245
0.721618 0.721618 0.721618
0.749173 0.749173 0.749173
0.772272 0.772272 0.772272
0.785523 0.785523 0.785523
0.776682 0.776682 0.776682
0.720102 0.720102 0.720102
0.720050 0.720050 0.720050
0.719321 0.719321 0.719321
0.721676 0.721676 0.721676
0.724757 0.724757 0.724757
0.729249 0.729249 0.729249
0.735233 0.735233 0.735233
0.742682 0.742682 0.742682
0.751568 0.751568 0.751568
0.762040 0.762040 0.762040
0.773978 0.773978 0.773978
0.786947 0.786947 0.786947
0.800118 0.800118 0.800118
0.822379 0.822379 0.822379
0.833760 0.833760 0.833760
0.820745 0.820745 0.820745
0.784409 0.784409 0.784409
0.784376 0.784376 0.784376
0.783697 0.783697 0.783697
0.785686 0.785686 0.785686
0.788563 0.788563 0.788563
0.792616 0.792616 0.792616
0.797956 0.797956 0.797956
0.804622 0.804622 0.804622
0.812676 0.812676 0.812676
0.822086 0.822086 0.822086
0.832982 0.832982 0.832982
0.845187 0.845187 0.845187
0.858502 0.858502 0.858502
0.876424 0.876424 0.876424
0.884786 0.884786 0.884786
0.866961 0.866961 0.866961
0.840993 0.840993 0.840993
0.840961 0.840961 0.840961
0.840319 0.840319 0.840319
0.842137 0.842137 0.842137
0.844697 0.844697 0.844697
0.848308 0.848308 0.848308
0.853111 0.853111 0.853111
0.859054 0.859054 0.859054
0.866260 0.866260 0.866260
0.874809 0.874809 0.874809
0.884632 0.884632 0.884632
0.895701 0.895701 0.895701
0.908034 0.908034 0.908034
0.922293 0.922293 0.922293
0.944505 0.944505 0.944505
0.916707 0.916707 0.916707
0.983754 0.983754 0.983754
0.983740 0.983740 0.983740
0.983281 0.983281 0.983281
0.984761 0.984761 0.984761
0.986955 0.986955 0.986955
0.989834 0.989834 0.989834
0.993523 0.993523 0.993523
0.997715 0.997715 0.997715
1.002762 1.002762 1.002762
1.008516 1.008516 1.008516
1.015136 1.015136 1.015136
1.022758 1.022758 1.022758
1.031395 1.031395 1.031395
1.041342 1.041342 1.041342
1.054838 1.054838 1.054838
1.075880 1.075880 1.075880
-0.537016 -0.537016 -0.537016
-0.536909 -0.536909 -0.536909
-0.536586 -0.536586 -0.536586
-0.536603 -0.536603 -0.536603
-0.535485 -0.535485 -0.535485
-0.532333 -0.532333 -0.532333
-0.526160 -0.526160 -0.526160
-0.515317 -0.515317 -0.515317
-0.497977 -0.497977 -0.497977
-0.474594 -0.474594 -0.474594
-0.443938 -0.443938 -0.443938
-0.406537 -0.406537 -0.406537
-0.358052 -0.358052 -0.358052
-0.292688 -0.292688 -0.292688
-0.210922 -0.210922 -0.210922
-0.094833 -0.094832 -0.094832
0.039157 0.039157 0.039157
0.027522 0.027522 0.027521
0.046385 0.046385 0.046385
0.060344 0.060344 0.060344
0.088948 0.088948 0.088948
0.125227 0.125227 0.125227
0.165266 0.165266 0.165266
0.210281 0.210281 0.210281
0.259062 0.259062 0.259062
0.306206 0.306206 0.306206
0.352203 0.352203 0.352203
0.394496 0.394496 0.394496
0.435645 0.435645 0.435645
0.475434 0.475434 0.475434
0.508689 0.508689 0.508689
0.532211 0.532211 0.532211
0.068317 0.068317 0.068317
0.066251 0.066251 0.066251
0.059782 0.059782 0.059782
0.074503 0.074503 0.074503
0.097141 0.097141 0.097141
0.129867 0.129867 0.129867
0.168098 0.168098 0.168098
0.212107 0.212107 0.212107
0.260234 0.260234 0.260234
0.307012 0.307012 0.307012
0.352772 0.352772 0.352772
0.394899 0.394899 0.394899
0.435961 0.435961 0.435961
0.475666 0.475666 0.475666
0.508881 0.508881 0.508881
0.532432 0.532432 0.532432
0.092525 0.092525 0.092525
0.092860 0.092860 0.092860
0.096347 0.096347 0.096347
0.102693 0.102693 0.102693
0.117527 0.117527 0.117527
0.140342 0.140342 0.140342
0.171612 0.171612 0.171612
0.211734 0.211734 0.211734
0.257794 0.257794 0.257794
0.303601 0.303601 0.303601
0.349025 0.349025 0.349025
0.391180 0.391180 0.391180
0.432327 0.432327 0.432327
0.472282 0.472282 0.472282
0.505845 0.505845 0.505845
0.529870 0.529870 0.529870
0.142572 0.142572 0.142572
0.142478 0.142478 0.142478
0.143971 0.143971 0.143971
0.147525 0.147525 0.147525
0.156920 0.156920 0.156920
0.185730 0.185730 0.185730
0.216672 0.216672 0.216672
0.253659 0.253659 0.253659
0.296207 0.296207 0.296207
0.338256 0.338256 0.338256
0.380175 0.380175 0.380175
0.419003 0.419003 0.419003
0.457341 0.457341 0.457341
0.494771 0.494771 0.494771
0.525932 0.525932 0.525932
0.546889 0.546889 0.546889
0.201597 0.201597 0.201597
0.201535 0.201535 0.201535
0.202405 0.202405 0.202405
0.204252 0.204252 0.204252
0.213499 0.213499 0.213499
0.221140 0.221140 0.221140
0.258077 0.258077 0.258077
0.295479 0.295479 0.295479
0.336039 0.336039 0.336039
0.375275 0.375275 0.375275
0.414200 0.414201 0.414201
0.449984 0.449984 0.449984
0.485603 0.485603 0.485603
0.520485 0.520485 0.520485
0.549169 0.549169 0.549169
0.566630 0.566630 0.566630
0.269541 0.269541 0.269541
0.269484 0.269484 0.269484
0.269966 0.269966 0.269966
0.270721 0.270721 0.270721
0.279014 0.279014 0.279014
0.288015 0.288015 0.288015
0.293272 0.293272 0.293272
0.338605 0.338605 0.338605
0.380451 0.380451 0.380451
0.417608 0.417608 0.417608
0.454100 0.454100 0.454100
0.487006 0.487006 0.487006
0.519861 0.519861 0.519861
0.552094 0.552094 0.552094
0.577997 0.577997 0.577997
0.591461 0.591461 0.591461
0.344523 0.344523 0.344523
0.344444 0.344444 0.344444
