LUT/Depth of Field.cube
LUT_3D_SIZE 6
0.056316 -0.072834 0.147347
0.133593 -0.070966 0.147347
0.289193 -0.072249 0.147345
0.485897 -0.072529 0.147342
0.693026 -0.072811 0.147324
0.984127 -0.073194 0.147320
0.057265 0.131927 0.147346
0.122219 0.129924 0.147346
0.289193 0.131270 0.147344
0.485897 0.126469 0.147340
0.693025 0.119953 0.147322
0.984128 0.135688 0.147319
0.056621 0.343875 0.147339
0.124081 0.343875 0.147339
0.285415 0.342609 0.147332
0.485895 0.337167 0.147328
0.693025 0.319607 0.147314
0.984128 0.355940 0.147311
0.056460 0.525699 0.147318
0.121613 0.525699 0.147318
0.279250 0.525699 0.147316
0.479281 0.525121 0.147313
0.693022 0.504924 0.147310
0.984126 0.559353 0.147306
0.056294 0.679015 0.147304
0.118279 0.679015 0.147304
0.269454 0.679015 0.147308
0.463412 0.679014 0.147305
0.687391 0.677226 0.147291
0.984125 0.749856 0.147288
0.056115 1.064208 0.141748
0.133747 1.064208 0.143484
0.306427 1.064207 0.142239
0.526639 1.064204 0.141997
0.785338 1.064218 0.141469
0.988305 1.064498 0.141443
0.056796 -0.559448 0.252965
0.118121 -0.559705 0.257227
0.285515 -0.560193 0.259371
0.480638 -0.560049 0.255526
0.687187 -0.560048 0.249014
0.984615 -0.559996 0.263199
0.056315 0.128178 0.245335
0.125483 0.130500 0.251154
0.322555 0.092113 0.228285
0.517614 -0.028697 0.185398
0.727884 -0.085670 0.170672
0.989137 -0.101368 0.161864
0.056309 0.343875 0.243107
0.056965 0.354954 0.197820
0.288650 0.351752 0.207692
0.496936 0.331771 0.206586
0.709890 0.309896 0.203059
0.986801 0.337034 0.195880
0.056293 0.525698 0.239336
0.055976 0.529318 0.187901
0.264274 0.529411 0.200304
0.479406 0.528380 0.199744
0.699058 0.506101 0.200660
0.985667 0.553874 0.195149
0.056277 0.679015 0.235052
0.053604 0.680901 0.184231
0.250796 0.681284 0.196315
0.454808 0.680946 0.196437
0.687670 0.678740 0.197760
0.984790 0.749182 0.195018
0.056374 1.064207 0.237209
0.027173 1.061527 0.123253
0.263968 1.091674 -0.075985
0.503663 1.084536 -0.081759
0.771332 1.070166 -0.079962
0.987931 1.067936 -0.093774
0.056485 -0.559521 0.430854
0.136819 -0.568256 0.437121
0.303534 -0.593398 0.451123
0.491903 -0.593398 0.446102
0.694714 -0.593399 0.428326
0.985619 -0.593399 0.475259
0.056314 0.129437 0.419203
0.093856 0.087569 0.461852
0.310970 0.084735 0.448108
0.509050 0.064647 0.415765
0.719962 0.054612 0.393482
0.987073 0.049146 0.417206
0.056308 0.342978 0.417913
0.089218 0.350437 0.425492
0.247408 0.350975 0.439039
0.517540 0.322864 0.408031
0.783814 0.274589 0.366227
1.000018 0.208606 0.318733
0.056294 0.525698 0.407128
0.091491 0.528378 0.400604
0.180821 0.540038 0.353327
0.464770 0.538545 0.322283
0.731178 0.507777 0.333216
0.994617 0.524288 0.291463
0.056276 0.679015 0.393495
0.098125 0.679963 0.383788
0.148309 0.690328 0.313833
0.397660 0.691721 0.280840
0.681193 0.686805 0.279177
0.988553 0.743748 0.264224
0.056284 1.064207 0.417600
0.051621 1.056871 0.392565
0.165958 1.138869 0.308837
0.438429 1.138763 0.278323
0.732606 1.138966 0.257605
0.985676 1.139620 0.117174
0.056413 -0.559537 0.620278
0.135223 -0.568256 0.622289
0.301848 -0.593398 0.629759
0.500687 -0.593398 0.638705
0.705728 -0.593399 0.626443
0.987455 -0.593399 0.689033
0.056312 0.125189 0.610714
0.060011 0.040396 0.647647
0.285543 0.071452 0.638135
0.498606 0.062056 0.626656
0.712850 0.056773 0.596179
0.986755 0.049907 0.642577
0.056309 0.334356 0.610713
0.089179 0.331325 0.618721
0.225077 0.298680 0.650323
0.500266 0.280467 0.646593
0.779053 0.257165 0.622922
0.999874 0.201608 0.631814
0.056293 0.525362 0.606990
0.093593 0.528103 0.610422
0.182030 0.537366 0.623875
0.436818 0.532856 0.628736
0.739518 0.514320 0.603243
0.997758 0.479334 0.570240
0.056275 0.679015 0.584821
0.094992 0.679963 0.582612
0.154601 0.689352 0.567673
0.327702 0.699374 0.532235
0.654471 0.692649 0.519371
0.994593 0.733230 0.518431
0.056257 1.064206 0.632534
0.047940 1.056852 0.620517
0.164302 1.138909 0.589201
0.361183 1.137812 0.525092
0.678419 1.137888 0.496244
0.983742 1.139163 0.469004
0.056346 -0.559493 0.772714
0.131347 -0.568256 0.773561
0.293792 -0.593398 0.776158
0.493041 -0.593398 0.780621
0.715782 -0.593399 0.786097
0.989708 -0.593400 0.841787
0.056310 0.118781 0.763275
0.043600 0.013512 0.789496
0.266079 0.058046 0.783585
0.470728 0.054881 0.776706
0.704714 0.055486 0.770828
0.986448 0.050985 0.820982
0.056307 0.319071 0.763274
0.088453 0.308346 0.772297
0.197427 0.264756 0.810248
0.461525 0.251921 0.807230
0.743558 0.227216 0.804296
0.998056 0.191261 0.836226
0.056290 0.506046 0.763272
0.094352 0.504432 0.767424
0.169023 0.499030 0.785682
0.393816 0.483683 0.801499
0.701299 0.472989 0.800081
0.997774 0.458257 0.824917
0.056273 0.677585 0.760343
0.093950 0.678393 0.761894
0.153520 0.685897 0.769409
0.323951 0.693217 0.779571
0.632527 0.686526 0.778162
0.994538 0.672316 0.758757
0.056197 1.064204 0.808190
0.042386 1.056879 0.804821
0.148554 1.139074 0.797505
0.351394 1.138076 0.780845
0.590650 1.137759 0.716686
0.982085 1.139542 0.707791
0.056256 -0.559515 1.015377
0.143166 -0.568255 1.015392
0.329594 -0.593398 1.015607
0.555141 -0.593399 1.016240
0.810683 -0.593399 1.017040
0.991648 -0.593400 1.015618
0.056309 0.136690 0.979720
0.087668 0.068209 0.979703
0.291296 0.100950 0.979774
0.513424 0.100936 0.979774
0.774119 0.100964 0.979773
0.988727 0.100953 0.979773
0.056303 0.357802 0.979719
0.116145 0.349096 0.979702
0.210341 0.273913 0.980618
0.465466 0.264429 0.980800
0.748934 0.264425 0.980799
0.988550 0.264424 0.980799
0.056285 0.562036 0.979719
0.116053 0.557556 0.979702
0.221793 0.535196 0.980542
0.388672 0.476874 0.981891
0.703499 0.461215 0.982325
0.988500 0.461214 0.982324
0.056267 0.753337 0.979717
0.115045 0.751893 0.979700
0.221800 0.743607 0.980540
0.395440 0.726079 0.981786
0.614920 0.654327 0.983089
0.987073 0.646317 0.983192
0.056238 0.963560 0.979716
0.115636 0.963662 0.979699
0.221783 0.963129 0.980538
0.395478 0.962610 0.981784
0.614413 0.956747 0.982861
0.984122 0.948223 0.981721
