LUT/Depth of Field.cube
LUT_3D_SIZE 16
0.056316 -0.072834 0.147347
0.069173 -0.072176 0.147347
0.089251 -0.071040 0.147347
0.133593 -0.070966 0.147347
0.179405 -0.071640 0.147345
0.231642 -0.072054 0.147344
0.289193 -0.072249 0.147345
0.353204 -0.072367 0.147344
0.421594 -0.072460 0.147343
0.485897 -0.072529 0.147342
0.545031 -0.072584 0.147343
0.608132 -0.072666 0.147342
0.693026 -0.072811 0.147324
0.819741 -0.073009 0.147320
0.953545 -0.073165 0.147324
0.984127 -0.073194 0.147320
0.056661 -0.045402 0.147347
0.069711 -0.042751 0.147347
0.089631 -0.069436 0.147347
0.133305 -0.066200 0.147347
0.179405 -0.065941 0.147345
0.231642 -0.066306 0.147344
0.289193 -0.066675 0.147345
0.353205 -0.066850 0.147344
0.421594 -0.066782 0.147343
0.485897 -0.066868 0.147342
0.545031 -0.066981 0.147343
0.608132 -0.067031 0.147342
0.693026 -0.066878 0.147324
0.819741 -0.066864 0.147320
0.953544 -0.066259 0.147324
0.984128 -0.067044 0.147320
0.057240 0.057500 0.147347
0.061351 0.058097 0.147347
0.083654 0.057500 0.147347
0.132848 0.062205 0.147347
0.179405 0.061484 0.147345
0.231642 0.057158 0.147344
0.289193 0.056344 0.147345
0.353204 0.056129 0.147344
0.421594 0.056047 0.147343
0.485897 0.054604 0.147341
0.545031 0.052954 0.147343
0.608132 0.050471 0.147341
0.693025 0.051064 0.147324
0.819741 0.053548 0.147320
0.953544 0.060334 0.147324
0.984127 0.059730 0.147320
0.057265 0.131927 0.147346
0.063472 0.131926 0.147346
0.085323 0.131927 0.147346
0.122219 0.129924 0.147346
0.179405 0.141316 0.147344
0.231640 0.135534 0.147343
0.289193 0.131270 0.147344
0.353203 0.130506 0.147343
0.421594 0.129772 0.147342
0.485897 0.126469 0.147340
0.545031 0.120707 0.147342
0.608131 0.117398 0.147340
0.693025 0.119953 0.147322
0.819741 0.126636 0.147319
0.953544 0.136062 0.147322
0.984128 0.135688 0.147319
0.056937 0.201837 0.147345
0.064105 0.201837 0.147345
0.084975 0.201837 0.147345
0.123773 0.200851 0.147345
0.169520 0.197275 0.147342
0.230718 0.207963 0.147341
0.289193 0.205233 0.147342
0.353202 0.203994 0.147341
0.421593 0.202834 0.147340
0.485896 0.197982 0.147339
0.545031 0.191898 0.147340
0.608131 0.186039 0.147339
0.693025 0.186068 0.147321
0.819741 0.194826 0.147317
0.953543 0.210923 0.147321
0.984127 0.210728 0.147317
0.056733 0.273599 0.147342
0.064293 0.273599 0.147342
0.085586 0.273599 0.147342
0.123970 0.273599 0.147342
0.171200 0.274348 0.147340
0.225164 0.272058 0.147339
0.289076 0.277305 0.147340
0.353200 0.275995 0.147339
0.421593 0.274383 0.147332
0.485896 0.268279 0.147331
0.545030 0.259578 0.147332
0.608131 0.253478 0.147331
0.693025 0.254668 0.147318
0.819741 0.267418 0.147314
0.953543 0.284270 0.147318
0.984128 0.284167 0.147314
0.056621 0.343875 0.147339
0.064392 0.343875 0.147339
0.084647 0.343875 0.147339
0.124081 0.343875 0.147339
0.172247 0.343604 0.147332
0.226872 0.344187 0.147330
0.285415 0.342609 0.147332
0.353054 0.346138 0.147330
0.421592 0.344407 0.147329
0.485895 0.337167 0.147328
0.545030 0.323818 0.147329
0.608130 0.317542 0.147328
0.693025 0.319607 0.147314
0.819741 0.334371 0.147311
0.953543 0.355882 0.147314
0.984128 0.355940 0.147311
0.056552 0.410535 0.147329
0.064448 0.410535 0.147330
0.085400 0.410535 0.147329
0.123280 0.410535 0.147330
0.173044 0.410337 0.147327
0.225885 0.410400 0.147326
0.286266 0.410337 0.147327
0.349077 0.409431 0.147326
0.421416 0.412307 0.147325
0.485894 0.404080 0.147324
0.545867 0.389873 0.147325
0.608129 0.380625 0.147324
0.693024 0.380618 0.147309
0.819741 0.399261 0.147306
0.953542 0.425515 0.147309
0.984127 0.425599 0.147306
0.056497 0.472731 0.147324
0.064518 0.472731 0.147324
0.085338 0.472731 0.147324
0.122495 0.472731 0.147324
0.170689 0.472731 0.147322
0.226114 0.472582 0.147321
0.284712 0.472731 0.147322
0.348309 0.472582 0.147321
0.415727 0.471940 0.147320
0.485810 0.468953 0.147319
0.546213 0.456390 0.147320
0.608032 0.443680 0.147319
0.693023 0.445584 0.147304
0.819740 0.465287 0.147306
0.953541 0.493187 0.147304
0.984126 0.493445 0.147306
0.056460 0.525699 0.147318
0.064495 0.525699 0.147318
0.085294 0.525699 0.147318
0.121613 0.525699 0.147318
0.169139 0.525699 0.147316
0.221802 0.525698 0.147315
0.279250 0.525699 0.147316
0.341803 0.525698 0.147315
0.408778 0.525574 0.147314
0.479281 0.525121 0.147313
0.545218 0.516858 0.147314
0.608695 0.503838 0.147313
0.693022 0.504924 0.147310
0.819740 0.527412 0.147306
0.953540 0.559097 0.147310
0.984126 0.559353 0.147306
0.056435 0.572836 0.147311
0.064457 0.572836 0.147311
0.084448 0.572836 0.147311
0.118999 0.572836 0.147311
0.164959 0.572836 0.147309
0.215119 0.572836 0.147308
0.272872 0.572836 0.147309
0.333807 0.572836 0.147308
0.399270 0.572836 0.147306
0.468708 0.572728 0.147305
0.541580 0.571877 0.147306
0.609355 0.563067 0.147305
0.693021 0.565437 0.147308
0.819739 0.588837 0.147307
0.953539 0.623333 0.147308
0.984125 0.623540 0.147307
0.056385 0.621234 0.147303
0.064477 0.621234 0.147303
0.084396 0.621234 0.147303
0.118170 0.621234 0.147303
0.162090 0.621234 0.147307
0.215100 0.621234 0.147306
0.268875 0.621234 0.147307
0.328904 0.621234 0.147306
0.393375 0.621233 0.147304
0.462025 0.621233 0.147309
0.533356 0.621233 0.147304
0.606629 0.621233 0.147309
0.693020 0.623546 0.147301
0.819739 0.646992 0.147299
0.953537 0.686132 0.147301
0.984125 0.686453 0.147299
0.056294 0.679015 0.147304
0.064580 0.679015 0.147304
0.083484 0.679015 0.147304
0.118279 0.679015 0.147304
0.164413 0.679015 0.147308
0.213128 0.679015 0.147308
0.269454 0.679015 0.147308
0.329736 0.679015 0.147308
0.394416 0.679015 0.147306
0.463412 0.679014 0.147305
0.534406 0.679015 0.147306
0.611222 0.679014 0.147305
0.687391 0.677226 0.147291
0.818675 0.708635 0.147288
0.953322 0.749255 0.147291
0.984125 0.749856 0.147288
0.056194 0.744632 0.147301
0.064844 0.744632 0.147301
0.085014 0.744632 0.147301
0.120276 0.744632 0.147301
0.166471 0.744633 0.147298
0.219461 0.744632 0.147297
0.276391 0.744633 0.147298
0.338380 0.744632 0.147297
0.405045 0.744632 0.147296
0.475963 0.744632 0.147294
0.551707 0.744632 0.147296
0.629472 0.744632 0.147294
0.710495 0.743195 0.147281
0.815414 0.756436 0.147278
0.951773 0.799746 0.147281
0.984124 0.802400 0.147278
0.056122 0.791573 0.147286
0.064978 0.791573 0.147284
0.084939 0.791573 0.147286
0.123858 0.791573 0.147284
0.171923 0.791574 0.147283
0.225277 0.791574 0.147282
0.285067 0.791574 0.147283
0.349388 0.791574 0.147282
0.418357 0.791574 0.147280
0.491868 0.791574 0.147280
0.567647 0.791574 0.147280
0.650179 0.791574 0.147280
0.735423 0.791370 0.147267
0.846210 0.806016 0.147259
0.949777 0.829581 0.147267
0.984422 0.833729 0.147259
0.056115 1.064208 0.141748
0.066124 1.064208 0.142300
0.090701 1.064208 0.142940
0.133747 1.064208 0.143484
0.185695 1.064206 0.143430
0.241945 1.064206 0.143324
0.306427 1.064207 0.142239
0.374869 1.064206 0.142136
0.448383 1.064206 0.142050
0.526639 1.064204 0.141997
0.609310 1.064206 0.142050
0.695713 1.064205 0.141997
0.785338 1.064218 0.141469
0.880820 1.064237 0.141443
0.960052 1.064341 0.141469
0.988305 1.064498 0.141443
0.056294 -0.559497 0.181912
0.067924 -0.559497 0.183428
0.068925 -0.559497 0.156638
0.127042 -0.559497 0.161673
0.175151 -0.559496 0.165036
0.225093 -0.559496 0.165288
0.282785 -0.559496 0.166182
0.346240 -0.559496 0.166448
0.414649 -0.559496 0.166690
0.479396 -0.559496 0.166736
0.538844 -0.559496 0.166690
0.602513 -0.559495 0.166736
0.686937 -0.559493 0.167315
0.814539 -0.559492 0.167210
0.952842 -0.559493 0.168465
0.984334 -0.559493 0.168361
0.056316 -0.045402 0.173872
0.069141 -0.045402 0.171666
0.089251 -0.048109 0.168145
0.133559 -0.054415 0.165924
0.179405 -0.059854 0.165739
0.231642 -0.062613 0.164517
0.289193 -0.063805 0.164591
0.353205 -0.064441 0.164517
0.421594 -0.064955 0.164454
0.485898 -0.065349 0.164420
0.545031 -0.065690 0.164454
0.608132 -0.066126 0.164420
0.693026 -0.066866 0.164009
0.819741 -0.067844 0.163989
0.953545 -0.068520 0.164009
0.984128 -0.068634 0.163989
0.056315 0.057500 0.154164
0.068672 0.057500 0.166699
0.081056 0.055446 0.163458
0.133048 0.068793 0.165561
0.179405 0.061646 0.164205
0.231641 0.060137 0.164204
0.289193 0.057535 0.164205
0.353204 0.057051 0.164204
0.421594 0.056724 0.164203
0.485897 0.055125 0.164202
0.545031 0.053632 0.164203
0.608132 0.051000 0.164202
0.693026 0.051136 0.164189
0.819741 0.054046 0.164198
0.953545 0.059375 0.164189
0.984127 0.059193 0.164198
0.056315 0.131927 0.158990
0.067546 0.131927 0.165499
0.086788 0.131927 0.163619
0.121472 0.128917 0.164350
0.179405 0.141954 0.164204
0.231640 0.134961 0.164203
0.289193 0.131907 0.164204
0.353203 0.130946 0.164203
0.421594 0.130127 0.164202
0.485897 0.126883 0.164200
0.545031 0.123083 0.164202
0.608131 0.117817 0.164200
0.693026 0.118383 0.164200
0.819741 0.127330 0.164196
0.953545 0.135500 0.164200
0.984128 0.135377 0.164196
0.056313 0.201837 0.161054
0.066479 0.201837 0.164946
0.086786 0.201837 0.164519
0.123765 0.200851 0.163790
0.169520 0.199611 0.164202
0.230717 0.207205 0.164201
0.289193 0.205585 0.164202
0.353202 0.204238 0.164201
0.421593 0.203033 0.164200
0.485896 0.198318 0.164199
0.545031 0.190107 0.164200
0.608131 0.183374 0.164199
0.693025 0.184821 0.164199
0.819741 0.195623 0.164195
0.953544 0.210667 0.164199
0.984127 0.210548 0.164195
0.056311 0.273599 0.162051
0.065899 0.273599 0.164700
0.085964 0.273599 0.164364
0.124860 0.273599 0.163544
0.172993 0.274382 0.164200
0.225164 0.272195 0.164199
0.289076 0.277339 0.164200
0.353200 0.276132 0.164199
0.421593 0.274490 0.164198
0.485896 0.268428 0.164196
0.545030 0.258715 0.164198
0.608131 0.253625 0.164196
0.693025 0.254437 0.164196
0.819741 0.266298 0.164192
0.953544 0.284037 0.164196
0.984127 0.284054 0.164192
0.056309 0.343875 0.162532
0.065622 0.343875 0.164589
0.085962 0.343875 0.163683
0.124551 0.343875 0.164589
0.174009 0.343592 0.164197
0.226851 0.344205 0.164196
0.285374 0.342607 0.164197
0.353039 0.346156 0.164196
0.421592 0.344433 0.164194
0.485895 0.337144 0.164193
0.545030 0.323853 0.164194
0.608130 0.317521 0.164193
0.693025 0.319594 0.164192
0.819741 0.334271 0.164189
0.953543 0.355862 0.164192
0.984127 0.355819 0.164189
0.056309 0.410535 0.162821
0.065423 0.410535 0.164507
0.085961 0.410535 0.163967
0.123474 0.410535 0.164507
0.171268 0.410370 0.164193
0.227741 0.410362 0.164192
0.286273 0.410370 0.164193
0.349048 0.409393 0.164192
0.421411 0.412355 0.164190
0.485894 0.403991 0.164201
0.545862 0.390889 0.164190
0.608129 0.380502 0.164201
0.693025 0.381554 0.164188
0.819741 0.399204 0.164184
0.953543 0.425460 0.164188
0.984128 0.425535 0.164184
0.056304 0.472731 0.163147
0.065269 0.472731 0.164451
0.085957 0.472731 0.164292
0.122457 0.472731 0.164451
0.170717 0.472731 0.164200
0.226179 0.472579 0.164199
0.284732 0.472731 0.164200
0.348385 0.472579 0.164199
0.415713 0.471937 0.164198
0.485812 0.468845 0.164197
0.546202 0.455435 0.164198
0.608034 0.443577 0.164197
0.693023 0.445630 0.164182
0.819740 0.466166 0.164179
0.953541 0.493201 0.164182
0.984127 0.493353 0.164179
0.056295 0.525699 0.163295
0.065165 0.525699 0.164407
0.085128 0.525699 0.164453
0.122335 0.525699 0.164407
0.169217 0.525699 0.164194
0.221806 0.525698 0.164193
0.279317 0.525699 0.164194
0.341805 0.525698 0.164193
0.408773 0.525575 0.164192
0.479267 0.525123 0.164191
0.545174 0.516859 0.164192
0.608684 0.502855 0.164191
0.693023 0.504808 0.164175
0.819740 0.527397 0.164172
0.953541 0.559027 0.164175
0.984126 0.559337 0.164172
0.056289 0.572836 0.163359
0.065062 0.572836 0.164367
0.085118 0.572836 0.164517
0.119650 0.572836 0.164367
0.165051 0.572836 0.164188
0.214323 0.572836 0.164186
0.272999 0.572836 0.164188
0.333916 0.572836 0.164186
0.399331 0.572836 0.164185
0.468738 0.572728 0.164184
0.541587 0.571877 0.164185
0.609382 0.562094 0.164184
0.693021 0.566290 0.164178
0.819739 0.587791 0.164175
0.953539 0.623226 0.164178
0.984125 0.623446 0.164175
0.056283 0.621234 0.163541
0.064955 0.621234 0.164303
0.083474 0.621234 0.163541
0.118685 0.621234 0.164303
0.162163 0.621234 0.164178
0.213368 0.621234 0.164178
0.268952 0.621234 0.164178
0.329018 0.621234 0.164178
0.393411 0.621233 0.164176
0.462065 0.621233 0.164175
0.533419 0.621233 0.164176
0.606664 0.621233 0.164175
0.693021 0.623401 0.164169
0.819739 0.648761 0.164166
0.953538 0.685996 0.164169
0.984126 0.686302 0.164166
0.056277 0.679015 0.163986
0.064746 0.679015 0.164197
0.083468 0.679015 0.163986
0.118452 0.679015 0.164197
0.164376 0.679015 0.164169
0.214894 0.679015 0.164178
0.269425 0.679015 0.164169
0.329678 0.679015 0.164178
0.394458 0.679015 0.164177
0.463437 0.679014 0.164176
0.534445 0.679015 0.164177
0.611244 0.679014 0.164176
0.687390 0.677201 0.164164
0.818675 0.708691 0.164168
0.953322 0.749230 0.164164
0.984125 0.749944 0.164168
0.056267 0.744632 0.164642
0.064419 0.744632 0.164073
0.085097 0.744632 0.164642
0.120668 0.744632 0.164073
0.167258 0.744632 0.164165
0.219425 0.744632 0.164164
0.276277 0.744632 0.164165
0.338327 0.744632 0.164164
0.405020 0.744631 0.164163
0.475947 0.744631 0.164166
0.551657 0.744631 0.164163
0.629434 0.744631 0.164166
0.710496 0.743186 0.164165
0.815414 0.756419 0.164162
0.951773 0.799740 0.164165
0.984124 0.802382 0.164162
0.056255 0.791573 0.165071
0.064194 0.791574 0.163986
0.085902 0.791573 0.163925
0.123000 0.791574 0.163986
0.171888 0.791574 0.164163
0.225122 0.791574 0.164162
0.285015 0.791574 0.164163
0.349216 0.791574 0.164162
0.418268 0.791574 0.164164
0.491819 0.791574 0.164164
0.567564 0.791574 0.164164
0.651195 0.791574 0.164164
0.735426 0.791377 0.164153
0.845059 0.806006 0.164150
0.949780 0.829589 0.164153
0.984423 0.833718 0.164150
0.056574 1.064208 0.155779
0.065952 1.064208 0.154448
0.091187 1.064208 0.153438
0.133560 1.064208 0.150924
0.184626 1.064206 0.149296
0.241785 1.064206 0.147639
0.306260 1.064206 0.146943
0.374742 1.064207 0.146456
0.448326 1.064206 0.146085
0.526564 1.064205 0.145836
0.609195 1.064206 0.144908
0.695653 1.064205 0.145836
0.785320 1.064219 0.145788
0.880822 1.064237 0.144431
0.960029 1.064343 0.143428
0.988307 1.064499 0.143243
0.057030 -0.559396 0.211739
0.059948 -0.559503 0.211796
0.070478 -0.559497 0.210642
0.124389 -0.559497 0.217274
0.174296 -0.559497 0.209825
0.225146 -0.559496 0.207427
0.282838 -0.559497 0.206499
0.346356 -0.559497 0.206318
0.414676 -0.559496 0.206135
0.479395 -0.559496 0.204940
0.538868 -0.559496 0.203898
0.602512 -0.559496 0.202725
0.686939 -0.559493 0.201435
0.814530 -0.559493 0.204846
0.952845 -0.559493 0.209204
0.984324 -0.559493 0.209274
0.056661 -0.067779 0.206763
0.069707 -0.042754 0.206734
0.078161 -0.044242 0.204551
0.130701 -0.039370 0.215542
0.176698 -0.029329 0.208939
0.228364 -0.011508 0.208020
0.285362 0.024750 0.210037
0.349727 0.028773 0.211325
0.418587 0.030735 0.211849
0.483617 0.031852 0.211170
0.543982 0.032828 0.209655
0.607887 0.032898 0.207876
0.691008 0.032899 0.208608
0.818242 0.033962 0.212040
0.952568 0.033944 0.215213
0.983678 0.033962 0.215335
0.056315 0.048200 0.204929
0.069843 0.044617 0.205685
0.082690 0.048200 0.208244
0.141295 0.039431 0.199030
0.194618 -0.060185 0.175061
0.250759 -0.077892 0.166697
0.307230 -0.083524 0.163580
0.369327 -0.086365 0.160917
0.435112 -0.088111 0.159102
0.496600 -0.089221 0.157897
0.553729 -0.089720 0.156774
0.617057 -0.090471 0.156727
0.701573 -0.089792 0.156466
0.828774 -0.093618 0.155059
0.956931 -0.094045 0.154129
0.985533 -0.094289 0.153893
0.056315 0.131927 0.200063
0.079489 0.131082 0.209299
0.059442 0.137963 0.177561
0.126485 0.136103 0.193715
0.182766 0.134616 0.191990
0.239029 0.126536 0.188418
0.298538 0.122541 0.186373
0.362911 0.119480 0.185042
0.430431 0.116694 0.183844
0.493444 0.112411 0.182908
0.552038 0.109618 0.183844
0.616915 0.103310 0.181756
0.699444 0.102250 0.181585
0.828318 0.107466 0.178905
0.955857 0.115391 0.180459
0.985094 0.114544 0.180042
0.056313 0.201837 0.198174
0.084402 0.200930 0.210218
0.056313 0.203816 0.169905
0.120485 0.206891 0.184534
0.173457 0.204989 0.185364
0.233602 0.207475 0.185734
0.294373 0.202025 0.185364
0.359178 0.199521 0.184616
0.427617 0.197006 0.183923
0.491421 0.191355 0.183403
0.550224 0.184058 0.183923
0.612756 0.178411 0.183403
0.697818 0.178982 0.179534
0.830216 0.187121 0.181444
0.955179 0.199882 0.181796
0.984782 0.199067 0.181444
0.056311 0.273599 0.198163
0.085516 0.272794 0.211142
0.056311 0.276556 0.167579
0.116511 0.278714 0.180969
0.170298 0.273844 0.186019
0.228584 0.277271 0.184969
0.291938 0.276797 0.183773
0.356825 0.274313 0.183820
0.425591 0.271651 0.183395
0.489790 0.264779 0.183182
0.549149 0.253891 0.182263
0.614283 0.247996 0.180923
0.697735 0.248868 0.182019
0.828009 0.258976 0.180476
0.955128 0.277501 0.182019
0.984751 0.276725 0.181613
0.056309 0.343875 0.198272
0.085731 0.343238 0.211570
0.056309 0.346803 0.166555
0.115885 0.348129 0.181413
0.168023 0.347363 0.182195
0.226269 0.348360 0.180820
0.287578 0.345435 0.183350
0.355350 0.346395 0.183081
0.424083 0.343470 0.183011
0.488670 0.335415 0.183168
0.548615 0.322868 0.179593
0.613094 0.315793 0.183168
0.695414 0.318284 0.184507
0.823566 0.330515 0.179586
0.954948 0.351616 0.182233
0.984714 0.351079 0.181879
0.056309 0.410535 0.198161
0.085821 0.410028 0.211576
0.056309 0.413441 0.166438
0.112572 0.413959 0.179144
0.166792 0.411140 0.182910
0.223575 0.411452 0.185155
0.285326 0.412142 0.182910
0.350539 0.411452 0.182913
0.423105 0.412762 0.182890
0.487846 0.403409 0.183026
0.547631 0.388384 0.181734
0.610133 0.379964 0.179611
0.698309 0.381921 0.180123
0.827890 0.398069 0.181076
0.954620 0.422887 0.182385
0.984615 0.422429 0.182199
0.056304 0.472731 0.197834
0.085810 0.472429 0.211168
0.055525 0.472731 0.164939
0.115113 0.474384 0.182138
0.165836 0.473991 0.181776
0.221568 0.473712 0.180554
0.282403 0.473991 0.182897
0.347445 0.473712 0.182816
0.416508 0.473233 0.182897
0.487154 0.469328 0.183096
0.547040 0.455761 0.182897
0.611547 0.443074 0.180839
0.693791 0.444096 0.181553
0.821227 0.464055 0.184885
0.954416 0.491691 0.182684
0.984592 0.491244 0.182612
0.056295 0.525699 0.196739
0.085609 0.525444 0.209892
0.057074 0.526653 0.166119
0.110658 0.526408 0.178542
0.162817 0.526623 0.181762
0.217292 0.526475 0.181781
0.276300 0.526623 0.182914
0.339981 0.526475 0.182905
0.407840 0.526318 0.182993
0.479704 0.525982 0.183339
0.546318 0.516651 0.182993
0.610176 0.504689 0.179945
0.691562 0.507882 0.184636
0.821224 0.528057 0.180849
0.954193 0.558240 0.183488
0.984585 0.558039 0.183106
0.056289 0.572836 0.195434
0.085331 0.572649 0.208419
0.056289 0.572836 0.165929
0.114620 0.574581 0.184968
0.161057 0.573567 0.185057
0.213010 0.573503 0.185407
0.269667 0.573567 0.182785
0.331542 0.573503 0.183169
0.397756 0.573497 0.183228
0.467919 0.573323 0.183917
0.543120 0.573497 0.176421
0.610626 0.564635 0.187296
0.694283 0.564874 0.179707
0.821195 0.589984 0.175723
0.953785 0.622773 0.184225
0.984550 0.622761 0.183664
0.056283 0.621234 0.194670
0.084981 0.621082 0.207352
0.057844 0.622188 0.166267
0.112554 0.622036 0.182762
0.159175 0.621979 0.184185
0.211797 0.621668 0.185759
0.265750 0.621979 0.183051
0.326375 0.621668 0.183488
0.391567 0.621921 0.183598
0.460724 0.621690 0.184334
0.530430 0.619993 0.179047
0.606330 0.619709 0.177519
0.693156 0.623483 0.185754
0.823266 0.649567 0.185428
0.953768 0.686095 0.184636
0.984402 0.686145 0.184309
0.056277 0.679015 0.194863
0.084744 0.678990 0.207291
0.056277 0.679015 0.165323
0.115709 0.678029 0.186067
0.159706 0.679533 0.184749
0.209635 0.679537 0.185123
0.266341 0.679533 0.183631
0.327002 0.679537 0.183972
0.392192 0.679440 0.184078
0.461718 0.679379 0.184201
0.533192 0.679440 0.178402
0.610485 0.679379 0.188716
0.689759 0.678375 0.190675
0.818792 0.708558 0.179303
0.953530 0.749417 0.185036
0.984266 0.749802 0.184975
0.056267 0.744632 0.196370
0.084247 0.744557 0.208244
0.056267 0.745693 0.166886
0.115193 0.745499 0.183646
0.162166 0.744926 0.184349
0.214632 0.744855 0.185728
0.272765 0.744926 0.184349
0.335218 0.744855 0.184610
0.402382 0.744936 0.184684
0.473647 0.744938 0.184219
0.548895 0.744936 0.191457
0.629149 0.744938 0.192123
0.709377 0.743529 0.187589
0.815594 0.758581 0.190294
0.951776 0.800140 0.185333
0.984338 0.802715 0.185805
0.056254 0.791573 0.198248
0.083705 0.791583 0.209586
0.058598 0.791573 0.168839
0.118900 0.790678 0.186163
0.166252 0.791521 0.185129
0.221865 0.791521 0.185350
0.280915 0.791521 0.185129
0.345802 0.791521 0.185350
0.415168 0.791445 0.185416
0.488884 0.791443 0.185380
0.568504 0.791445 0.182022
0.648105 0.791443 0.181978
0.734321 0.791680 0.186915
0.848445 0.806163 0.186520
0.949744 0.830005 0.185799
0.984413 0.833961 0.186520
0.056454 1.064207 0.192396
0.080096 1.064208 0.201917
0.053348 1.064207 0.129712
0.109181 1.064084 0.136370
0.165447 1.065937 0.119480
0.229910 1.065622 0.115182
0.294411 1.065793 0.112076
0.365118 1.065652 0.110215
0.440373 1.065485 0.108763
0.519855 1.065255 0.107861
0.604085 1.065520 0.105002
0.691936 1.065254 0.104101
0.779276 1.065587 0.105815
0.878663 1.065242 0.103876
0.959328 1.065693 0.096961
0.988370 1.065504 0.097547
0.056796 -0.559448 0.252965
0.063641 -0.559521 0.254037
0.086472 -0.559497 0.256157
0.118121 -0.559705 0.257227
0.176830 -0.560028 0.265715
0.229060 -0.560193 0.260821
0.285515 -0.560193 0.259371
0.348471 -0.560144 0.258715
0.416403 -0.560044 0.258123
0.480638 -0.560049 0.255526
0.539626 -0.560049 0.252809
0.602728 -0.560053 0.246993
0.687187 -0.560048 0.249014
0.815789 -0.560039 0.253647
0.953111 -0.560039 0.262833
0.984615 -0.559996 0.263199
0.056546 -0.067883 0.247089
0.068499 -0.050893 0.246510
0.087856 -0.044659 0.244944
0.119073 -0.035383 0.243296
0.176901 -0.025404 0.252220
0.227509 0.002310 0.247878
0.285603 0.025638 0.250084
0.349787 0.029084 0.251084
0.418666 0.030861 0.251483
0.483566 0.032016 0.249780
0.544094 0.032953 0.246141
0.607844 0.035148 0.245500
0.690931 0.033936 0.245454
0.818262 0.034997 0.249878
0.952466 0.033936 0.257182
0.983701 0.033953 0.257333
0.056315 0.054344 0.247088
0.069785 0.062153 0.245750
0.067349 0.016766 0.259871
0.128192 -0.018260 0.256413
0.193391 -0.053879 0.252945
0.244362 -0.062286 0.242064
0.301127 -0.059449 0.236863
0.362624 -0.054012 0.234503
0.428487 -0.048288 0.232829
0.490619 -0.042243 0.230092
0.550030 -0.038587 0.226316
0.611946 -0.029416 0.223564
0.695337 -0.029900 0.223661
0.823861 -0.016320 0.229020
0.953766 0.022203 0.237748
0.983888 0.026026 0.238755
0.056315 0.128178 0.245335
0.080981 0.128492 0.244741
0.062590 0.133206 0.249618
0.125483 0.130500 0.251154
0.187216 0.124472 0.248753
0.253447 0.110119 0.239251
0.322555 0.092113 0.228285
0.390980 0.074565 0.218627
0.458101 0.053360 0.207136
0.517614 -0.028697 0.185398
0.575388 -0.059549 0.180243
0.637561 -0.071101 0.174046
0.727884 -0.085670 0.170672
0.863007 -0.091749 0.168797
0.965366 -0.097988 0.164928
0.989137 -0.101368 0.161864
0.056313 0.201837 0.244032
0.084530 0.200996 0.248691
0.064960 0.202825 0.238657
0.070744 0.210913 0.217304
0.173444 0.210640 0.225516
0.243279 0.202825 0.229074
0.307802 0.196733 0.224423
0.376267 0.189896 0.219265
0.445696 0.182680 0.214881
0.508125 0.173636 0.211265
0.564687 0.165707 0.208261
0.632027 0.157639 0.204630
0.719289 0.154512 0.201262
0.858347 0.159272 0.198966
0.961920 0.164517 0.196813
0.987838 0.161261 0.194495
0.056311 0.273599 0.243189
0.085550 0.272793 0.250215
0.068942 0.275566 0.235652
0.058262 0.284632 0.202344
0.153184 0.284867 0.209918
0.230650 0.286260 0.212043
0.299390 0.277975 0.209918
0.366892 0.272457 0.215338
0.437553 0.266302 0.211610
0.501678 0.256431 0.208974
0.562518 0.244575 0.208301
0.624381 0.238640 0.203446
0.711630 0.238964 0.203661
0.851339 0.247214 0.199594
0.960696 0.257752 0.198094
0.987326 0.255123 0.196265
0.056309 0.343875 0.243107
0.085827 0.343238 0.251223
0.069738 0.344874 0.234490
0.056965 0.354954 0.197820
0.147744 0.353726 0.205462
0.218113 0.352037 0.209548
0.288650 0.351752 0.207692
0.361446 0.349118 0.206237
0.431508 0.342428 0.207603
0.496936 0.331771 0.206586
0.555246 0.317920 0.203179
0.622673 0.310153 0.202163
0.709890 0.309896 0.203059
0.843113 0.323307 0.199213
0.959957 0.339318 0.197477
0.986801 0.337034 0.195880
0.056309 0.410535 0.242648
0.085915 0.410028 0.251321
0.070536 0.411501 0.231867
