LUT/Glow Highlights.cube
TITLE "Generated by Resolve"
LUT_3D_SIZE 5
0 0.0482948 0
0.254093 0.0189364 0
0.483146 0 0
0.764675 0 0
0.98854 0 0
0 0.243183 0
0.215366 0.218723 0
0.507134 0.206027 0
0.812848 0.21088 0
1 0.235859 0
0 0.525704 0
0.208469 0.521202 0
0.503136 0.512673 0
0.807568 0.515435 0
1 0.538521 0
0 0.8309 0
0.213336 0.826917 0
0.505623 0.817655 0
0.787366 0.810147 0
1 0.817594 0
0 1 0
0.236652 1 0
0.517983 1 0
0.774899 1 0
0.962783 1 0
0 0.0484932 0.158556
0.221118 0.012604 0.0802319
0.482918 0 0.0246128
0.755825 0 0
0.979431 0 0.0157626
0 0.20853 0.163134
0.258854 0.243778 0.142245
0.511742 0.213077 0.0566567
0.816464 0.219883 0.0680247
1 0.245167 0.112139
0 0.541772 0.113939
0.224414 0.537011 0.112276
0.5122 0.521447 0.0818952
0.828458 0.521737 0.0816052
1 0.545342 0.121889
0 0.845747 0.129488
0.221592 0.840742 0.131182
0.510903 0.828733 0.115053
0.794354 0.815137 0.0981155
1 0.818891 0.108431
0 1 0.203952
0.236622 1 0.184253
0.517098 1 0.148852
0.77084 1 0.11809
0.960052 1 0.115557
0 0.0309758 0.650019
0.221103 0.00447089 0.567605
0.48069 0 0.504738
0.735714 0 0.47068
0.952331 0 0.471214
0 0.242176 0.662303
0.148867 0.188556 0.643061
0.506294 0.220096 0.533562
0.789685 0.223178 0.505425
1 0.246494 0.52163
0 0.538125 0.651804
0.114992 0.48246 0.677165
0.51986 0.541436 0.656641
0.824094 0.519738 0.488472
1 0.543816 0.514076
0 0.843671 0.649042
0.213596 0.840177 0.641245
0.503243 0.830823 0.61059
0.788739 0.808606 0.528664
1 0.808209 0.503929
0 1 0.675883
0.219898 1 0.652262
0.500313 1 0.617075
0.750271 1 0.571496
0.949844 1 0.538613
0 0.0104982 1
0.209369 0 1
0.476356 0 0.924697
0.723949 0 0.866575
0.927047 0 0.847913
0 0.22533 1
0.222766 0.217792 1
0.508736 0.216739 0.989624
0.771771 0.224155 0.91722
0.993881 0.247044 0.896529
0 0.525246 1
0.209827 0.524178 1
0.40914 0.485679 1
0.77113 0.527489 0.919387
1 0.545373 0.874937
0 0.8327 1
0.197345 0.829145 1
0.486885 0.825116 1
0.725307 0.826932 1
1 0.798596 0.811826
0 1 1
0.196002 1 1
0.475273 1 1
0.718517 1 1
0.938003 1 0.895964
0 0 1
0.196155 0 1
0.470253 0 1
0.719829 0 1
0.917144 0 1
0 0.212848 1
0.211429 0.209125 1
0.505684 0.2121 1
0.769665 0.223774 1
0.976577 0.249653 1
0 0.514351 1
0.197192 0.514229 1
0.496986 0.518029 1
0.762188 0.528298 1
0.972625 0.54995 1
0 0.821332 1
0.182162 0.816327 1
0.473793 0.810254 1
0.723339 0.806989 1
0.939529 0.807019 1
0 1 1
0.17351 1 1
0.452811 1 1
0.681025 1 1
0.836271 1 1
