LUT/Glow Highlights.cube
TITLE "Generated by Resolve"
LUT_3D_SIZE 33
0 0.0482948 0
0 0.0434119 0
0.0230106 0.0385595 0
0.0706035 0.0352941 0
0.114488 0.032929 0
0.155749 0.0303502 0
0.192203 0.0270848 0
0.224491 0.0231632 0
0.254093 0.0189364 0
0.282078 0.0137179 0
0.309621 0.00810254 0
0.336156 0.00233463 0
0.364157 0 0
0.391852 0 0
0.419867 0 0
0.449363 0 0
0.483146 0 0
0.517311 0 0
0.551995 0 0
0.588098 0 0
0.626108 0 0
0.662791 0 0
0.698146 0 0
0.732097 0 0
0.764675 0 0
0.795941 0 0
0.825925 0 0
0.854765 0 0
0.882689 0 0
0.909895 0 0
0.936538 0 0
0.962829 0 0
0.98854 0 0
0 0.072221 0
0 0.067689 0
0.0230869 0.0627146 0
0.0701457 0.058732 0
0.111925 0.0548104 0
0.149859 0.0506142 0
0.182818 0.0460822 0
0.211872 0.0412299 0
0.239139 0.0360571 0
0.266163 0.0306706 0
0.294102 0.0252232 0
0.323033 0.0199741 0
0.352667 0.0155032 0
0.383886 0.0117494 0
0.417624 0.00895705 0
0.451209 0.00662242 0
0.485679 0.00430304 0
0.519936 0.00256352 0
0.554818 0.000488289 0
0.591272 0 0
0.629709 0 0
0.666804 0 0
0.702556 0 0
0.736889 0 0
0.769879 0 0
0.801556 0 0
0.831952 0 0
0.861204 0 0
0.88954 0 0
0.917128 0 0
0.944183 0.00166323 0
0.97084 0.00370794 0
0.996918 0.00538643 0
0 0.0964675 0
0 0.0912032 0
0.0224765 0.0846265 0
0.0675059 0.0790112 0
0.106264 0.0738689 0
0.140734 0.068864 0
0.170794 0.0638895 0
0.197986 0.0589609 0
0.224659 0.0540932 0
0.252583 0.0493477 0
0.282872 0.0449073 0
0.314763 0.0412604 0
0.349874 0.0383154 0
0.385458 0.0357519 0
0.42031 0.0333715 0
0.453956 0.0312047 0
0.488548 0.0290837 0
0.522942 0.0270542 0
0.558053 0.0251926 0
0.594873 0.0235599 0
0.633783 0.0222019 0
0.671321 0.0212253 0
0.707515 0.0206455 0
0.742321 0.0204929 0
0.775753 0.0207675 0
0.807858 0.0214542 0
0.838682 0.0225528 0
0.86836 0.0239872 0
0.897108 0.0257572 0
0.925109 0.0277562 0
0.95256 0.0299687 0
0.979614 0.0323491 0
1 0.0348363 0
0 0.118242 0
0 0.111452 0
0.0213626 0.103822 0
0.0641794 0.0971237 0
0.0995651 0.0916609 0
0.130922 0.0866712 0
0.159152 0.082063 0
0.185962 0.077821 0
0.214023 0.0740063 0
0.244831 0.0707103 0
0.279942 0.0682536 0
0.316167 0.0657511 0
0.352605 0.0632486 0
0.388327 0.0608225 0
0.423301 0.0586404 0
0.457084 0.056672 0
0.491844 0.0547799 0
0.526436 0.0530098 0
0.561837 0.0514229 0
0.599054 0.0500801 0
0.638468 0.0490425 0
0.676478 0.0483558 0
0.71313 0.0480812 0
0.748394 0.048249 0
0.782269 0.0488441 0
0.814817 0.0498512 0
0.846082 0.0512551 0
0.876173 0.0530251 0
0.905333 0.0551156 0
0.933761 0.0574502 0
0.961624 0.0599832 0
0.98909 0.0626993 0
1 0.0655222 0
0 0.137209 0
0 0.131914 0
0.0194858 0.125628 0
0.0596475 0.119692 0
0.0937057 0.113527 0
0.122789 0.107759 0
0.150408 0.103502 0
0.180804 0.100984 0
0.212924 0.0987259 0
0.246754 0.0964675 0
0.282261 0.0940871 0
0.318669 0.0916609 0
0.355306 0.0892805 0
0.391257 0.0870375 0
0.426459 0.0850538 0
0.460441 0.08336 0
0.49546 0.0817426 0
0.530312 0.0802472 0
0.566018 0.0789654 0
0.603647 0.0779126 0
0.643534 0.0771801 0
0.682002 0.0768139 0
0.719127 0.0768444 0
0.754833 0.0773327 0
0.789166 0.0782483 0
0.822156 0.0795758 0
0.853849 0.0813001 0
0.884367 0.0834058 0
0.91397 0.0858015 0
0.942824 0.0884718 0
0.971084 0.0913405 0
0.998932 0.0943465 0
1 0.0974594 0
0 0.161181 0
0 0.155627 0
0.0179141 0.149477 0
0.0567483 0.144488 0
0.0905623 0.139666 0
0.121324 0.135042 0
0.151324 0.131441 0
0.182147 0.128664 0
0.214435 0.126177 0
0.248447 0.123796 0
0.284169 0.121401 0
0.32079 0.119051 0
0.357733 0.116808 0
0.393988 0.114763 0
0.429526 0.113008 0
0.463828 0.111543 0
0.499138 0.110185 0
0.534279 0.10898 0
0.570306 0.107988 0
0.608331 0.107225 0
0.648661 0.106798 0
0.687572 0.106722 0
0.725155 0.107088 0
0.761318 0.107881 0
0.796094 0.109117 0
0.829526 0.110765 0
0.861662 0.11281 0
0.892622 0.115221 0
0.922621 0.117937 0
0.951843 0.120867 0
0.980453 0.12398 0
1 0.12723 0
1 0.130556 0
0 0.187228 0
0 0.181827 0
0.0157168 0.175708 0
0.0546426 0.17116 0
0.0886397 0.167315 0
0.120745 0.163821 0
0.151797 0.160693 0
0.182864 0.157885 0
0.215351 0.155306 0
0.249577 0.15288 0
0.285512 0.150515 0
0.322332 0.148226 0
0.359579 0.14612 0
0.396216 0.144228 0
0.432135 0.142672 0
0.466804 0.141436 0
0.502449 0.140322 0
0.537942 0.139376 0
0.574289 0.138643 0
0.612696 0.138186 0
0.653452 0.138048 0
0.692821 0.138277 0
0.730846 0.138949 0
0.767452 0.140063 0
0.802655 0.141588 0
0.8365 0.143511 0
0.869032 0.14583 0
0.900343 0.148486 0
0.930694 0.151415 0
0.96022 0.154559 0
0.98912 0.157855 0
1 0.161273 0
1 0.164767 0
0 0.214511 0
0 0.209598 0
0.0124666 0.204044 0
0.0524605 0.2 0
0.0872816 0.196872 0
0.120043 0.193988 0
0.151492 0.191287 0
0.182895 0.188693 0
0.215656 0.186221 0
0.25005 0.183825 0
0.286168 0.181506 0
0.323156 0.179309 0
0.360662 0.17731 0
0.397681 0.17557 0
0.434012 0.174197 0
0.469108 0.173159 0
0.505135 0.172274 0
0.540978 0.171588 0
0.577691 0.171115 0
0.61648 0.170932 0
0.657618 0.171069 0
0.697368 0.171572 0
0.73579 0.172488 0
0.772778 0.173846 0
0.808347 0.175601 0
0.842542 0.177722 0
0.87541 0.18024 0
0.907027 0.183062 0
0.937652 0.186145 0
0.967437 0.189441 0
0.996582 0.192859 0
1 0.196384 0
1 0.199954 0
0 0.243183 0
0 0.238743 0
0.00831617 0.233722 0
0.0491646 0.230228 0
0.0849317 0.22768 0
0.118395 0.225422 0
0.150393 0.223209 0
0.182315 0.220981 0
0.215366 0.218723 0
0.249928 0.21648 0
0.286168 0.214282 0
0.323262 0.212192 0
0.360998 0.210315 0
0.398383 0.208743 0
0.435157 0.207523 0
0.47071 0.206699 0
0.507134 0.206027 0
0.543374 0.205554 0
0.580407 0.20531 0
0.619486 0.205341 0
0.660883 0.205676 0
0.700938 0.206363 0
0.739666 0.207462 0
0.776974 0.208972 0
0.812848 0.21088 0
0.847318 0.213138 0
0.880446 0.215763 0
0.912322 0.218692 0
0.943175 0.221866 0
0.973175 0.225223 0
1 0.228702 0
1 0.232258 0
1 0.235859 0
0 0.273503 0
0 0.269535 0
0.00357061 0.264988 0
0.0451362 0.261997 0
0.0818189 0.259937 0
0.11603 0.258228 0
0.148653 0.25655 0
0.181109 0.254749 0
0.214481 0.252811 0
0.249226 0.250797 0
0.285573 0.248768 0
0.322713 0.24683 0
0.360647 0.24509 0
0.398367 0.243656 0
0.435538 0.242588 0
0.471519 0.241901 0
0.508309 0.241382 0
0.544869 0.241047 0
0.582177 0.24094 0
0.621424 0.241093 0
0.662989 0.24155 0
0.703227 0.242374 0
0.742168 0.24358 0
0.77969 0.245197 0
0.815808 0.247196 0
0.850507 0.249546 0
0.883864 0.252247 0
0.915938 0.255238 0
0.94696 0.258457 0
0.977127 0.261845 0
1 0.265339 0
1 0.26891 0
1 0.27248 0
0 0.305623 0
0 0.302083 0
0 0.297978 0
0.04065 0.295445 0
0.0781567 0.293843 0
0.113191 0.292638 0
0.146441 0.291478 0
0.179461 0.290135 0
0.213199 0.288579 0
0.248157 0.286885 0
0.284611 0.285084 0
0.321752 0.283314 0
0.359777 0.281712 0
0.397726 0.280354 0
0.435203 0.279393 0
0.471565 0.278782 0
0.508629 0.278325 0
0.545449 0.27805 0
0.582956 0.278004 0
0.622309 0.278218 0
0.66389 0.278737 0
0.704204 0.279591 0
0.743267 0.280842 0
0.780926 0.282475 0
0.817182 0.284489 0
0.852049 0.286854 0
0.885542 0.28954 0
0.917754 0.2925 0
0.948913 0.295674 0
0.979171 0.299016 0
1 0.302434 0
1 0.305913 0
1 0.309377 0
0 0.339284 0
0 0.336172 0
0 0.332479 0
0.0361791 0.330388 0
0.0744182 0.329213 0
0.110307 0.32845 0
0.144213 0.327779 0
0.177768 0.326894 0
0.211887 0.325734 0
0.247059 0.324331 0
0.283574 0.322759 0
0.320638 0.321141 0
0.358648 0.319631 0
0.396704 0.318349 0
0.434409 0.317403 0
0.471046 0.316808 0
0.508309 0.31635 0
0.545357 0.316075 0
0.582971 0.31603 0
0.622309 0.316213 0
0.663798 0.316716 0
0.704097 0.31754 0
0.743175 0.318746 0
0.78088 0.320348 0
0.817197 0.322301 0
0.852125 0.32459 0
0.885695 0.327199 0
0.917967 0.330068 0
0.949187 0.333135 0
0.979507 0.336355 0
1 0.339681 0
1 0.34313 0
1 0.346639 0
0 0.374472 0
0 0.37174 0
0 0.368444 0
0.0321508 0.366751 0
0.0710307 0.365972 0
0.107668 0.365576 0
0.142214 0.365286 0
0.176257 0.364782 0
0.210727 0.363958 0
0.246082 0.362844 0
0.282643 0.361456 0
0.319585 0.359976 0
0.357504 0.358541 0
0.395575 0.35729 0
0.433387 0.356344 0
0.470222 0.355703 0
0.507622 0.3552 0
0.544778 0.354864 0
0.582452 0.354726 0
0.621683 0.354833 0
0.662959 0.355245 0
0.70312 0.355962 0
0.742092 0.357061 0
0.779751 0.358526 0
0.816037 0.360357 0
0.850965 0.362509 0
0.88452 0.364965 0
0.916869 0.367742 0
0.948226 0.370794 0
0.978759 0.37406 0
1 0.377478 0
1 0.381003 0
1 0.384573 0
0 0.410986 0
0 0.408621 0
0 0.405661 0
0.0288701 0.404288 0
0.0682536 0.403815 0
0.105501 0.403708 0
0.140658 0.403693 0
0.175128 0.40351 0
0.209903 0.40296 0
0.245426 0.402075 0
0.282017 0.40087 0
0.318791 0.399496 0
0.356573 0.398123 0
0.394568 0.396872 0
0.432395 0.395895 0
0.469337 0.395193 0
0.506767 0.394583 0
0.543969 0.394125 0
0.581598 0.393851 0
0.620645 0.39382 0
0.661585 0.394064 0
0.701488 0.394614 0
0.740276 0.395529 0
0.777798 0.396841 0
0.814069 0.398566 0
0.849058 0.400702 0
0.882811 0.403204 0
0.915358 0.406043 0
0.946929 0.40914 0
0.977676 0.412451 0
1 0.4159 0
1 0.419455 0
1 0.423041 0
0 0.448524 0
0 0.446433 0
0 0.443748 0
0.0265049 0.442603 0
0.0663005 0.442374 0
0.104021 0.442466 0
0.139696 0.442634 0
0.174578 0.442649 0
0.209613 0.442313 0
0.245274 0.441596 0
0.28188 0.440528 0
0.318471 0.439246 0
0.356039 0.437903 0
0.393912 0.436637 0
0.431662 0.435599 0
0.468605 0.434791 0
0.505989 0.434058 0
0.54316 0.433433 0
0.580652 0.432975 0
0.61941 0.432731 0
0.659968 0.432807 0
0.699657 0.433265 0
0.738338 0.434134 0
0.775891 0.435462 0
0.812222 0.437217 0
0.847333 0.439353 0
0.881193 0.441855 0
0.913893 0.444694 0
0.945632 0.447791 0
0.976547 0.451072 0
1 0.454505 0
1 0.45803 0
1 0.46157 0
0 0.486824 0
0 0.484932 0
0 0.482414 0
0.0244907 0.481453 0
0.0645914 0.481361 0
0.102693 0.48159 0
0.138766 0.481865 0
0.174029 0.481971 0
0.209277 0.481758 0
0.245029 0.481163 0
0.281636 0.480171 0
0.318013 0.478935 0
0.355352 0.477577 0
0.393011 0.47628 0
0.430594 0.475135 0
0.46746 0.474189 0
0.504723 0.473289 0
0.541848 0.472541 0
0.579309 0.472023 0
0.617929 0.471778 0
0.658228 0.471855 0
0.697749 0.472313 0
0.736339 0.473182 0
0.773831 0.474495 0
0.810162 0.476204 0
0.845289 0.478309 0
0.879225 0.480781 0
0.912016 0.483574 0
0.943847 0.48661 0
0.974884 0.489845 0
1 0.493202 0
1 0.496635 0
1 0.500099 0
0 0.525704 0
0 0.523934 0
0 0.521553 0
0.0224155 0.520684 0
0.0627298 0.520668 0
0.101091 0.520943 0
0.137469 0.521248 0
0.173037 0.521385 0
0.208469 0.521202 0
0.244282 0.520623 0
0.280858 0.519646 0
0.317006 0.51838 0
0.35407 0.516991 0
0.391485 0.515602 0
0.428946 0.514443 0
0.465827 0.513512 0
0.503136 0.512673 0
0.540352 0.511971 0
0.577813 0.511467 0
0.616297 0.511208 0
0.656275 0.511269 0
0.695552 0.511696 0
0.733959 0.512535 0
0.771328 0.513787 0
0.807568 0.515435 0
0.842664 0.517464 0
0.876585 0.51986 0
0.909392 0.52256 0
0.941268 0.52549 0
0.972366 0.528618 0
1 0.531868 0
1 0.53518 0
1 0.538521 0
0 0.564782 0
0 0.563073 0
0 0.560723 0
0.0203098 0.559884 0
0.0607614 0.559884 0
0.0993057 0.560143 0
0.135882 0.560433 0
0.171633 0.560494 0
0.207248 0.560265 0
0.243076 0.55964 0
0.279637 0.558663 0
0.315648 0.557458 0
0.352621 0.556176 0
0.38999 0.55494 0
0.427451 0.553872 0
0.464378 0.553033 0
0.501701 0.552239 0
0.538949 0.551553 0
0.576379 0.551049 0
0.614649 0.550774 0
0.654261 0.550805 0
0.693248 0.551171 0
0.731395 0.551934 0
0.768551 0.553109 0
0.804623 0.554665 0
0.839612 0.556603 0
0.873457 0.558877 0
0.906203 0.561456 0
0.938064 0.564279 0
0.969162 0.567269 0
0.999619 0.570367 0
1 0.573541 0
1 0.57673 0
0 0.603784 0
0 0.60209 0
0 0.599725 0
0.0182345 0.59884 0
0.058732 0.598779 0
0.0973678 0.598978 0
0.134066 0.599191 0
0.170016 0.599237 0
0.205875 0.599023 0
0.241932 0.598535 0
0.278676 0.597711 0
0.314687 0.596643 0
0.351614 0.595483 0
0.388922 0.594354 0
0.426337 0.593378 0
0.463264 0.592584 0
0.500557 0.591821 0
0.537789 0.591134 0
0.575128 0.590616 0
0.613153 0.590295 0
0.652354 0.590265 0
0.690959 0.590539 0
0.728786 0.591211 0
0.765667 0.592279 0
0.801511 0.593729 0
0.836301 0.595529 0
0.869978 0.597665 0
0.902632 0.600107 0
0.934386 0.602762 0
0.965408 0.6056 0
0.995819 0.608545 0
1 0.611536 0
1 0.614527 0
0 0.642527 0
0 0.640772 0
0 0.638315 0
0.0162356 0.637385 0
0.0568246 0.637324 0
0.0956588 0.637583 0
0.132647 0.637919 0
0.168902 0.638086 0
0.205066 0.63798 0
0.241382 0.637583 0
0.278279 0.636866 0
0.31429 0.635904 0
0.351141 0.634821 0
0.388388 0.633753 0
0.425727 0.632807 0
0.462623 0.632044 0
0.499825 0.631266 0
0.536995 0.630564 0
0.574212 0.629969 0
0.611948 0.629587 0
0.65069 0.62945 0
0.688884 0.629633 0
0.726329 0.630167 0
0.762844 0.631098 0
0.798398 0.63238 0
0.832914 0.634028 0
0.866377 0.635981 0
0.898817 0.638239 0
0.930419 0.640696 0
0.961303 0.64332 0
0.991608 0.646052 0
1 0.648814 0
1 0.651576 0
0 0.680751 0
0 0.679011 0
0 0.676646 0
0.0150301 0.675822 0
0.0558022 0.675868 0
0.0948501 0.676219 0
0.132082 0.676631 0
0.168582 0.676875 0
0.204974 0.676829 0
0.241535 0.676478 0
0.278584 0.675822 0
0.314565 0.674907 0
0.351354 0.673854 0
0.38851 0.672801 0
0.425757 0.671839 0
0.462562 0.671046 0
0.499657 0.670222 0
0.536706 0.669413 0
0.573754 0.668727 0
0.61117 0.668208 0
0.649424 0.667933 0
0.68716 0.667933 0
0.724163 0.668284 0
0.760281 0.669017 0
0.795453 0.6701 0
0.829633 0.671519 0
0.862776 0.673243 0
0.894957 0.675258 0
0.926329 0.677455 0
0.957015 0.67982 0
0.987137 0.682277 0
1 0.684764 0
1 0.687236 0
0 0.718776 0
0 0.717128 0
0 0.714855 0
0.0149538 0.714092 0
0.0558633 0.714199 0
0.095079 0.714611 0
0.132509 0.715068 0
0.169192 0.715343 0
0.205768 0.715312 0
0.242496 0.714977 0
0.279698 0.714321 0
0.315663 0.71342 0
0.352361 0.712367 0
0.38941 0.711269 0
0.426535 0.710277 0
0.463218 0.709392 0
0.50016 0.708461 0
0.537072 0.707546 0
0.573907 0.706722 0
0.610986 0.706035 0
0.648722 0.705562 0
0.685954 0.705364 0
0.722469 0.705486 0
0.758114 0.705989 0
0.792844 0.706813 0
0.826612 0.707958 0
0.859403 0.709422 0
0.891249 0.711147 0
0.922301 0.713054 0
0.952712 0.715114 0
0.982574 0.717266 0
1 0.719432 0
1 0.721614 0
0 0.756558 0
0 0.754971 0
0 0.752728 0
0.016083 0.75201 0
0.057084 0.752148 0
0.0964065 0.75256 0
0.133989 0.753017 0
0.170809 0.753277 0
0.207507 0.753246 0
0.244358 0.75288 0
0.281697 0.752178 0
0.317617 0.751247 0
0.354223 0.750149 0
0.39115 0.748989 0
0.428122 0.747906 0
0.464652 0.746929 0
0.501427 0.745892 0
0.53814 0.744823 0
0.574731 0.743816 0
0.611429 0.742931 0
0.648646 0.74226 0
0.685344 0.741833 0
0.721325 0.741711 0
0.756451 0.741939 0
0.790692 0.742473 0
0.823987 0.743328 0
0.856321 0.744472 0
0.88777 0.745876 0
0.918456 0.747478 0
0.948531 0.749218 0
0.978119 0.751064 0
1 0.752926 0
1 0.754803 0
0 0.793973 0
0 0.792401 0
0 0.790173 0
0.0182803 0.789441 0
0.0593423 0.789548 0
0.0987259 0.789944 0
0.1364 0.790372 0
0.173297 0.790585 0
0.210086 0.790494 0
0.247013 0.790051 0
0.284428 0.789258 0
0.320333 0.788251 0
0.356817 0.787076 0
0.393606 0.785824 0
0.430411 0.784634 0
0.466743 0.78352 0
0.503304 0.782315 0
0.539788 0.781079 0
0.576104 0.779889 0
0.612406 0.77879 0
0.649073 0.777859 0
0.685206 0.777173 0
0.720623 0.776761 0
0.755184 0.776684 0
0.788861 0.776928 0
0.821653 0.777462 0
0.853529 0.778302 0
0.884535 0.7794 0
0.914839 0.780682 0
0.944564 0.782116 0
0.973831 0.783658 0
1 0.785214 0
1 0.786786 0
0 0.8309 0
0 0.829313 0
0 0.827039 0
0.0214084 0.826276 0
0.0624704 0.826322 0
0.101884 0.826658 0
0.13959 0.826993 0
0.176532 0.827115 0
0.213336 0.826917 0
0.250309 0.826383 0
0.287739 0.825467 0
0.323629 0.824323 0
0.359976 0.823026 0
0.396628 0.821653 0
0.433204 0.82031 0
0.469322 0.819043 0
0.505623 0.817655 0
0.541848 0.816205 0
0.577859 0.814771 0
0.613733 0.813428 0
0.649836 0.812238 0
0.685405 0.811261 0
0.720241 0.810575 0
0.754223 0.810208 0
0.787366 0.810147 0
0.819623 0.810376 0
0.851011 0.81091 0
0.881559 0.811704 0
0.911452 0.812696 0
0.94081 0.813825 0
0.969757 0.815045 0
0.998383 0.816327 0
1 0.817594 0
0 0.867231 0
0 0.865568 0
0 0.863233 0
0.02533 0.862379 0
0.0663462 0.862333 0
0.10573 0.862562 0
0.14345 0.862776 0
0.180362 0.862776 0
0.217151 0.86244 0
0.254124 0.861753 0
0.291524 0.860685 0
0.327352 0.859373 0
0.363577 0.857893 0
0.400061 0.856352 0
0.436377 0.854826 0
0.472236 0.853346 0
0.508247 0.851728 0
0.544182 0.85005 0
0.579858 0.848386 0
0.61532 0.846784 0
0.650889 0.845335 0
0.685908 0.844099 0
0.720165 0.843122 0
0.753613 0.842481 0
0.786191 0.84213 0
0.817929 0.842084 0
0.848814 0.842329 0
0.878904 0.842817 0
0.908354 0.843503 0
0.937316 0.844343 0
0.965896 0.845289 0
0.994217 0.846265 0
1 0.847242 0
0 0.902876 0
0 0.901122 0
0 0.898665 0
0.0297856 0.897673 0
0.0707103 0.897505 0
0.110018 0.897581 0
0.147692 0.897642 0
0.184558 0.897475 0
0.221271 0.896971 0
0.258213 0.896086 0
0.295506 0.89482 0
0.331243 0.893278 0
0.36733 0.891585 0
0.403601 0.88983 0
0.439658 0.88809 0
0.475227 0.886397 0
0.510964 0.884565 0
0.546609 0.882658 0
0.581979 0.880751 0
0.617044 0.87892 0
0.652094 0.877211 0
0.686595 0.875715 0
0.720317 0.874495 0
0.753201 0.873579 0
0.78526 0.872969 0
0.816464 0.872633 0
0.84683 0.872587 0
0.876432 0.872801 0
0.90544 0.873213 0
0.933989 0.873762 0
0.962173 0.874403 0
0.990143 0.87509 0
1 0.875807 0
0 0.937804 0
0 0.935912 0
0 0.933303 0
0.0343938 0.932158 0
0.0751965 0.931807 0
0.114382 0.931701 0
0.15198 0.931563 0
0.188739 0.931182 0
0.22533 0.930449 0
