LUT/Glow Highlights.cube
TITLE "Generated by Resolve"
LUT_3D_SIZE 9
0 0.0482948 0
0.114488 0.032929 0
0.254093 0.0189364 0
0.364157 0 0
0.483146 0 0
0.626108 0 0
0.764675 0 0
0.882689 0 0
0.98854 0 0
0 0.137209 0
0.0937057 0.113527 0
0.212924 0.0987259 0
0.355306 0.0892805 0
0.49546 0.0817426 0
0.643534 0.0771801 0
0.789166 0.0782483 0
0.91397 0.0858015 0
1 0.0974594 0
0 0.243183 0
0.0849317 0.22768 0
0.215366 0.218723 0
0.360998 0.210315 0
0.507134 0.206027 0
0.660883 0.205676 0
0.812848 0.21088 0
0.943175 0.221866 0
1 0.235859 0
0 0.374472 0
0.0710307 0.365972 0
0.210727 0.363958 0
0.357504 0.358541 0
0.507622 0.3552 0
0.662959 0.355245 0
0.816037 0.360357 0
0.948226 0.370794 0
1 0.384573 0
0 0.525704 0
0.0627298 0.520668 0
0.208469 0.521202 0
0.35407 0.516991 0
0.503136 0.512673 0
0.656275 0.511269 0
0.807568 0.515435 0
0.941268 0.52549 0
1 0.538521 0
0 0.680751 0
0.0558022 0.675868 0
0.204974 0.676829 0
0.351354 0.673854 0
0.499657 0.670222 0
0.649424 0.667933 0
0.795453 0.6701 0
0.926329 0.677455 0
1 0.687236 0
0 0.8309 0
0.0624704 0.826322 0
0.213336 0.826917 0
0.359976 0.823026 0
0.505623 0.817655 0
0.649836 0.812238 0
0.787366 0.810147 0
0.911452 0.812696 0
1 0.817594 0
0 0.971984 0
0.0794842 0.965194 0
0.229023 0.96289 0
0.37406 0.955612 0
0.515785 0.946868 0
0.654124 0.937743 0
0.783169 0.931517 0
0.899474 0.929702 0
1 0.93048 0
0 1 0
0.0895399 1 0
0.236652 1 0
0.379492 1 0
0.517983 1 0
0.652003 1 0
0.774899 1 0
0.885054 1 0
0.962783 1 0
0 0.0501564 0
0.114488 0.0339208 0
0.242039 0.0166171 0
0.348089 0 0
0.483558 0 0
0.625513 0 0
0.762249 0 0
0.880003 0 0
0.986526 0 0
0 0.147555 0
0.11104 0.133059 0
0.218921 0.10396 0
0.354528 0.0924697 0
0.496391 0.085481 0
0.644663 0.0813458 0
0.789624 0.0828107 0
0.914656 0.0908064 0
1 0.1028 0
0 0.22031 0
0.0932479 0.238682 0
0.225269 0.226169 0
0.365881 0.212772 0
0.512078 0.209796 0
0.666285 0.210346 0
0.818265 0.216037 0
0.948531 0.227298 0
1 0.241382 0
0 0.381842 0
0.0774395 0.375616 0
0.219211 0.372351 0
0.363149 0.364172 0
0.514473 0.359503 0
0.671351 0.359548 0
0.82591 0.364828 0
0.958572 0.375616 0
1 0.3897 0
0 0.535668 0
0.0681468 0.530221 0
0.217166 0.52987 0
0.359655 0.524315 0
0.50898 0.518303 0
0.664225 0.515953 0
0.81886 0.519875 0
0.954696 0.529961 0
1 0.543023 0
0 0.690181 0
0.0601968 0.685008 0
0.212375 0.685588 0
0.357702 0.681895 0
0.504799 0.677043 0
0.655314 0.673335 0
0.804334 0.674479 0
0.938567 0.681239 0
1 0.690578 0
0 0.840131 0
0.0660563 0.835081 0
0.219226 0.835218 0
0.365637 0.830564 0
0.509697 0.824323 0
0.653284 0.817487 0
0.792309 0.813962 0
0.919722 0.815427 0
1 0.819608 0
0 0.980285 0
0.0816205 0.972793 0
0.232883 0.969909 0
0.377737 0.961944 0
0.518425 0.952468 0
0.655634 0.942367 0
0.784817 0.934844 0
0.903532 0.931884 0
1 0.931807 0
0 1 0.00563058
0.0899825 1 0
0.238575 1 0
0.381308 1 0
0.519249 1 0
0.652308 1 0
0.774716 1 0
0.886259 1 0
0.960922 1 0
0 0.0484932 0.158556
0.10782 0.0293278 0.121904
0.221118 0.012604 0.0802319
0.345922 0 0.0486
0.482918 0 0.0246128
0.622354 0 0.00672923
0.755825 0 0
0.872557 0 0.00361639
0.979431 0 0.0157626
0 0.144427 0.163592
0.0899977 0.119951 0.140093
0.223774 0.112245 0.0956588
0.351263 0.0974289 0.055024
0.494408 0.0891127 0.0385138
0.64155 0.0846265 0.0297093
0.784283 0.0861372 0.0317693
0.90901 0.0943618 0.0457923
1 0.106554 0.0669566
0 0.20853 0.163134
0.0690166 0.22446 0.151843
0.258854 0.243778 0.142245
0.369192 0.218189 0.0754101
0.511742 0.213077 0.0566567
0.665873 0.214038 0.0580453
0.816464 0.219883 0.0680247
0.946303 0.231159 0.0875715
1 0.245167 0.112139
0 0.384939 0.126802
0.000701915 0.320897 0.141375
0.233387 0.3823 0.11931
0.37023 0.371237 0.0949416
0.519402 0.360662 0.0672313
0.676432 0.361624 0.0677806
0.830304 0.367437 0.0770428
0.962158 0.378683 0.0959945
1 0.393011 0.120653
0 0.541772 0.113939
0.0669413 0.534951 0.111788
0.224414 0.537011 0.112276
0.364065 0.530388 0.0986496
0.5122 0.521447 0.0818952
0.67068 0.517723 0.0751202
0.828458 0.521737 0.0816052
0.964981 0.532113 0.0990921
1 0.545342 0.121889
0 0.695979 0.108492
0.0604562 0.691112 0.106401
0.216876 0.692058 0.110491
0.362524 0.687999 0.104402
0.506874 0.68191 0.0946975
0.658427 0.676143 0.0860456
0.811734 0.676036 0.0867018
0.949554 0.682292 0.0977493
1 0.691386 0.113558
0 0.845747 0.129488
0.0654002 0.840589 0.127489
0.221592 0.840742 0.131182
0.368383 0.835767 0.12491
0.510903 0.828733 0.115053
0.653239 0.820432 0.103899
0.794354 0.815137 0.0981155
0.926284 0.815366 0.100954
1 0.818891 0.108431
0 0.984924 0.172381
0.0794385 0.97702 0.16611
0.232975 0.973892 0.164843
0.378073 0.965621 0.153445
0.518044 0.955505 0.138857
0.653666 0.944686 0.123659
0.782788 0.935805 0.112963
0.904723 0.931472 0.109972
1 0.930465 0.11162
0 1 0.203952
0.0861372 1 0.191501
0.236622 1 0.184253
0.379599 1 0.167742
0.517098 1 0.148852
0.649363 1 0.130617
0.77084 1 0.11809
0.875868 1 0.114137
0.960052 1 0.115557
0 0.0419776 0.431449
0.0952773 0.0200504 0.377813
0.222553 0.00993362 0.343099
0.349065 0 0.309575
0.481575 0 0.281804
0.617044 0 0.261021
0.745922 0 0.251179
0.860594 0 0.253193
0.967132 0 0.262745
0 0.136522 0.431312
0.0676738 0.105348 0.409003
0.230457 0.111192 0.361059
0.355108 0.099733 0.320836
0.491814 0.0909438 0.294606
0.634928 0.0859541 0.280324
0.773388 0.0873121 0.27866
0.896773 0.095552 0.288685
1 0.107805 0.305104
0 0.225681 0.438117
0.0149996 0.184451 0.442878
0.224155 0.226749 0.408728
0.364996 0.225559 0.351385
0.505928 0.217365 0.306477
0.658183 0.216754 0.300175
0.8056 0.221927 0.305394
0.934737 0.232792 0.319585
1 0.246448 0.337682
0 0.387991 0.416815
0 0.320333 0.434852
0.201312 0.364767 0.429786
0.393957 0.387488 0.42121
0.51751 0.364538 0.32076
0.672267 0.362524 0.298466
0.823774 0.368368 0.306493
0.954864 0.379675 0.32192
1 0.393957 0.340948
0 0.542153 0.405753
0.060853 0.534356 0.403647
0.117601 0.484886 0.430594
0.371572 0.537362 0.39115
0.511971 0.525811 0.348791
0.675608 0.515557 0.303502
0.833387 0.520623 0.307454
0.967483 0.531594 0.321675
1 0.544976 0.33933
0 0.696696 0.397574
0.055787 0.692454 0.393439
0.213596 0.693095 0.395193
0.364492 0.691722 0.383352
0.505592 0.684718 0.359548
0.657954 0.675547 0.330022
0.817975 0.673777 0.317739
0.958465 0.679835 0.321828
1 0.688975 0.332311
0 0.846525 0.410758
0.0597848 0.84152 0.405509
0.219364 0.842191 0.40502
0.367071 0.837705 0.394888
0.508644 0.830274 0.37792
0.648386 0.82063 0.356039
0.792691 0.812863 0.337301
0.931182 0.811612 0.330144
1 0.814603 0.330983
0 0.984833 0.43859
0.0722667 0.97673 0.429358
0.228336 0.973724 0.424704
0.373983 0.965652 0.411902
0.513252 0.955413 0.394797
0.647471 0.943999 0.375021
0.775723 0.933761 0.356619
0.902205 0.927687 0.344579
1 0.927001 0.34107
0 1 0.456336
0.0773175 1 0.442664
0.229908 1 0.433967
0.373404 1 0.418372
0.510399 1 0.400137
0.642359 1 0.380957
0.762173 1 0.364858
0.862882 1 0.35584
0.955871 1 0.351171
0 0.0309758 0.650019
0.0869306 0.013138 0.599191
0.221103 0.00447089 0.567605
0.350347 0 0.533471
0.48069 0 0.504738
0.612024 0 0.483146
0.735714 0 0.47068
0.847135 0 0.46775
0.952331 0 0.471214
0 0.127779 0.652857
0.0885328 0.113344 0.622217
0.228901 0.106325 0.589426
0.359533 0.0972152 0.549813
0.492332 0.0898604 0.51783
0.629099 0.0855421 0.497322
0.761181 0.0871138 0.488777
0.881422 0.0954147 0.49102
0.994354 0.107683 0.499825
0 0.242176 0.662303
0.0408789 0.201175 0.655665
0.148867 0.188556 0.643061
0.371832 0.224414 0.576043
0.506294 0.220096 0.533562
0.649088 0.218875 0.511345
0.789685 0.223178 0.505425
0.916548 0.233371 0.510765
1 0.246494 0.52163
0 0.382162 0.657694
0.0413214 0.354116 0.65861
0.126802 0.324086 0.675425
0.357626 0.368811 0.63476
0.507927 0.371954 0.561563
0.656809 0.366079 0.503868
0.804837 0.369863 0.499626
0.936019 0.380285 0.507439
1 0.394064 0.520455
0 0.538125 0.651804
0.0588846 0.534279 0.648493
0.114992 0.48246 0.677165
0.330419 0.519295 0.664607
0.51986 0.541436 0.656641
0.66688 0.51812 0.516716
0.824094 0.519738 0.488472
0.956115 0.530694 0.500069
1 0.543816 0.514076
0 0.693492 0.643427
0.0480964 0.689708 0.639109
0.206668 0.690196 0.642161
0.243183 0.648432 0.662791
0.503594 0.690181 0.615839
0.65037 0.678111 0.555291
0.825971 0.668849 0.493111
0.963409 0.675639 0.495171
1 0.685145 0.504067
0 0.843671 0.649042
0.0509957 0.838834 0.642893
0.213596 0.840177 0.641245
0.358831 0.83592 0.632227
0.503243 0.830823 0.61059
0.639979 0.82031 0.572
0.788739 0.808606 0.528664
0.937499 0.805341 0.508034
1 0.808209 0.503929
0 0.981292 0.665827
0.0618143 0.973053 0.655863
0.220279 0.970382 0.649973
0.366674 0.962997 0.636683
0.504997 0.95349 0.617166
0.638483 0.941924 0.589914
0.764065 0.930571 0.558892
0.897383 0.921965 0.532525
0.980926 0.921691 0.522942
0 1 0.675883
0.0652323 1 0.661891
0.219898 1 0.652262
0.364034 1 0.636423
0.500313 1 0.617075
0.631769 1 0.59443
0.750271 1 0.571496
0.853758 1 0.552346
0.949844 1 0.538613
0 0.0189517 0.864424
0.077409 0.00468452 0.828565
0.215625 0 0.794751
0.347967 0 0.756497
0.478782 0 0.721447
0.608515 0 0.693538
0.727718 0 0.6757
0.835126 0 0.668132
0.937881 0 0.667826
0 0.117952 0.886748
0.0785229 0.104692 0.854246
0.222873 0.0992905 0.821408
0.358419 0.0920882 0.780606
0.492622 0.0863661 0.742046
0.626673 0.0834363 0.712978
0.752026 0.0859693 0.696818
0.867185 0.0946975 0.692683
0.977478 0.107134 0.696345
0 0.233082 0.90135
0.0747082 0.224002 0.87924
0.229374 0.223285 0.855222
0.371054 0.220661 0.815229
0.508812 0.218845 0.769268
0.646082 0.219043 0.733791
0.776318 0.223697 0.71548
0.897398 0.23357 0.711391
1 0.246204 0.71548
0 0.374563 0.904356
0.0627451 0.369757 0.894179
0.166659 0.342031 0.896788
0.275914 0.329503 0.874678
0.512169 0.370535 0.794949
0.648371 0.368841 0.737484
0.782818 0.371969 0.710765
0.91046 0.381384 0.705852
1 0.3944 0.711452
0 0.531563 0.904707
0.0507057 0.527489 0.900053
0.177188 0.510597 0.908721
0.248737 0.480674 0.918685
0.486915 0.521691 0.870512
0.641535 0.525246 0.769558
0.791913 0.522957 0.694377
0.927062 0.531533 0.691737
1 0.543435 0.699397
0 0.687724 0.899351
0.0391699 0.684031 0.895842
0.206439 0.687831 0.899794
0.250614 0.649439 0.922927
0.456107 0.674495 0.912932
0.634592 0.693828 0.90695
0.808637 0.670344 0.710964
0.949065 0.672801 0.670863
1 0.682078 0.680171
0 0.838315 0.904479
0.0407263 0.833448 0.898833
0.205463 0.835157 0.899062
0.35404 0.832639 0.894087
0.495048 0.829847 0.88159
0.626612 0.824079 0.850111
0.773129 0.809339 0.762936
0.948928 0.797543 0.676402
1 0.801617 0.673198
0 0.975372 0.917693
0.0496681 0.966949 0.907546
0.210086 0.964523 0.90222
0.357214 0.957946 0.89041
0.494102 0.950027 0.871962
0.625727 0.940169 0.839094
0.748135 0.928298 0.782971
0.891478 0.915602 0.723247
0.963699 0.915053 0.699336
0 1 0.923506
0.0513466 1 0.908888
0.207858 1 0.899031
0.352712 1 0.883207
0.487846 1 0.862898
0.618051 1 0.835615
0.736339 1 0.800015
0.842817 1 0.760372
0.943221 1 0.728252
0 0.0104982 1
0.0681926 0 1
0.209369 0 1
0.344533 0 0.964569
0.476356 0 0.924697
0.606378 0 0.890578
0.723949 0 0.866575
0.827482 0 0.853361
0.927047 0 0.847913
0 0.109285 1
0.0692607 0.0970321 1
0.216419 0.0928206 1
0.355673 0.0870375 0.995071
0.491707 0.0828565 0.953063
0.626276 0.0813916 0.917082
0.748913 0.0851759 0.892943
0.858305 0.0947738 0.881117
0.964309 0.107637 0.877791
0 0.22533 1
0.0664988 0.217273 1
0.222766 0.217792 1
0.368307 0.216724 1
0.508736 0.216739 0.989624
0.64651 0.218448 0.946883
0.771771 0.224155 0.91722
0.884276 0.23447 0.901991
0.993881 0.247044 0.896529
0 0.367926 1
0.0556191 0.363638 1
0.219287 0.367117 1
0.369146 0.367803 1
0.510613 0.368185 1
0.647974 0.368948 0.964263
0.773739 0.373724 0.920592
0.889906 0.383536 0.89865
1 0.396262 0.891447
0 0.525246 1
0.0433356 0.521035 1
0.209827 0.524178 1
0.296284 0.497398 1
0.40914 0.485679 1
0.643641 0.52517 0.992706
0.77113 0.527489 0.919387
0.893629 0.534905 0.885191
1 0.545373 0.874937
0 0.681865 1
0.0313268 0.678111 1
0.19939 0.681743 1
0.308995 0.666789 1
0.472084 0.675135 1
0.629496 0.682933 1
0.755184 0.677684 0.956558
0.900771 0.675914 0.854017
1 0.682628 0.843641
0 0.8327 1
0.0313878 0.827588 1
0.197345 0.829145 1
0.34847 0.827192 1
0.486885 0.825116 1
0.616144 0.824109 1
0.725307 0.826932 1
0.923751 0.799298 0.868711
1 0.798596 0.811826
0 0.969146 1
0.0382239 0.960403 1
0.200015 0.957931 1
0.347875 0.951766 1
0.483085 0.945205 1
0.610849 0.93875 1
0.724025 0.932464 1
0.861143 0.917708 0.944533
0.959716 0.908598 0.838911
0 1 1
0.0379797 1 1
0.196002 1 1
0.341619 1 1
0.475273 1 1
0.603037 1 1
0.718517 1 1
0.82826 1 0.970504
0.938003 1 0.895964
0 0.00323491 1
0.0598001 0 1
0.203311 0 1
0.341039 0 1
0.47396 0 1
0.604669 0 1
0.722347 0 1
0.824445 0 1
0.92076 0 1
0 0.102083 1
0.0611276 0.0906996 1
0.210544 0.0874952 1
0.352819 0.0828565 1
0.490532 0.0799878 1
0.626017 0.0799115 1
0.748669 0.084947 1
0.855589 0.0955825 1
0.956619 0.109148 1
0 0.21915 1
0.0595712 0.2121 1
0.217334 0.213626 1
0.365713 0.213642 1
0.507942 0.214893 1
0.64654 0.217884 1
0.771389 0.224659 1
0.879683 0.235767 1
0.982254 0.248875 1
0 0.362768 1
0.0496529 0.359075 1
0.213581 0.363058 1
0.365316 0.36437 1
0.508309 0.365774 1
0.646784 0.368277 1
0.772168 0.374701 1
0.881865 0.385733 1
0.987808 0.399023 1
0 0.520027 1
0.0371099 0.515831 1
0.203662 0.51928 1
0.357351 0.520378 1
0.50135 0.521981 1
0.640696 0.524315 1
0.767056 0.529335 1
0.877897 0.538109 1
0.987015 0.548562 1
0 0.676768 1
0.0248722 0.672984 1
0.193179 0.676463 1
0.347585 0.676951 1
0.483864 0.675151 1
0.627466 0.677562 1
0.753368 0.678111 1
0.865965 0.680888 1
0.981186 0.686 1
0 0.827482 1
0.0234989 0.822049 1
0.190066 0.823209 1
0.342107 0.820783 1
0.480461 0.818128 1
0.611093 0.815961 1
0.725902 0.814832 1
0.841703 0.808484 1
0.990478 0.802808 0.983703
0 0.963149 1
0.0281071 0.953979 1
0.190814 0.951217 1
0.339559 0.9449 1
0.473701 0.938567 1
0.5991 0.933547 1
0.704692 0.932708 1
0.788647 0.937102 1
0.938766 0.911055 1
0 1 1
0.0258335 1 1
0.185016 1 1
0.331548 1 1
0.463844 1 1
0.588846 1 1
0.697444 1 1
0.794079 1 1
0.91107 1 1
0 0 1
0.0506447 0 1
0.196155 0 1
0.336263 0 1
0.470253 0 1
0.601801 0 1
0.719829 0 1
0.822003 0 1
0.917144 0 1
0 0.0945907 1
0.0525063 0.0840467 1
0.203891 0.0817426 1
0.348821 0.0780804 1
0.487938 0.0763409 1
0.624414 0.0774853 1
0.747311 0.083711 1
0.854002 0.0953536 1
0.952834 0.109758 1
0 0.212848 1
0.0522469 0.206729 1
0.211429 0.209125 1
0.362203 0.209964 1
0.505684 0.2121 1
0.644984 0.216037 1
0.769665 0.223774 1
0.877241 0.23566 1
0.976577 0.249653 1
0 0.357443 1
0.0431678 0.354284 1
0.207553 0.358694 1
0.360967 0.360418 1
0.504799 0.362402 1
0.644114 0.366094 1
0.769314 0.373846 1
0.878294 0.386099 1
0.979263 0.400336 1
0 0.514351 1
0.030396 0.510399 1
0.197192 0.514229 1
0.3523 0.51577 1
0.496986 0.518029 1
0.636759 0.521569 1
0.762188 0.528298 1
0.871595 0.538567 1
0.972625 0.54995 1
0 0.671061 1
0.0180056 0.667338 1
0.186419 0.670787 1
0.341924 0.671199 1
0.484901 0.671656 1
0.622187 0.672633 1
0.745403 0.675776 1
0.854383 0.681346 1
0.955505 0.687617 1
0 0.821332 1
0.0153658 0.815579 1
0.182162 0.816327 1
0.335256 0.813428 1
0.473793 0.810254 1
0.605539 0.807614 1
0.723339 0.806989 1
0.833112 0.807095 1
0.939529 0.807019 1
0 0.955947 1
0.0178225 0.946349 1
0.181079 0.94316 1
0.330968 0.936416 1
0.464897 0.929702 1
0.59086 0.924239 1
0.69926 0.922377 1
0.794583 0.922744 1
0.913344 0.915328 1
0 1 1
0.0134432 1 1
0.17351 1 1
0.321263 1 1
0.452811 1 1
0.576562 1 1
0.681025 1 1
0.764599 1 1
0.836271 1 1
