LUT/RedWhiteBlue.cube
TITLE "RedWhiteBlue_new"
#LUT size
LUT_3D_SIZE 25
#LUT data points
1.000000 0.941176 0.854902
0.956863 0.941176 0.854902
0.890196 0.917647 0.847059
0.800000 0.878431 0.827451
0.686275 0.815686 0.800000
0.568627 0.745098 0.768627
0.450980 0.674510 0.733333
0.329412 0.603922 0.701961
0.223529 0.537255 0.670588
0.129412 0.474510 0.643137
0.058824 0.427451 0.623529
0.011765 0.396078 0.607843
0.000000 0.388235 0.603922
0.027451 0.403922 0.611765
0.086275 0.439216 0.623529
0.172549 0.482353 0.647059
0.278431 0.541176 0.674510
0.400000 0.607843 0.705882
0.525490 0.678431 0.737255
0.647059 0.749020 0.768627
0.772549 0.815686 0.800000
0.866667 0.870588 0.823529
0.945098 0.913725 0.843137
0.992157 0.941176 0.854902
1.000000 0.941176 0.854902
0.992157 0.941176 0.854902
0.937255 0.933333 0.854902
0.858824 0.901961 0.839216
0.764706 0.854902 0.819608
0.647059 0.792157 0.788235
0.521569 0.717647 0.756863
0.403922 0.647059 0.725490
0.290196 0.576471 0.690196
0.188235 0.509804 0.662745
0.101961 0.454902 0.635294
0.039216 0.415686 0.615686
0.003922 0.392157 0.603922
0.003922 0.392157 0.603922
0.047059 0.411765 0.615686
0.113725 0.450980 0.631373
0.211765 0.505882 0.654902
0.321569 0.564706 0.682353
0.443137 0.631373 0.713725
0.568627 0.701961 0.745098
0.690196 0.768627 0.776471
0.807843 0.835294 0.807843
0.901961 0.886275 0.831373
0.964706 0.921569 0.847059
1.000000 0.941176 0.854902
1.000000 0.941176 0.854902
0.972549 0.941176 0.854902
0.909804 0.925490 0.850980
0.823529 0.886275 0.831373
0.721569 0.835294 0.807843
0.603922 0.768627 0.776471
0.482353 0.694118 0.745098
0.360784 0.623529 0.709804
0.254902 0.552941 0.678431
0.156863 0.490196 0.650980
0.078431 0.439216 0.627451
0.023529 0.403922 0.611765
0.000000 0.388235 0.603922
0.015686 0.396078 0.607843
0.070588 0.427451 0.619608
0.145098 0.470588 0.643137
0.247059 0.529412 0.666667
0.364706 0.592157 0.694118
0.490196 0.658824 0.725490
0.611765 0.729412 0.756863
0.733333 0.796078 0.788235
0.843137 0.858824 0.819608
0.929412 0.901961 0.839216
0.984314 0.933333 0.850980
1.000000 0.941176 0.854902
0.992157 0.937255 0.854902
0.972549 0.941176 0.854902
0.909804 0.925490 0.850980
0.823529 0.886275 0.835294
0.721569 0.831373 0.807843
0.600000 0.764706 0.776471
0.478431 0.694118 0.745098
0.360784 0.619608 0.709804
0.250980 0.549020 0.678431
0.152941 0.490196 0.650980
0.074510 0.439216 0.627451
0.019608 0.403922 0.611765
0.000000 0.388235 0.603922
0.015686 0.400000 0.607843
0.066667 0.427451 0.619608
0.149020 0.470588 0.643137
0.247059 0.525490 0.666667
0.368627 0.592157 0.698039
0.490196 0.658824 0.729412
0.615686 0.729412 0.760784
0.733333 0.792157 0.788235
0.847059 0.858824 0.819608
0.929412 0.905882 0.839216
0.980392 0.933333 0.850980
1.000000 0.941176 0.854902
0.992157 0.937255 0.854902
0.952941 0.941176 0.854902
0.882353 0.913725 0.843137
0.788235 0.870588 0.827451
0.682353 0.811765 0.800000
0.560784 0.741176 0.764706
0.435294 0.666667 0.733333
0.321569 0.596078 0.701961
0.215686 0.529412 0.670588
0.121569 0.466667 0.639216
0.054902 0.423529 0.619608
0.011765 0.396078 0.607843
0.000000 0.388235 0.603922
0.031373 0.403922 0.611765
0.094118 0.439216 0.627451
0.184314 0.490196 0.650980
0.290196 0.549020 0.674510
0.411765 0.615686 0.705882
0.533333 0.682353 0.737255
0.658824 0.752941 0.768627
0.772549 0.815686 0.800000
0.878431 0.874510 0.827451
0.952941 0.913725 0.847059
0.992157 0.941176 0.854902
1.000000 0.941176 0.854902
0.984314 0.933333 0.854902
0.933333 0.933333 0.850980
0.850980 0.898039 0.839216
0.749020 0.847059 0.815686
0.639216 0.788235 0.788235
0.513725 0.713725 0.752941
0.392157 0.639216 0.721569
0.278431 0.572549 0.686275
0.176471 0.505882 0.658824
0.094118 0.450980 0.631373
0.031373 0.411765 0.611765
0.000000 0.388235 0.603922
0.003922 0.392157 0.603922
0.050980 0.415686 0.615686
0.125490 0.458824 0.631373
0.219608 0.513725 0.658824
0.333333 0.576471 0.686275
0.454902 0.639216 0.717647
0.580392 0.709804 0.749020
0.701961 0.776471 0.780392
0.811765 0.839216 0.811765
0.909804 0.890196 0.835294
0.972549 0.925490 0.847059
1.000000 0.941176 0.854902
0.992157 0.937255 0.854902
0.968627 0.929412 0.850980
0.925490 0.929412 0.850980
0.847059 0.898039 0.839216
0.749020 0.850980 0.815686
0.639216 0.784314 0.788235
0.513725 0.713725 0.756863
0.388235 0.639216 0.717647
0.278431 0.568627 0.686275
0.176471 0.501961 0.654902
0.094118 0.450980 0.635294
0.031373 0.407843 0.611765
0.000000 0.388235 0.603922
0.003922 0.392157 0.603922
0.050980 0.419608 0.615686
0.125490 0.458824 0.635294
0.223529 0.509804 0.662745
0.337255 0.572549 0.690196
0.458824 0.643137 0.721569
0.584314 0.713725 0.752941
0.705882 0.776471 0.784314
0.811765 0.839216 0.807843
0.913725 0.894118 0.835294
0.972549 0.929412 0.850980
1.000000 0.941176 0.854902
0.992157 0.937255 0.854902
0.968627 0.929412 0.850980
0.901961 0.921569 0.850980
0.815686 0.882353 0.831373
0.709804 0.827451 0.807843
0.596078 0.764706 0.776471
0.470588 0.690196 0.741176
0.349020 0.615686 0.709804
0.243137 0.545098 0.678431
0.145098 0.482353 0.647059
0.066667 0.435294 0.623529
0.019608 0.400000 0.607843
0.000000 0.388235 0.603922
0.015686 0.396078 0.607843
0.074510 0.431373 0.623529
0.156863 0.474510 0.643137
0.262745 0.533333 0.670588
0.376471 0.596078 0.698039
0.501961 0.666667 0.729412
0.627451 0.733333 0.760784
0.745098 0.800000 0.792157
0.847059 0.858824 0.819608
0.933333 0.905882 0.839216
0.984314 0.937255 0.854902
1.000000 0.941176 0.854902
0.984314 0.937255 0.854902
0.952941 0.921569 0.847059
0.874510 0.909804 0.843137
0.776471 0.866667 0.823529
0.670588 0.803922 0.796078
0.552941 0.741176 0.764706
0.427451 0.662745 0.729412
0.309804 0.588235 0.694118
0.203922 0.521569 0.666667
0.113725 0.462745 0.639216
0.047059 0.419608 0.615686
0.007843 0.392157 0.603922
0.000000 0.388235 0.603922
0.031373 0.407843 0.611765
0.101961 0.447059 0.627451
0.192157 0.494118 0.650980
0.301961 0.556863 0.678431
0.423529 0.623529 0.709804
0.549020 0.690196 0.741176
0.670588 0.760784 0.772549
0.784314 0.823529 0.800000
0.878431 0.874510 0.827451
0.956863 0.917647 0.847059
0.996078 0.941176 0.854902
0.996078 0.941176 0.854902
0.972549 0.929412 0.850980
0.933333 0.913725 0.843137
0.870588 0.905882 0.843137
0.772549 0.862745 0.823529
0.666667 0.803922 0.796078
0.549020 0.733333 0.764706
0.423529 0.658824 0.729412
0.305882 0.588235 0.694118
0.200000 0.517647 0.662745
0.109804 0.462745 0.639216
0.047059 0.419608 0.619608
0.007843 0.392157 0.603922
0.000000 0.388235 0.603922
0.031373 0.407843 0.611765
0.105882 0.447059 0.631373
0.200000 0.498039 0.654902
0.305882 0.560784 0.682353
0.427451 0.623529 0.713725
0.552941 0.694118 0.745098
0.674510 0.764706 0.776471
0.788235 0.823529 0.803922
0.882353 0.878431 0.827451
0.956863 0.921569 0.847059
0.996078 0.941176 0.854902
1.000000 0.941176 0.854902
0.968627 0.929412 0.850980
0.929412 0.909804 0.843137
0.843137 0.894118 0.835294
0.741176 0.843137 0.811765
0.627451 0.780392 0.784314
0.509804 0.713725 0.752941
0.384314 0.635294 0.717647
0.270588 0.564706 0.686275
0.168627 0.498039 0.654902
0.086275 0.447059 0.627451
0.027451 0.407843 0.611765
0.000000 0.388235 0.603922
0.007843 0.392157 0.603922
0.050980 0.415686 0.615686
0.133333 0.458824 0.635294
0.231373 0.517647 0.662745
0.345098 0.580392 0.690196
0.470588 0.647059 0.721569
0.592157 0.717647 0.752941
0.713725 0.784314 0.784314
0.823529 0.843137 0.811765
0.909804 0.890196 0.835294
0.976471 0.929412 0.850980
1.000000 0.941176 0.854902
0.992157 0.937255 0.854902
0.952941 0.921569 0.847059
0.909804 0.901961 0.839216
0.803922 0.878431 0.827451
0.701961 0.823529 0.803922
0.584314 0.756863 0.772549
0.466667 0.686275 0.741176
0.341176 0.611765 0.705882
0.231373 0.537255 0.674510
0.137255 0.478431 0.643137
0.062745 0.427451 0.623529
0.015686 0.396078 0.607843
0.000000 0.388235 0.603922
0.019608 0.400000 0.607843
0.074510 0.431373 0.623529
0.164706 0.482353 0.647059
0.270588 0.541176 0.670588
0.392157 0.603922 0.701961
0.513725 0.674510 0.733333
0.639216 0.741176 0.764706
0.756863 0.807843 0.796078
0.854902 0.862745 0.819608
0.933333 0.905882 0.839216
0.988235 0.937255 0.854902
1.000000 0.941176 0.854902
0.980392 0.933333 0.854902
0.929412 0.913725 0.843137
0.882353 0.890196 0.835294
0.800000 0.874510 0.827451
0.694118 0.819608 0.803922
0.580392 0.752941 0.772549
0.458824 0.682353 0.737255
0.337255 0.607843 0.701961
0.223529 0.537255 0.670588
0.133333 0.474510 0.643137
0.062745 0.427451 0.623529
0.015686 0.396078 0.607843
0.000000 0.388235 0.603922
0.023529 0.400000 0.611765
0.078431 0.431373 0.623529
0.172549 0.482353 0.647059
0.278431 0.545098 0.674510
0.396078 0.607843 0.701961
0.521569 0.678431 0.737255
0.643137 0.745098 0.768627
0.760784 0.811765 0.796078
0.858824 0.866667 0.819608
0.941176 0.909804 0.839216
0.992157 0.937255 0.854902
1.000000 0.941176 0.854902
0.976471 0.933333 0.850980
0.925490 0.909804 0.843137
0.882353 0.890196 0.835294
0.768627 0.858824 0.819608
0.658824 0.796078 0.792157
0.541176 0.729412 0.764706
0.423529 0.658824 0.729412
0.301961 0.584314 0.694118
0.196078 0.513725 0.662745
0.105882 0.458824 0.635294
0.043137 0.415686 0.615686
0.003922 0.392157 0.603922
0.000000 0.388235 0.603922
0.035294 0.407843 0.611765
0.101961 0.447059 0.631373
0.203922 0.498039 0.654902
0.317647 0.564706 0.682353
0.435294 0.631373 0.713725
0.560784 0.698039 0.745098
0.682353 0.764706 0.776471
0.796078 0.827451 0.803922
0.886275 0.882353 0.827451
0.956863 0.917647 0.847059
1.000000 0.941176 0.854902
0.996078 0.941176 0.854902
0.964706 0.929412 0.850980
0.909804 0.901961 0.839216
0.854902 0.878431 0.831373
0.729412 0.839216 0.811765
0.615686 0.772549 0.780392
0.498039 0.705882 0.749020
0.376471 0.631373 0.717647
0.262745 0.560784 0.682353
0.160784 0.494118 0.650980
0.078431 0.443137 0.627451
0.023529 0.403922 0.611765
0.000000 0.388235 0.603922
0.011765 0.396078 0.603922
0.058824 0.419608 0.619608
0.133333 0.462745 0.639216
0.243137 0.525490 0.666667
0.356863 0.588235 0.694118
0.482353 0.654902 0.725490
0.607843 0.725490 0.756863
0.725490 0.792157 0.788235
0.831373 0.847059 0.815686
0.917647 0.898039 0.835294
0.976471 0.929412 0.850980
1.000000 0.941176 0.854902
0.988235 0.937255 0.854902
0.945098 0.917647 0.847059
0.882353 0.890196 0.835294
0.823529 0.862745 0.823529
0.721569 0.835294 0.807843
0.611765 0.772549 0.780392
0.490196 0.698039 0.749020
0.372549 0.627451 0.713725
0.254902 0.552941 0.678431
0.156863 0.490196 0.650980
0.074510 0.439216 0.627451
0.023529 0.403922 0.611765
0.000000 0.388235 0.603922
0.015686 0.396078 0.607843
0.062745 0.423529 0.619608
0.137255 0.466667 0.639216
0.247059 0.529412 0.666667
0.364706 0.592157 0.694118
0.490196 0.658824 0.725490
0.611765 0.729412 0.756863
0.733333 0.796078 0.788235
0.839216 0.854902 0.815686
0.921569 0.898039 0.835294
0.980392 0.933333 0.850980
1.000000 0.941176 0.854902
0.988235 0.937255 0.854902
0.945098 0.917647 0.847059
0.878431 0.890196 0.835294
0.819608 0.862745 0.823529
0.686275 0.815686 0.800000
0.572549 0.749020 0.772549
0.454902 0.678431 0.737255
0.337255 0.603922 0.705882
0.223529 0.533333 0.670588
0.129412 0.474510 0.643137
0.054902 0.427451 0.619608
0.011765 0.396078 0.607843
0.000000 0.388235 0.603922
0.023529 0.400000 0.611765
0.082353 0.435294 0.623529
0.168627 0.482353 0.647059
0.282353 0.545098 0.674510
0.403922 0.611765 0.705882
0.529412 0.682353 0.737255
0.650980 0.749020 0.768627
0.764706 0.811765 0.796078
0.866667 0.870588 0.823529
0.941176 0.909804 0.843137
0.988235 0.937255 0.854902
1.000000 0.941176 0.854902
0.976471 0.933333 0.850980
0.925490 0.909804 0.843137
0.854902 0.878431 0.831373
0.792157 0.847059 0.819608
0.647059 0.792157 0.788235
0.529412 0.721569 0.756863
0.411765 0.650980 0.725490
0.298039 0.580392 0.690196
0.188235 0.509804 0.658824
0.098039 0.454902 0.631373
0.039216 0.411765 0.615686
0.003922 0.388235 0.603922
0.003922 0.392157 0.603922
0.039216 0.411765 0.615686
0.113725 0.450980 0.631373
0.207843 0.501961 0.654902
0.325490 0.568627 0.686275
0.447059 0.639216 0.717647
0.576471 0.705882 0.749020
0.694118 0.772549 0.780392
0.803922 0.835294 0.807843
0.898039 0.886275 0.831373
0.964706 0.921569 0.847059
1.000000 0.941176 0.854902
0.992157 0.941176 0.854902
0.960784 0.925490 0.850980
0.901961 0.898039 0.839216
0.823529 0.862745 0.823529
0.756863 0.831373 0.811765
0.639216 0.788235 0.788235
0.521569 0.717647 0.756863
0.400000 0.647059 0.721569
0.286275 0.576471 0.690196
0.180392 0.505882 0.658824
0.094118 0.450980 0.631373
0.031373 0.411765 0.611765
0.000000 0.388235 0.603922
0.003922 0.392157 0.603922
0.047059 0.415686 0.615686
0.117647 0.454902 0.631373
0.211765 0.505882 0.658824
0.333333 0.576471 0.686275
0.458824 0.643137 0.717647
0.584314 0.709804 0.749020
0.705882 0.776471 0.780392
0.811765 0.839216 0.807843
0.901961 0.890196 0.831373
0.968627 0.925490 0.847059
1.000000 0.941176 0.854902
0.992157 0.937255 0.854902
0.956863 0.925490 0.850980
0.898039 0.898039 0.839216
0.819608 0.862745 0.823529
0.749020 0.831373 0.811765
0.603922 0.764706 0.780392
0.486275 0.698039 0.749020
0.368627 0.627451 0.713725
0.254902 0.552941 0.682353
0.152941 0.490196 0.650980
0.074510 0.435294 0.627451
0.019608 0.403922 0.607843
0.000000 0.388235 0.603922
0.015686 0.396078 0.607843
0.062745 0.423529 0.619608
0.145098 0.470588 0.639216
0.243137 0.521569 0.662745
0.368627 0.592157 0.698039
0.494118 0.662745 0.729412
0.619608 0.729412 0.760784
0.737255 0.796078 0.788235
0.839216 0.854902 0.815686
0.925490 0.901961 0.839216
0.980392 0.933333 0.850980
1.000000 0.941176 0.854902
0.984314 0.937255 0.854902
0.941176 0.913725 0.847059
0.874510 0.886275 0.835294
0.788235 0.847059 0.819608
0.721569 0.815686 0.803922
0.560784 0.741176 0.764706
0.443137 0.670588 0.733333
0.325490 0.600000 0.701961
0.219608 0.529412 0.670588
0.121569 0.466667 0.639216
0.050980 0.423529 0.619608
0.011765 0.396078 0.603922
0.000000 0.388235 0.603922
0.027451 0.403922 0.611765
0.090196 0.439216 0.627451
0.180392 0.486275 0.647059
0.286275 0.549020 0.674510
0.415686 0.615686 0.709804
0.541176 0.690196 0.741176
0.666667 0.756863 0.772549
0.776471 0.819608 0.800000
0.874510 0.874510 0.823529
0.949020 0.913725 0.843137
0.992157 0.937255 0.854902
1.000000 0.941176 0.854902
0.972549 0.929412 0.850980
0.917647 0.905882 0.843137
0.843137 0.874510 0.827451
0.756863 0.831373 0.811765
0.686275 0.800000 0.796078
0.552941 0.737255 0.764706
0.431373 0.666667 0.733333
0.317647 0.592157 0.698039
0.211765 0.525490 0.666667
0.113725 0.466667 0.639216
0.047059 0.419608 0.615686
0.003922 0.392157 0.603922
0.000000 0.388235 0.603922
0.031373 0.407843 0.611765
0.098039 0.443137 0.627451
0.188235 0.490196 0.650980
0.294118 0.552941 0.678431
0.427451 0.623529 0.709804
0.552941 0.694118 0.741176
0.674510 0.760784 0.772549
0.788235 0.823529 0.800000
0.882353 0.874510 0.827451
0.952941 0.913725 0.847059
0.992157 0.937255 0.854902
1.000000 0.941176 0.854902
0.968627 0.929412 0.850980
0.913725 0.905882 0.839216
0.839216 0.870588 0.827451
0.745098 0.827451 0.811765
0.674510 0.796078 0.796078
0.513725 0.713725 0.756863
0.400000 0.643137 0.721569
0.286275 0.572549 0.690196
0.184314 0.505882 0.658824
0.094118 0.450980 0.631373
0.031373 0.411765 0.611765
0.000000 0.388235 0.603922
0.007843 0.392157 0.603922
0.047059 0.415686 0.615686
0.121569 0.454902 0.631373
0.215686 0.509804 0.658824
0.329412 0.568627 0.686275
0.462745 0.643137 0.721569
0.588235 0.713725 0.752941
0.705882 0.780392 0.780392
0.815686 0.839216 0.807843
0.905882 0.890196 0.835294
0.968627 0.925490 0.850980
1.000000 0.941176 0.854902
0.992157 0.941176 0.854902
0.952941 0.925490 0.847059
0.894118 0.898039 0.839216
0.815686 0.858824 0.823529
0.721569 0.815686 0.803922
0.647059 0.780392 0.788235
0.474510 0.690196 0.741176
0.356863 0.615686 0.709804
0.247059 0.549020 0.678431
0.149020 0.486275 0.647059
0.066667 0.435294 0.623529
0.019608 0.400000 0.607843
0.000000 0.388235 0.603922
0.015686 0.396078 0.607843
0.074510 0.427451 0.623529
0.152941 0.474510 0.643137
0.254902 0.533333 0.666667
0.372549 0.596078 0.698039
0.505882 0.666667 0.733333
0.631373 0.741176 0.764706
0.749020 0.803922 0.792157
0.850980 0.862745 0.819608
0.933333 0.905882 0.839216
0.984314 0.933333 0.854902
1.000000 0.941176 0.854902
0.984314 0.937255 0.854902
0.933333 0.913725 0.843137
0.866667 0.882353 0.831373
0.780392 0.843137 0.815686
0.682353 0.800000 0.796078
0.607843 0.760784 0.780392
0.443137 0.670588 0.733333
0.325490 0.600000 0.701961
0.219608 0.529412 0.670588
0.125490 0.470588 0.643137
0.050980 0.423529 0.619608
0.007843 0.396078 0.607843
0.000000 0.388235 0.603922
0.031373 0.403922 0.611765
0.090196 0.439216 0.627451
0.180392 0.490196 0.647059
0.286275 0.545098 0.674510
0.407843 0.611765 0.705882
0.537255 0.686275 0.741176
0.662745 0.756863 0.772549
0.776471 0.819608 0.800000
0.874510 0.874510 0.823529
0.949020 0.913725 0.843137
0.992157 0.941176 0.854902
1.000000 0.941176 0.854902
0.976471 0.929412 0.850980
0.921569 0.905882 0.843137
0.843137 0.870588 0.831373
0.756863 0.835294 0.811765
0.654902 0.784314 0.792157
0.576471 0.745098 0.772549
0.321569 0.568627 0.686275
0.411765 0.615686 0.709804
0.509804 0.670588 0.733333
0.603922 0.725490 0.756863
0.701961 0.776471 0.780392
0.776471 0.819608 0.800000
0.835294 0.850980 0.815686
0.866667 0.870588 0.823529
0.878431 0.878431 0.831373
0.866667 0.878431 0.827451
0.839216 0.866667 0.827451
0.796078 0.850980 0.819608
0.725490 0.815686 0.803922
0.643137 0.776471 0.788235
0.556863 0.733333 0.768627
0.462745 0.682353 0.745098
0.376471 0.635294 0.725490
0.290196 0.588235 0.701961
0.219608 0.541176 0.678431
0.160784 0.498039 0.658824
0.117647 0.454902 0.635294
0.094118 0.415686 0.611765
0.086275 0.376471 0.584314
0.094118 0.337255 0.560784
0.109804 0.313725 0.541176
0.352941 0.584314 0.694118
0.447059 0.635294 0.717647
0.545098 0.690196 0.741176
0.639216 0.741176 0.764706
0.729412 0.792157 0.788235
0.803922 0.831373 0.807843
0.847059 0.858824 0.815686
0.870588 0.874510 0.827451
0.878431 0.878431 0.831373
0.862745 0.878431 0.827451
0.827451 0.862745 0.823529
0.772549 0.839216 0.815686
0.698039 0.800000 0.800000
0.611765 0.760784 0.780392
0.525490 0.717647 0.760784
0.435294 0.666667 0.737255
0.345098 0.619608 0.717647
0.262745 0.572549 0.694118
0.196078 0.525490 0.670588
0.145098 0.482353 0.650980
0.105882 0.439216 0.627451
0.090196 0.400000 0.600000
0.086275 0.360784 0.576471
0.101961 0.325490 0.549020
0.117647 0.301961 0.533333
0.388235 0.603922 0.701961
0.482353 0.654902 0.725490
0.580392 0.709804 0.749020
0.674510 0.760784 0.776471
0.756863 0.807843 0.796078
0.819608 0.843137 0.811765
0.858824 0.866667 0.823529
0.874510 0.874510 0.827451
0.874510 0.878431 0.831373
0.850980 0.874510 0.827451
0.807843 0.854902 0.819608
0.749020 0.827451 0.807843
0.666667 0.788235 0.792157
0.580392 0.745098 0.772549
0.490196 0.698039 0.752941
0.400000 0.647059 0.729412
0.313725 0.600000 0.705882
0.235294 0.552941 0.686275
0.172549 0.509804 0.662745
0.129412 0.470588 0.643137
0.098039 0.427451 0.615686
0.086275 0.388235 0.592157
0.090196 0.349020 0.568627
0.109804 0.313725 0.541176
0.133333 0.290196 0.521569
0.388235 0.603922 0.701961
0.482353 0.658824 0.725490
0.580392 0.709804 0.752941
0.674510 0.760784 0.772549
0.756863 0.807843 0.796078
0.819608 0.843137 0.811765
0.858824 0.866667 0.823529
0.874510 0.878431 0.827451
0.870588 0.878431 0.831373
0.847059 0.870588 0.827451
0.807843 0.854902 0.819608
0.749020 0.827451 0.807843
0.666667 0.788235 0.792157
0.580392 0.745098 0.772549
0.490196 0.698039 0.752941
0.400000 0.647059 0.729412
0.313725 0.600000 0.709804
0.235294 0.552941 0.686275
0.172549 0.509804 0.662745
0.129412 0.466667 0.643137
0.098039 0.427451 0.615686
0.086275 0.384314 0.592157
0.090196 0.345098 0.568627
0.109804 0.309804 0.541176
0.133333 0.290196 0.521569
0.419608 0.623529 0.709804
0.517647 0.674510 0.733333
0.615686 0.729412 0.760784
0.705882 0.780392 0.780392
0.784314 0.823529 0.803922
0.839216 0.854902 0.815686
0.866667 0.870588 0.823529
0.878431 0.878431 0.827451
0.866667 0.878431 0.827451
0.835294 0.866667 0.823529
0.788235 0.843137 0.815686
0.725490 0.815686 0.803922
0.635294 0.772549 0.784314
0.549020 0.729412 0.764706
0.454902 0.678431 0.745098
0.364706 0.631373 0.721569
0.282353 0.584314 0.698039
0.211765 0.537255 0.678431
0.156863 0.494118 0.654902
0.117647 0.454902 0.631373
0.094118 0.411765 0.607843
0.086275 0.372549 0.584314
0.098039 0.333333 0.556863
0.121569 0.298039 0.533333
0.145098 0.278431 0.513725
0.454902 0.643137 0.717647
0.552941 0.694118 0.741176
0.647059 0.749020 0.768627
0.737255 0.796078 0.788235
0.803922 0.835294 0.807843
0.850980 0.858824 0.819608
0.870588 0.874510 0.827451
0.874510 0.878431 0.831373
0.858824 0.874510 0.827451
0.819608 0.862745 0.823529
0.768627 0.835294 0.811765
0.698039 0.800000 0.796078
0.603922 0.756863 0.780392
0.513725 0.709804 0.756863
0.423529 0.662745 0.737255
0.337255 0.611765 0.713725
0.254902 0.564706 0.690196
0.188235 0.521569 0.670588
0.141176 0.478431 0.647059
0.105882 0.439216 0.627451
0.090196 0.396078 0.600000
0.090196 0.360784 0.572549
0.101961 0.321569 0.549020
0.133333 0.286275 0.521569
0.164706 0.266667 0.505882
0.458824 0.643137 0.721569
0.556863 0.698039 0.745098
0.650980 0.749020 0.768627
0.733333 0.796078 0.788235
0.807843 0.835294 0.807843
0.850980 0.862745 0.819608
0.874510 0.874510 0.827451
0.874510 0.882353 0.831373
0.854902 0.874510 0.827451
0.819608 0.858824 0.823529
0.764706 0.835294 0.811765
0.694118 0.800000 0.796078
0.603922 0.752941 0.776471
0.513725 0.709804 0.756863
0.419608 0.662745 0.737255
0.333333 0.611765 0.713725
0.254902 0.564706 0.690196
0.188235 0.521569 0.666667
0.137255 0.478431 0.647059
0.105882 0.439216 0.623529
0.086275 0.396078 0.596078
0.090196 0.356863 0.572549
0.101961 0.317647 0.549020
0.133333 0.290196 0.521569
0.164706 0.266667 0.505882
0.490196 0.662745 0.725490
0.588235 0.717647 0.752941
0.682353 0.764706 0.776471
0.764706 0.811765 0.796078
0.823529 0.847059 0.811765
0.862745 0.866667 0.823529
0.878431 0.878431 0.827451
0.870588 0.878431 0.831373
0.847059 0.870588 0.827451
0.803922 0.850980 0.819608
0.741176 0.823529 0.807843
0.666667 0.788235 0.792157
0.572549 0.741176 0.772549
0.482353 0.694118 0.749020
0.392157 0.643137 0.729412
0.301961 0.596078 0.705882
0.231373 0.549020 0.682353
0.168627 0.505882 0.662745
0.125490 0.466667 0.639216
0.098039 0.423529 0.615686
0.086275 0.380392 0.592157
0.090196 0.345098 0.564706
0.113725 0.309804 0.537255
0.145098 0.278431 0.513725
0.180392 0.254902 0.494118
0.529412 0.678431 0.737255
0.623529 0.733333 0.760784
0.713725 0.784314 0.784314
0.784314 0.823529 0.803922
0.839216 0.854902 0.815686
0.870588 0.874510 0.823529
0.878431 0.878431 0.831373
0.866667 0.878431 0.831373
0.835294 0.866667 0.823529
0.784314 0.843137 0.815686
0.717647 0.811765 0.800000
0.635294 0.772549 0.784314
0.537255 0.721569 0.764706
0.447059 0.674510 0.741176
0.360784 0.627451 0.721569
0.274510 0.576471 0.698039
0.203922 0.533333 0.674510
0.152941 0.490196 0.654902
0.113725 0.450980 0.631373
0.094118 0.411765 0.607843
0.086275 0.368627 0.580392
0.098039 0.333333 0.552941
0.121569 0.298039 0.529412
0.164706 0.266667 0.505882
0.200000 0.247059 0.486275
0.533333 0.682353 0.741176
0.627451 0.737255 0.764706
0.717647 0.784314 0.784314
0.788235 0.827451 0.803922
0.843137 0.854902 0.815686
0.870588 0.870588 0.823529
0.878431 0.878431 0.831373
0.862745 0.878431 0.827451
0.831373 0.866667 0.823529
0.780392 0.843137 0.815686
0.713725 0.811765 0.800000
0.631373 0.768627 0.784314
0.537255 0.721569 0.764706
0.443137 0.674510 0.741176
0.352941 0.623529 0.721569
0.274510 0.576471 0.698039
0.203922 0.529412 0.674510
0.149020 0.486275 0.650980
0.113725 0.447059 0.631373
0.090196 0.411765 0.607843
0.086275 0.368627 0.580392
0.098039 0.329412 0.552941
0.125490 0.298039 0.529412
0.164706 0.266667 0.501961
0.203922 0.243137 0.486275
0.564706 0.701961 0.749020
0.658824 0.752941 0.768627
0.741176 0.800000 0.792157
0.807843 0.835294 0.807843
0.854902 0.862745 0.819608
0.874510 0.874510 0.827451
0.874510 0.882353 0.831373
0.854902 0.874510 0.827451
0.815686 0.858824 0.823529
0.760784 0.831373 0.811765
0.686275 0.796078 0.796078
