LUT/RedWhiteBlue.cube
TITLE "RedWhiteBlue_new"
#LUT size
LUT_3D_SIZE 9
#LUT data points
1.000000 0.941176 0.854902
0.800000 0.878431 0.827451
0.450980 0.674510 0.733333
0.129412 0.474510 0.643137
0.000000 0.388235 0.603922
0.172549 0.482353 0.647059
0.525490 0.678431 0.737255
0.866667 0.870588 0.823529
1.000000 0.941176 0.854902
0.972549 0.941176 0.854902
0.721569 0.831373 0.807843
0.360784 0.619608 0.709804
0.074510 0.439216 0.627451
0.015686 0.400000 0.607843
0.247059 0.525490 0.666667
0.615686 0.729412 0.760784
0.929412 0.905882 0.839216
0.992157 0.937255 0.854902
0.925490 0.929412 0.850980
0.639216 0.784314 0.788235
0.278431 0.568627 0.686275
0.031373 0.407843 0.611765
0.050980 0.419608 0.615686
0.337255 0.572549 0.690196
0.705882 0.776471 0.784314
0.972549 0.929412 0.850980
0.968627 0.929412 0.850980
0.870588 0.905882 0.843137
0.549020 0.733333 0.764706
0.200000 0.517647 0.662745
0.007843 0.392157 0.603922
0.105882 0.447059 0.631373
0.427451 0.623529 0.713725
0.788235 0.823529 0.803922
0.996078 0.941176 0.854902
0.929412 0.909804 0.843137
0.800000 0.874510 0.827451
0.458824 0.682353 0.737255
0.133333 0.474510 0.643137
0.000000 0.388235 0.603922
0.172549 0.482353 0.647059
0.521569 0.678431 0.737255
0.858824 0.866667 0.819608
1.000000 0.941176 0.854902
0.882353 0.890196 0.835294
0.721569 0.835294 0.807843
0.372549 0.627451 0.713725
0.074510 0.439216 0.627451
0.015686 0.396078 0.607843
0.247059 0.529412 0.666667
0.611765 0.729412 0.756863
0.921569 0.898039 0.835294
0.988235 0.937255 0.854902
0.819608 0.862745 0.823529
0.639216 0.788235 0.788235
0.286275 0.576471 0.690196
0.031373 0.411765 0.611765
0.047059 0.415686 0.615686
0.333333 0.576471 0.686275
0.705882 0.776471 0.780392
0.968627 0.925490 0.847059
0.956863 0.925490 0.850980
0.749020 0.831373 0.811765
0.552941 0.737255 0.764706
0.211765 0.525490 0.666667
0.003922 0.392157 0.603922
0.098039 0.443137 0.627451
0.427451 0.623529 0.709804
0.788235 0.823529 0.800000
0.992157 0.937255 0.854902
0.913725 0.905882 0.839216
0.674510 0.796078 0.796078
0.443137 0.670588 0.733333
0.125490 0.470588 0.643137
0.000000 0.388235 0.603922
0.180392 0.490196 0.647059
0.537255 0.686275 0.741176
0.874510 0.874510 0.823529
1.000000 0.941176 0.854902
0.843137 0.870588 0.831373
0.576471 0.745098 0.772549
0.929412 0.917647 0.843137
0.670588 0.788235 0.784314
0.329412 0.580392 0.690196
0.074510 0.415686 0.611765
0.058824 0.403922 0.607843
0.313725 0.556863 0.678431
0.670588 0.760784 0.772549
0.941176 0.913725 0.843137
0.956863 0.925490 0.847059
0.878431 0.901961 0.835294
0.592157 0.741176 0.764706
0.254902 0.529412 0.666667
0.043137 0.392157 0.600000
0.101961 0.431373 0.619608
0.400000 0.603922 0.701961
0.749020 0.803922 0.792157
0.972549 0.929412 0.850980
0.929412 0.909804 0.843137
0.819608 0.874510 0.823529
0.505882 0.690196 0.741176
0.184314 0.486275 0.647059
0.027451 0.384314 0.596078
0.164706 0.466667 0.639216
0.490196 0.654902 0.729412
0.823529 0.847059 0.811765
0.980392 0.933333 0.854902
0.878431 0.890196 0.835294
0.749020 0.835294 0.807843
0.423529 0.643137 0.713725
0.125490 0.447059 0.627451
0.031373 0.388235 0.600000
0.231373 0.509804 0.654902
0.580392 0.709804 0.752941
0.886275 0.882353 0.827451
0.972549 0.929412 0.850980
0.823529 0.858824 0.823529
0.674510 0.792157 0.788235
0.341176 0.588235 0.690196
0.074510 0.415686 0.611765
0.054902 0.403922 0.603922
0.313725 0.552941 0.678431
0.670588 0.756863 0.772549
0.933333 0.909804 0.843137
0.949020 0.921569 0.847059
0.760784 0.831373 0.807843
0.592157 0.745098 0.764706
0.262745 0.537255 0.666667
0.043137 0.392157 0.600000
0.098039 0.427451 0.619608
0.396078 0.603922 0.701961
0.749020 0.803922 0.796078
0.968627 0.929412 0.850980
0.909804 0.901961 0.839216
0.694118 0.796078 0.796078
0.505882 0.694118 0.741176
0.192157 0.490196 0.647059
0.031373 0.384314 0.596078
0.152941 0.462745 0.635294
0.486275 0.654902 0.725490
0.823529 0.847059 0.811765
0.980392 0.933333 0.854902
0.858824 0.878431 0.831373
0.623529 0.756863 0.780392
0.423529 0.639216 0.717647
0.133333 0.450980 0.627451
0.031373 0.384314 0.600000
0.223529 0.505882 0.650980
0.580392 0.705882 0.749020
0.886275 0.882353 0.831373
0.976471 0.933333 0.850980
0.800000 0.850980 0.819608
0.545098 0.717647 0.760784
0.317647 0.572549 0.682353
0.074510 0.411765 0.611765
0.066667 0.407843 0.607843
0.325490 0.560784 0.682353
0.690196 0.772549 0.776471
0.949020 0.913725 0.847059
0.945098 0.917647 0.847059
0.717647 0.807843 0.800000
0.454902 0.670588 0.737255
0.827451 0.862745 0.819608
0.545098 0.698039 0.741176
0.231373 0.494118 0.643137
0.058824 0.380392 0.592157
0.160784 0.450980 0.627451
0.462745 0.639216 0.717647
0.796078 0.831373 0.807843
0.960784 0.929412 0.850980
0.878431 0.886275 0.831373
0.768627 0.831373 0.803922
0.462745 0.650980 0.713725
0.172549 0.454902 0.627451
0.054902 0.380392 0.592157
0.223529 0.490196 0.647059
0.549020 0.690196 0.741176
0.858824 0.866667 0.823529
0.960784 0.925490 0.850980
0.827451 0.858824 0.823529
0.698039 0.792157 0.784314
0.384314 0.596078 0.694118
0.117647 0.419608 0.611765
0.070588 0.392157 0.600000
0.298039 0.537255 0.666667
0.639216 0.741176 0.764706
0.909804 0.894118 0.835294
0.941176 0.913725 0.843137
0.768627 0.835294 0.811765
0.623529 0.749020 0.764706
0.309804 0.549020 0.670588
0.082353 0.396078 0.596078
0.101961 0.415686 0.611765
0.376471 0.588235 0.694118
0.717647 0.788235 0.784314
0.945098 0.917647 0.847059
0.905882 0.898039 0.839216
0.705882 0.800000 0.792157
0.549020 0.698039 0.741176
0.239216 0.501961 0.647059
0.058824 0.380392 0.592157
0.152941 0.447059 0.623529
0.462745 0.639216 0.713725
0.792157 0.831373 0.807843
0.960784 0.925490 0.850980
0.862745 0.878431 0.827451
0.639216 0.764706 0.780392
0.466667 0.650980 0.717647
0.180392 0.458824 0.627451
0.054902 0.380392 0.592157
0.215686 0.486275 0.643137
0.549020 0.690196 0.741176
0.858824 0.866667 0.823529
0.960784 0.925490 0.850980
0.807843 0.850980 0.815686
0.568627 0.721569 0.760784
0.388235 0.600000 0.690196
0.125490 0.427451 0.611765
0.070588 0.392157 0.596078
0.286275 0.533333 0.666667
0.639216 0.741176 0.764706
0.909804 0.894118 0.835294
0.945098 0.917647 0.847059
0.745098 0.819608 0.803922
0.501961 0.682353 0.741176
0.313725 0.549020 0.666667
0.086275 0.396078 0.600000
0.105882 0.411765 0.607843
0.364706 0.580392 0.690196
0.717647 0.788235 0.784314
0.941176 0.913725 0.847059
0.909804 0.901961 0.839216
0.682353 0.788235 0.792157
0.435294 0.643137 0.721569
0.227451 0.490196 0.643137
0.058824 0.380392 0.592157
0.164706 0.454902 0.627451
0.470588 0.643137 0.717647
0.807843 0.839216 0.811765
0.960784 0.929412 0.850980
0.854902 0.874510 0.827451
0.596078 0.741176 0.768627
0.356863 0.592157 0.698039
0.721569 0.792157 0.784314
0.431373 0.607843 0.694118
0.164706 0.427451 0.611765
0.086275 0.384314 0.588235
0.282353 0.517647 0.658824
0.607843 0.725490 0.756863
0.878431 0.882353 0.831373
0.929412 0.909804 0.843137
0.772549 0.831373 0.807843
0.654902 0.752941 0.764706
0.360784 0.560784 0.670588
0.125490 0.396078 0.596078
0.113725 0.400000 0.600000
0.356863 0.568627 0.682353
0.690196 0.772549 0.780392
0.917647 0.905882 0.839216
0.898039 0.898039 0.839216
0.713725 0.803922 0.796078
0.584314 0.705882 0.741176
0.290196 0.513725 0.647059
0.094118 0.380392 0.584314
0.152941 0.431373 0.611765
0.435294 0.619608 0.705882
0.760784 0.815686 0.796078
0.941176 0.917647 0.847059
0.858824 0.874510 0.827451
0.650980 0.764706 0.780392
0.505882 0.654902 0.717647
0.227451 0.470588 0.627451
0.082353 0.372549 0.584314
0.207843 0.466667 0.631373
0.521569 0.670588 0.729412
0.827451 0.850980 0.815686
0.945098 0.921569 0.847059
0.807843 0.850980 0.819608
0.588235 0.725490 0.760784
0.431373 0.607843 0.694118
0.172549 0.431373 0.611765
0.086275 0.380392 0.588235
0.274510 0.513725 0.650980
0.603922 0.721569 0.752941
0.878431 0.882353 0.827451
0.933333 0.913725 0.843137
0.752941 0.823529 0.803922
0.529412 0.686275 0.741176
0.360784 0.560784 0.670588
0.129412 0.400000 0.600000
0.113725 0.400000 0.596078
0.345098 0.560784 0.678431
0.686275 0.768627 0.776471
0.917647 0.901961 0.843137
0.901961 0.898039 0.839216
0.690196 0.788235 0.792157
0.466667 0.647059 0.721569
0.290196 0.513725 0.647059
0.098039 0.380392 0.588235
0.152941 0.427451 0.611765
0.423529 0.611765 0.701961
0.760784 0.811765 0.800000
0.941176 0.917647 0.847059
0.866667 0.878431 0.831373
0.627451 0.752941 0.772549
0.407843 0.603922 0.698039
0.227451 0.470588 0.627451
0.082353 0.376471 0.584314
0.207843 0.470588 0.631373
0.509804 0.662745 0.729412
0.823529 0.850980 0.815686
0.945098 0.921569 0.847059
0.815686 0.854902 0.819608
0.568627 0.713725 0.752941
0.349020 0.568627 0.682353
0.164706 0.423529 0.607843
0.086275 0.384314 0.588235
0.286275 0.521569 0.658824
0.611765 0.729412 0.756863
0.886275 0.886275 0.831373
0.929412 0.909804 0.843137
0.745098 0.819608 0.803922
0.494118 0.662745 0.729412
0.274510 0.521569 0.662745
0.611765 0.705882 0.741176
0.329412 0.521569 0.650980
0.129412 0.376471 0.580392
0.160784 0.415686 0.603922
0.415686 0.600000 0.698039
0.737255 0.800000 0.788235
0.921569 0.909804 0.843137
0.854902 0.874510 0.827451
0.654902 0.768627 0.780392
0.537255 0.658824 0.717647
0.270588 0.478431 0.627451
0.113725 0.368627 0.576471
0.211765 0.450980 0.619608
0.498039 0.654902 0.721569
0.800000 0.839216 0.811765
0.933333 0.913725 0.847059
0.807843 0.850980 0.815686
0.600000 0.729412 0.764706
0.470588 0.615686 0.694118
0.215686 0.439216 0.611765
0.109804 0.372549 0.580392
0.266667 0.494118 0.643137
0.580392 0.705882 0.749020
0.854902 0.870588 0.823529
0.921569 0.909804 0.843137
0.752941 0.823529 0.803922
0.541176 0.690196 0.745098
0.400000 0.568627 0.670588
0.168627 0.403922 0.592157
0.129412 0.388235 0.588235
0.337255 0.541176 0.666667
0.658824 0.752941 0.768627
0.894118 0.894118 0.835294
0.898039 0.898039 0.839216
0.694118 0.792157 0.792157
0.490196 0.650980 0.721569
0.333333 0.521569 0.647059
0.133333 0.380392 0.584314
0.160784 0.411765 0.603922
0.407843 0.596078 0.694118
0.737255 0.796078 0.792157
0.921569 0.909804 0.843137
0.858824 0.874510 0.827451
0.635294 0.752941 0.776471
0.435294 0.607843 0.701961
0.270588 0.478431 0.627451
0.113725 0.368627 0.580392
0.207843 0.447059 0.619608
0.490196 0.647059 0.717647
0.800000 0.835294 0.807843
0.929412 0.913725 0.847059
0.815686 0.854902 0.819608
0.580392 0.713725 0.756863
0.384314 0.572549 0.678431
0.215686 0.439216 0.611765
0.109804 0.368627 0.580392
0.266667 0.494118 0.643137
0.568627 0.701961 0.741176
0.850980 0.866667 0.823529
0.921569 0.909804 0.843137
0.760784 0.827451 0.807843
0.525490 0.674510 0.733333
0.329412 0.533333 0.662745
0.168627 0.407843 0.596078
0.121569 0.384314 0.588235
0.333333 0.541176 0.666667
0.650980 0.745098 0.768627
0.894118 0.894118 0.835294
0.898039 0.898039 0.839216
0.701961 0.796078 0.792157
0.470588 0.635294 0.713725
0.278431 0.501961 0.643137
0.129412 0.376471 0.580392
0.164706 0.415686 0.603922
0.423529 0.607843 0.698039
0.741176 0.803922 0.792157
0.925490 0.909804 0.847059
0.850980 0.870588 0.827451
0.631373 0.749020 0.772549
0.403922 0.588235 0.686275
0.219608 0.470588 0.631373
0.505882 0.623529 0.694118
0.258824 0.447059 0.607843
0.133333 0.360784 0.572549
0.266667 0.474510 0.631373
0.552941 0.686275 0.737255
0.827451 0.854902 0.819608
0.909804 0.905882 0.843137
0.756863 0.823529 0.803922
0.560784 0.698039 0.745098
0.439216 0.576471 0.670588
0.211765 0.411765 0.592157
0.145098 0.372549 0.580392
0.321569 0.521569 0.654902
0.631373 0.733333 0.760784
0.870588 0.882353 0.831373
0.890196 0.894118 0.835294
0.701961 0.792157 0.792157
0.509804 0.654902 0.721569
0.380392 0.529412 0.647059
0.172549 0.384314 0.580392
0.168627 0.400000 0.592157
0.392157 0.576471 0.682353
0.705882 0.780392 0.780392
0.898039 0.901961 0.839216
0.854902 0.874510 0.827451
0.643137 0.760784 0.776471
0.462745 0.611765 0.698039
0.317647 0.486275 0.627451
0.149020 0.364706 0.572549
0.211765 0.431373 0.607843
0.466667 0.627451 0.705882
0.772549 0.819608 0.800000
0.909804 0.909804 0.843137
0.811765 0.854902 0.819608
0.588235 0.721569 0.756863
0.415686 0.572549 0.678431
0.258824 0.447059 0.611765
0.137255 0.360784 0.572549
0.262745 0.474510 0.631373
0.541176 0.678431 0.733333
0.827451 0.854902 0.819608
0.909804 0.905882 0.843137
0.760784 0.827451 0.807843
0.541176 0.678431 0.737255
0.368627 0.541176 0.662745
0.211765 0.411765 0.596078
0.145098 0.372549 0.576471
0.321569 0.521569 0.654902
0.623529 0.729412 0.756863
0.870588 0.882353 0.831373
0.890196 0.894118 0.839216
0.705882 0.796078 0.792157
0.490196 0.639216 0.713725
0.325490 0.505882 0.643137
0.172549 0.384314 0.580392
0.168627 0.396078 0.588235
0.388235 0.572549 0.678431
0.698039 0.776471 0.780392
0.898039 0.898039 0.839216
0.858824 0.874510 0.827451
0.650980 0.764706 0.776471
0.447059 0.596078 0.690196
0.274510 0.478431 0.631373
0.149020 0.364706 0.572549
0.203922 0.427451 0.607843
0.466667 0.627451 0.705882
0.764706 0.815686 0.800000
0.913725 0.905882 0.843137
0.815686 0.854902 0.819608
0.600000 0.725490 0.760784
0.400000 0.564706 0.670588
0.235294 0.458824 0.627451
0.137255 0.364706 0.572549
0.266667 0.478431 0.631373
0.560784 0.690196 0.741176
0.831373 0.858824 0.819608
0.905882 0.901961 0.843137
0.752941 0.819608 0.803922
0.533333 0.674510 0.733333
0.341176 0.517647 0.650980
0.188235 0.447059 0.623529
0.415686 0.541176 0.647059
0.215686 0.388235 0.576471
0.180392 0.384314 0.580392
0.380392 0.552941 0.666667
0.682353 0.764706 0.776471
0.878431 0.890196 0.835294
0.854902 0.878431 0.831373
0.650980 0.764706 0.776471
0.478431 0.619608 0.698039
0.356863 0.494118 0.627451
0.180392 0.364706 0.568627
0.215686 0.411765 0.596078
0.447059 0.607843 0.698039
0.749020 0.803922 0.796078
0.894118 0.898039 0.839216
0.811765 0.854902 0.819608
0.596078 0.725490 0.760784
0.443137 0.576471 0.678431
0.301961 0.454902 0.607843
0.164706 0.356863 0.564706
0.262745 0.450980 0.619608
0.521569 0.658824 0.721569
0.803922 0.843137 0.811765
0.898039 0.901961 0.843137
0.764706 0.827451 0.807843
0.549020 0.686275 0.737255
0.400000 0.541176 0.658824
0.254902 0.419608 0.592157
0.164706 0.360784 0.568627
0.317647 0.498039 0.643137
0.596078 0.709804 0.749020
0.847059 0.870588 0.827451
0.882353 0.894118 0.835294
0.713725 0.800000 0.796078
0.505882 0.643137 0.717647
0.360784 0.509804 0.639216
0.215686 0.388235 0.580392
0.180392 0.380392 0.576471
0.380392 0.552941 0.670588
0.670588 0.760784 0.772549
0.878431 0.890196 0.835294
0.854902 0.878431 0.831373
0.654902 0.768627 0.780392
0.466667 0.600000 0.690196
0.321569 0.478431 0.627451
0.184314 0.364706 0.568627
0.211765 0.407843 0.592157
0.447059 0.607843 0.694118
0.741176 0.803922 0.792157
0.898039 0.901961 0.839216
0.811765 0.854902 0.819608
0.603922 0.729412 0.760784
0.427451 0.564706 0.670588
0.274510 0.458824 0.619608
0.164706 0.356863 0.564706
0.254902 0.447059 0.615686
0.517647 0.658824 0.721569
0.796078 0.839216 0.807843
0.898039 0.901961 0.843137
0.764706 0.827451 0.807843
0.556863 0.690196 0.741176
0.388235 0.529412 0.650980
0.239216 0.447059 0.615686
0.164706 0.360784 0.568627
0.309804 0.494118 0.639216
0.596078 0.709804 0.749020
0.843137 0.866667 0.823529
0.882353 0.894118 0.835294
0.709804 0.800000 0.796078
0.513725 0.650980 0.717647
0.349020 0.498039 0.635294
0.211765 0.447059 0.619608
0.188235 0.384314 0.580392
0.388235 0.556863 0.670588
0.694118 0.772549 0.780392
0.882353 0.894118 0.839216
0.843137 0.870588 0.827451
0.643137 0.756863 0.776471
0.458824 0.600000 0.690196
0.294118 0.462745 0.619608
0.184314 0.447059 0.623529
0.341176 0.462745 0.607843
0.196078 0.352941 0.556863
0.266667 0.435294 0.603922
0.501961 0.639216 0.713725
0.784314 0.827451 0.803922
0.886275 0.898039 0.839216
0.760784 0.827451 0.807843
0.549020 0.690196 0.741176
0.423529 0.545098 0.654902
0.294118 0.427451 0.588235
0.192157 0.349020 0.556863
0.317647 0.478431 0.627451
0.576471 0.694118 0.737255
0.831373 0.858824 0.819608
0.874510 0.890196 0.835294
0.709804 0.800000 0.796078
0.509804 0.647059 0.717647
0.392157 0.509804 0.635294
0.250980 0.392157 0.576471
0.200000 0.364706 0.568627
0.372549 0.529412 0.654902
0.650980 0.745098 0.764706
0.862745 0.882353 0.831373
0.847059 0.878431 0.831373
0.654902 0.768627 0.780392
0.474510 0.603922 0.694118
0.356863 0.478431 0.623529
0.219608 0.364706 0.564706
0.223529 0.392157 0.580392
0.435294 0.584314 0.686275
0.721569 0.788235 0.784314
0.882353 0.894118 0.839216
0.811765 0.854902 0.819608
0.603922 0.733333 0.764706
0.447059 0.564706 0.670588
0.317647 0.454902 0.611765
0.196078 0.352941 0.556863
0.262745 0.431373 0.603922
0.505882 0.639216 0.709804
0.776471 0.827451 0.803922
0.886275 0.898039 0.839216
0.764706 0.827451 0.807843
0.556863 0.698039 0.745098
0.415686 0.529412 0.647059
0.282353 0.443137 0.607843
0.192157 0.352941 0.556863
0.309804 0.470588 0.623529
0.576471 0.694118 0.737255
0.827451 0.854902 0.819608
0.874510 0.890196 0.835294
0.713725 0.800000 0.796078
0.517647 0.654902 0.721569
0.380392 0.498039 0.631373
0.250980 0.443137 0.611765
0.196078 0.364706 0.568627
0.364706 0.521569 0.650980
0.650980 0.741176 0.764706
0.858824 0.878431 0.831373
0.847059 0.878431 0.831373
0.658824 0.768627 0.780392
0.482353 0.611765 0.698039
0.341176 0.470588 0.619608
0.227451 0.450980 0.619608
0.223529 0.392157 0.580392
0.427451 0.576471 0.678431
0.721569 0.788235 0.784314
0.882353 0.894118 0.835294
0.811765 0.854902 0.819608
0.603922 0.737255 0.764706
0.450980 0.572549 0.674510
0.305882 0.450980 0.611765
0.215686 0.458824 0.627451
0.274510 0.439216 0.603922
0.513725 0.647059 0.713725
0.788235 0.831373 0.807843
0.886275 0.898039 0.839216
0.752941 0.823529 0.803922
0.545098 0.686275 0.741176
0.411765 0.529412 0.647059
0.262745 0.447059 0.611765
0.211765 0.470588 0.631373
0.729412 0.145098 0.356863
0.886275 0.247059 0.415686
1.000000 0.603922 0.635294
1.000000 0.905882 0.827451
0.815686 0.901961 0.850980
0.364706 0.674510 0.752941
0.027451 0.431373 0.627451
0.227451 0.211765 0.462745
0.725490 0.145098 0.356863
0.768627 0.145098 0.356863
0.925490 0.325490 0.458824
1.000000 0.698039 0.690196
1.000000 0.937255 0.850980
0.713725 0.858824 0.835294
0.258824 0.607843 0.721569
0.000000 0.388235 0.603922
0.368627 0.168627 0.415686
0.807843 0.152941 0.360784
0.800000 0.149020 0.356863
0.960784 0.407843 0.509804
1.000000 0.776471 0.741176
0.976471 0.941176 0.854902
0.603922 0.803922 0.811765
0.160784 0.541176 0.690196
0.019608 0.333333 0.564706
0.521569 0.145098 0.380392
0.866667 0.223529 0.400000
0.847059 0.188235 0.376471
0.992157 0.498039 0.564706
1.000000 0.847059 0.788235
0.913725 0.933333 0.854902
0.486275 0.741176 0.784314
0.082353 0.482353 0.658824
0.094118 0.274510 0.517647
0.654902 0.145098 0.356863
0.905882 0.329412 0.466667
0.886275 0.247059 0.411765
1.000000 0.592157 0.623529
1.000000 0.901961 0.823529
0.827451 0.905882 0.850980
0.372549 0.678431 0.752941
0.023529 0.431373 0.627451
0.211765 0.219608 0.470588
0.760784 0.145098 0.356863
0.937255 0.458824 0.545098
0.925490 0.321569 0.458824
1.000000 0.682353 0.682353
1.000000 0.937255 0.850980
0.729412 0.862745 0.835294
0.262745 0.611765 0.721569
0.000000 0.388235 0.603922
0.352941 0.168627 0.423529
0.827451 0.176471 0.368627
0.956863 0.596078 0.635294
0.960784 0.407843 0.509804
1.000000 0.768627 0.737255
0.976471 0.941176 0.854902
0.619608 0.811765 0.811765
0.160784 0.545098 0.686275
0.015686 0.333333 0.564706
0.498039 0.145098 0.380392
0.882353 0.258824 0.419608
0.976471 0.729412 0.717647
0.992157 0.498039 0.564706
1.000000 0.839216 0.784314
0.913725 0.933333 0.854902
0.498039 0.752941 0.784314
0.082353 0.482353 0.654902
0.094118 0.274510 0.517647
0.639216 0.145098 0.356863
0.917647 0.376471 0.494118
0.988235 0.843137 0.792157
1.000000 0.611765 0.635294
1.000000 0.905882 0.827451
0.807843 0.901961 0.847059
0.356863 0.670588 0.749020
0.015686 0.419608 0.623529
0.239216 0.207843 0.458824
0.768627 0.145098 0.356863
0.949020 0.537255 0.600000
1.000000 0.941176 0.854902
