LUT/RedWhiteBlue.cube
TITLE "RedWhiteBlue_new"
#LUT size
LUT_3D_SIZE 5
#LUT data points
1.000000 0.941176 0.854902
0.450980 0.674510 0.733333
0.000000 0.388235 0.603922
0.525490 0.678431 0.737255
1.000000 0.941176 0.854902
0.925490 0.929412 0.850980
0.278431 0.568627 0.686275
0.050980 0.419608 0.615686
0.705882 0.776471 0.784314
0.968627 0.929412 0.850980
0.800000 0.874510 0.827451
0.133333 0.474510 0.643137
0.172549 0.482353 0.647059
0.858824 0.866667 0.819608
0.882353 0.890196 0.835294
0.639216 0.788235 0.788235
0.031373 0.411765 0.611765
0.333333 0.576471 0.686275
0.968627 0.925490 0.847059
0.749020 0.831373 0.811765
0.443137 0.670588 0.733333
0.000000 0.388235 0.603922
0.537255 0.686275 0.741176
1.000000 0.941176 0.854902
0.576471 0.745098 0.772549
0.827451 0.862745 0.819608
0.231373 0.494118 0.643137
0.160784 0.450980 0.627451
0.796078 0.831373 0.807843
0.878431 0.886275 0.831373
0.698039 0.792157 0.784314
0.117647 0.419608 0.611765
0.298039 0.537255 0.666667
0.909804 0.894118 0.835294
0.768627 0.835294 0.811765
0.549020 0.698039 0.741176
0.058824 0.380392 0.592157
0.462745 0.639216 0.713725
0.960784 0.925490 0.850980
0.639216 0.764706 0.780392
0.388235 0.600000 0.690196
0.070588 0.392157 0.596078
0.639216 0.741176 0.764706
0.945098 0.917647 0.847059
0.501961 0.682353 0.741176
0.227451 0.490196 0.643137
0.164706 0.454902 0.627451
0.807843 0.839216 0.811765
0.854902 0.874510 0.827451
0.356863 0.592157 0.698039
0.611765 0.705882 0.741176
0.129412 0.376471 0.580392
0.415686 0.600000 0.698039
0.921569 0.909804 0.843137
0.654902 0.768627 0.780392
0.470588 0.615686 0.694118
0.109804 0.372549 0.580392
0.580392 0.705882 0.749020
0.921569 0.909804 0.843137
0.541176 0.690196 0.745098
0.333333 0.521569 0.647059
0.160784 0.411765 0.603922
0.737255 0.796078 0.792157
0.858824 0.874510 0.827451
0.435294 0.607843 0.701961
0.215686 0.439216 0.611765
0.266667 0.494118 0.643137
0.850980 0.866667 0.823529
0.760784 0.827451 0.807843
0.329412 0.533333 0.662745
0.129412 0.376471 0.580392
0.423529 0.607843 0.698039
0.925490 0.909804 0.847059
0.631373 0.749020 0.772549
0.219608 0.470588 0.631373
0.415686 0.541176 0.647059
0.180392 0.384314 0.580392
0.682353 0.764706 0.776471
0.854902 0.878431 0.831373
0.478431 0.619608 0.698039
0.301961 0.454902 0.607843
0.262745 0.450980 0.619608
0.803922 0.843137 0.811765
0.764706 0.827451 0.807843
0.400000 0.541176 0.658824
0.215686 0.388235 0.580392
0.380392 0.552941 0.670588
0.878431 0.890196 0.835294
0.654902 0.768627 0.780392
0.321569 0.478431 0.627451
0.164706 0.356863 0.564706
0.517647 0.658824 0.721569
0.898039 0.901961 0.843137
0.556863 0.690196 0.741176
0.239216 0.447059 0.615686
0.188235 0.384314 0.580392
0.694118 0.772549 0.780392
0.843137 0.870588 0.827451
0.458824 0.600000 0.690196
0.184314 0.447059 0.623529
0.729412 0.145098 0.356863
1.000000 0.603922 0.635294
0.815686 0.901961 0.850980
0.027451 0.431373 0.627451
0.725490 0.145098 0.356863
0.800000 0.149020 0.356863
1.000000 0.776471 0.741176
0.603922 0.803922 0.811765
0.019608 0.333333 0.564706
0.866667 0.223529 0.400000
0.886275 0.247059 0.411765
1.000000 0.901961 0.823529
0.372549 0.678431 0.752941
0.211765 0.219608 0.470588
0.937255 0.458824 0.545098
0.960784 0.407843 0.509804
0.976471 0.941176 0.854902
0.160784 0.545098 0.686275
0.498039 0.145098 0.380392
0.976471 0.729412 0.717647
1.000000 0.611765 0.635294
0.807843 0.901961 0.847059
0.015686 0.419608 0.623529
0.768627 0.145098 0.356863
1.000000 0.941176 0.854902
