LUT/scenery01.cube
TITLE "Scenery 01"
#LUT size
LUT_3D_SIZE 5
#data domain
#LUT data points
DOMAIN_MIN 0.000000 0.000000 0.000000
DOMAIN_MAX 0.903226 0.903226 0.903226
0.000000 0.000000 0.262756
0.076599 0.000000 0.262756
0.553833 0.000000 0.262756
0.810364 0.000000 0.262756
0.963867 0.000000 0.262756
0.000000 0.294128 0.262756
0.076599 0.294128 0.262756
0.553833 0.294128 0.262756
0.810364 0.294128 0.262756
0.963867 0.294128 0.262756
0.000000 0.529724 0.262756
0.076599 0.529724 0.262756
0.553833 0.529724 0.262756
0.810364 0.529724 0.262756
0.963867 0.529724 0.262756
0.000000 0.728760 0.262756
0.076599 0.728760 0.262756
0.553833 0.728760 0.262756
0.810364 0.728760 0.262756
0.963867 0.728760 0.262756
0.000000 0.872131 0.262756
0.076599 0.872131 0.262756
0.553833 0.872131 0.262756
0.810364 0.872131 0.262756
0.963867 0.872131 0.262756
0.000000 0.000000 0.385620
0.076599 0.000000 0.385620
0.553833 0.000000 0.385620
0.810364 0.000000 0.385620
0.963867 0.000000 0.385620
0.000000 0.294128 0.385620
0.076599 0.294128 0.385620
0.553833 0.294128 0.385620
0.810364 0.294128 0.385620
0.963867 0.294128 0.385620
0.000000 0.529724 0.385620
0.076599 0.529724 0.385620
0.553833 0.529724 0.385620
0.810364 0.529724 0.385620
0.963867 0.529724 0.385620
0.000000 0.728760 0.385620
0.076599 0.728760 0.385620
0.553833 0.728760 0.385620
0.810364 0.728760 0.385620
0.963867 0.728760 0.385620
0.000000 0.872131 0.385620
0.076599 0.872131 0.385620
0.553833 0.872131 0.385620
0.810364 0.872131 0.385620
0.963867 0.872131 0.385620
0.000000 0.000000 0.514313
0.076599 0.000000 0.514313
0.553833 0.000000 0.514313
0.810364 0.000000 0.514313
0.963867 0.000000 0.514313
0.000000 0.294128 0.514313
0.076599 0.294128 0.514313
0.553833 0.294128 0.514313
0.810364 0.294128 0.514313
0.963867 0.294128 0.514313
0.000000 0.529724 0.514313
0.076599 0.529724 0.514313
0.553833 0.529724 0.514313
0.810364 0.529724 0.514313
0.963867 0.529724 0.514313
0.000000 0.728760 0.514313
0.076599 0.728760 0.514313
0.553833 0.728760 0.514313
0.810364 0.728760 0.514313
0.963867 0.728760 0.514313
0.000000 0.872131 0.514313
0.076599 0.872131 0.514313
0.553833 0.872131 0.514313
0.810364 0.872131 0.514313
0.963867 0.872131 0.514313
0.000000 0.000000 0.661591
0.076599 0.000000 0.661591
0.553833 0.000000 0.661591
0.810364 0.000000 0.661591
0.963867 0.000000 0.661591
0.000000 0.294128 0.661591
0.076599 0.294128 0.661591
0.553833 0.294128 0.661591
0.810364 0.294128 0.661591
0.963867 0.294128 0.661591
0.000000 0.529724 0.661591
0.076599 0.529724 0.661591
0.553833 0.529724 0.661591
0.810364 0.529724 0.661591
0.963867 0.529724 0.661591
0.000000 0.728760 0.661591
0.076599 0.728760 0.661591
0.553833 0.728760 0.661591
0.810364 0.728760 0.661591
0.963867 0.728760 0.661591
0.000000 0.872131 0.661591
0.076599 0.872131 0.661591
0.553833 0.872131 0.661591
0.810364 0.872131 0.661591
0.963867 0.872131 0.661591
0.000000 0.000000 0.781158
0.076599 0.000000 0.781158
0.553833 0.000000 0.781158
0.810364 0.000000 0.781158
0.963867 0.000000 0.781158
0.000000 0.294128 0.781158
0.076599 0.294128 0.781158
0.553833 0.294128 0.781158
0.810364 0.294128 0.781158
0.963867 0.294128 0.781158
0.000000 0.529724 0.781158
0.076599 0.529724 0.781158
0.553833 0.529724 0.781158
0.810364 0.529724 0.781158
0.963867 0.529724 0.781158
0.000000 0.728760 0.781158
0.076599 0.728760 0.781158
0.553833 0.728760 0.781158
0.810364 0.728760 0.781158
0.963867 0.728760 0.781158
0.000000 0.872131 0.781158
0.076599 0.872131 0.781158
0.553833 0.872131 0.781158
0.810364 0.872131 0.781158
0.963867 0.872131 0.781158
