LUT/scenery01.cube
TITLE "Scenery 01"
#LUT size
LUT_3D_SIZE 32
#data domain
DOMAIN_MIN 0.0 0.0 0.0
DOMAIN_MAX 1.0 1.0 1.0
#LUT data points
0.000000 0.000000 0.262756
0.012909 0.000000 0.262756
0.025848 0.000000 0.262756
0.038788 0.000000 0.262756
0.052856 0.000000 0.262756
0.068604 0.000000 0.262756
0.078339 0.000000 0.262756
0.076599 0.000000 0.262756
0.099701 0.000000 0.262756
0.195557 0.000000 0.262756
0.315338 0.000000 0.262756
0.400299 0.000000 0.262756
0.455505 0.000000 0.262756
0.506836 0.000000 0.262756
0.553833 0.000000 0.262756
0.593658 0.000000 0.262756
0.633362 0.000000 0.262756
0.679169 0.000000 0.262756
0.722839 0.000000 0.262756
0.756317 0.000000 0.262756
0.783508 0.000000 0.262756
0.810364 0.000000 0.262756
0.840637 0.000000 0.262756
0.871582 0.000000 0.262756
0.899536 0.000000 0.262756
0.922913 0.000000 0.262756
0.940979 0.000000 0.262756
0.953644 0.000000 0.262756
0.963867 0.000000 0.262756
0.974945 0.000000 0.262756
0.987183 0.000000 0.262756
1.000000 0.000000 0.262756
0.000000 0.000000 0.262756
0.012909 0.000000 0.262756
0.025848 0.000000 0.262756
0.038788 0.000000 0.262756
0.052856 0.000000 0.262756
0.068604 0.000000 0.262756
0.078339 0.000000 0.262756
0.076599 0.000000 0.262756
0.099701 0.000000 0.262756
0.195557 0.000000 0.262756
0.315338 0.000000 0.262756
0.400299 0.000000 0.262756
0.455505 0.000000 0.262756
0.506836 0.000000 0.262756
0.553833 0.000000 0.262756
0.593658 0.000000 0.262756
0.633362 0.000000 0.262756
0.679169 0.000000 0.262756
0.722839 0.000000 0.262756
0.756317 0.000000 0.262756
0.783508 0.000000 0.262756
0.810364 0.000000 0.262756
0.840637 0.000000 0.262756
0.871582 0.000000 0.262756
0.899536 0.000000 0.262756
0.922913 0.000000 0.262756
0.940979 0.000000 0.262756
0.953644 0.000000 0.262756
0.963867 0.000000 0.262756
0.974945 0.000000 0.262756
0.987183 0.000000 0.262756
1.000000 0.000000 0.262756
0.000000 0.007080 0.262756
0.012909 0.007080 0.262756
0.025848 0.007080 0.262756
0.038788 0.007080 0.262756
0.052856 0.007080 0.262756
0.068604 0.007080 0.262756
0.078339 0.007080 0.262756
0.076599 0.007080 0.262756
0.099701 0.007080 0.262756
0.195557 0.007080 0.262756
0.315338 0.007080 0.262756
0.400299 0.007080 0.262756
0.455505 0.007080 0.262756
0.506836 0.007080 0.262756
0.553833 0.007080 0.262756
0.593658 0.007080 0.262756
0.633362 0.007080 0.262756
0.679169 0.007080 0.262756
0.722839 0.007080 0.262756
0.756317 0.007080 0.262756
0.783508 0.007080 0.262756
0.810364 0.007080 0.262756
0.840637 0.007080 0.262756
0.871582 0.007080 0.262756
0.899536 0.007080 0.262756
0.922913 0.007080 0.262756
0.940979 0.007080 0.262756
0.953644 0.007080 0.262756
0.963867 0.007080 0.262756
0.974945 0.007080 0.262756
0.987183 0.007080 0.262756
1.000000 0.007080 0.262756
0.000000 0.042664 0.262756
0.012909 0.042664 0.262756
0.025848 0.042664 0.262756
0.038788 0.042664 0.262756
0.052856 0.042664 0.262756
0.068604 0.042664 0.262756
0.078339 0.042664 0.262756
0.076599 0.042664 0.262756
0.099701 0.042664 0.262756
0.195557 0.042664 0.262756
0.315338 0.042664 0.262756
0.400299 0.042664 0.262756
0.455505 0.042664 0.262756
0.506836 0.042664 0.262756
0.553833 0.042664 0.262756
0.593658 0.042664 0.262756
0.633362 0.042664 0.262756
0.679169 0.042664 0.262756
0.722839 0.042664 0.262756
0.756317 0.042664 0.262756
0.783508 0.042664 0.262756
0.810364 0.042664 0.262756
0.840637 0.042664 0.262756
0.871582 0.042664 0.262756
0.899536 0.042664 0.262756
0.922913 0.042664 0.262756
0.940979 0.042664 0.262756
0.953644 0.042664 0.262756
0.963867 0.042664 0.262756
0.974945 0.042664 0.262756
0.987183 0.042664 0.262756
1.000000 0.042664 0.262756
0.000000 0.105316 0.262756
0.012909 0.105316 0.262756
0.025848 0.105316 0.262756
0.038788 0.105316 0.262756
0.052856 0.105316 0.262756
0.068604 0.105316 0.262756
0.078339 0.105316 0.262756
0.076599 0.105316 0.262756
0.099701 0.105316 0.262756
0.195557 0.105316 0.262756
0.315338 0.105316 0.262756
0.400299 0.105316 0.262756
0.455505 0.105316 0.262756
0.506836 0.105316 0.262756
0.553833 0.105316 0.262756
0.593658 0.105316 0.262756
0.633362 0.105316 0.262756
0.679169 0.105316 0.262756
0.722839 0.105316 0.262756
0.756317 0.105316 0.262756
0.783508 0.105316 0.262756
0.810364 0.105316 0.262756
0.840637 0.105316 0.262756
0.871582 0.105316 0.262756
0.899536 0.105316 0.262756
0.922913 0.105316 0.262756
0.940979 0.105316 0.262756
0.953644 0.105316 0.262756
0.963867 0.105316 0.262756
0.974945 0.105316 0.262756
0.987183 0.105316 0.262756
1.000000 0.105316 0.262756
0.000000 0.179108 0.262756
0.012909 0.179108 0.262756
0.025848 0.179108 0.262756
0.038788 0.179108 0.262756
0.052856 0.179108 0.262756
0.068604 0.179108 0.262756
0.078339 0.179108 0.262756
0.076599 0.179108 0.262756
0.099701 0.179108 0.262756
0.195557 0.179108 0.262756
0.315338 0.179108 0.262756
0.400299 0.179108 0.262756
0.455505 0.179108 0.262756
0.506836 0.179108 0.262756
0.553833 0.179108 0.262756
0.593658 0.179108 0.262756
0.633362 0.179108 0.262756
0.679169 0.179108 0.262756
0.722839 0.179108 0.262756
0.756317 0.179108 0.262756
0.783508 0.179108 0.262756
0.810364 0.179108 0.262756
0.840637 0.179108 0.262756
0.871582 0.179108 0.262756
0.899536 0.179108 0.262756
0.922913 0.179108 0.262756
0.940979 0.179108 0.262756
0.953644 0.179108 0.262756
0.963867 0.179108 0.262756
0.974945 0.179108 0.262756
0.987183 0.179108 0.262756
1.000000 0.179108 0.262756
0.000000 0.246521 0.262756
0.012909 0.246521 0.262756
0.025848 0.246521 0.262756
0.038788 0.246521 0.262756
0.052856 0.246521 0.262756
0.068604 0.246521 0.262756
0.078339 0.246521 0.262756
0.076599 0.246521 0.262756
0.099701 0.246521 0.262756
0.195557 0.246521 0.262756
0.315338 0.246521 0.262756
0.400299 0.246521 0.262756
0.455505 0.246521 0.262756
0.506836 0.246521 0.262756
0.553833 0.246521 0.262756
0.593658 0.246521 0.262756
0.633362 0.246521 0.262756
0.679169 0.246521 0.262756
0.722839 0.246521 0.262756
0.756317 0.246521 0.262756
0.783508 0.246521 0.262756
0.810364 0.246521 0.262756
0.840637 0.246521 0.262756
0.871582 0.246521 0.262756
0.899536 0.246521 0.262756
0.922913 0.246521 0.262756
0.940979 0.246521 0.262756
0.953644 0.246521 0.262756
0.963867 0.246521 0.262756
0.974945 0.246521 0.262756
0.987183 0.246521 0.262756
1.000000 0.246521 0.262756
0.000000 0.294128 0.262756
0.012909 0.294128 0.262756
0.025848 0.294128 0.262756
0.038788 0.294128 0.262756
0.052856 0.294128 0.262756
0.068604 0.294128 0.262756
0.078339 0.294128 0.262756
0.076599 0.294128 0.262756
0.099701 0.294128 0.262756
0.195557 0.294128 0.262756
0.315338 0.294128 0.262756
0.400299 0.294128 0.262756
0.455505 0.294128 0.262756
0.506836 0.294128 0.262756
0.553833 0.294128 0.262756
0.593658 0.294128 0.262756
0.633362 0.294128 0.262756
0.679169 0.294128 0.262756
0.722839 0.294128 0.262756
0.756317 0.294128 0.262756
0.783508 0.294128 0.262756
0.810364 0.294128 0.262756
0.840637 0.294128 0.262756
0.871582 0.294128 0.262756
0.899536 0.294128 0.262756
0.922913 0.294128 0.262756
0.940979 0.294128 0.262756
0.953644 0.294128 0.262756
0.963867 0.294128 0.262756
0.974945 0.294128 0.262756
0.987183 0.294128 0.262756
1.000000 0.294128 0.262756
0.000000 0.328827 0.262756
0.012909 0.328827 0.262756
0.025848 0.328827 0.262756
0.038788 0.328827 0.262756
0.052856 0.328827 0.262756
0.068604 0.328827 0.262756
0.078339 0.328827 0.262756
0.076599 0.328827 0.262756
0.099701 0.328827 0.262756
0.195557 0.328827 0.262756
0.315338 0.328827 0.262756
0.400299 0.328827 0.262756
0.455505 0.328827 0.262756
0.506836 0.328827 0.262756
0.553833 0.328827 0.262756
0.593658 0.328827 0.262756
0.633362 0.328827 0.262756
0.679169 0.328827 0.262756
0.722839 0.328827 0.262756
0.756317 0.328827 0.262756
0.783508 0.328827 0.262756
0.810364 0.328827 0.262756
0.840637 0.328827 0.262756
0.871582 0.328827 0.262756
0.899536 0.328827 0.262756
0.922913 0.328827 0.262756
0.940979 0.328827 0.262756
0.953644 0.328827 0.262756
0.963867 0.328827 0.262756
0.974945 0.328827 0.262756
0.987183 0.328827 0.262756
1.000000 0.328827 0.262756
0.000000 0.360260 0.262756
0.012909 0.360260 0.262756
0.025848 0.360260 0.262756
0.038788 0.360260 0.262756
0.052856 0.360260 0.262756
0.068604 0.360260 0.262756
0.078339 0.360260 0.262756
0.076599 0.360260 0.262756
0.099701 0.360260 0.262756
0.195557 0.360260 0.262756
0.315338 0.360260 0.262756
0.400299 0.360260 0.262756
0.455505 0.360260 0.262756
0.506836 0.360260 0.262756
0.553833 0.360260 0.262756
0.593658 0.360260 0.262756
0.633362 0.360260 0.262756
0.679169 0.360260 0.262756
0.722839 0.360260 0.262756
0.756317 0.360260 0.262756
0.783508 0.360260 0.262756
0.810364 0.360260 0.262756
0.840637 0.360260 0.262756
0.871582 0.360260 0.262756
0.899536 0.360260 0.262756
0.922913 0.360260 0.262756
0.940979 0.360260 0.262756
0.953644 0.360260 0.262756
0.963867 0.360260 0.262756
0.974945 0.360260 0.262756
0.987183 0.360260 0.262756
1.000000 0.360260 0.262756
0.000000 0.392090 0.262756
0.012909 0.392090 0.262756
0.025848 0.392090 0.262756
0.038788 0.392090 0.262756
0.052856 0.392090 0.262756
0.068604 0.392090 0.262756
0.078339 0.392090 0.262756
0.076599 0.392090 0.262756
0.099701 0.392090 0.262756
0.195557 0.392090 0.262756
0.315338 0.392090 0.262756
0.400299 0.392090 0.262756
0.455505 0.392090 0.262756
0.506836 0.392090 0.262756
0.553833 0.392090 0.262756
0.593658 0.392090 0.262756
0.633362 0.392090 0.262756
0.679169 0.392090 0.262756
0.722839 0.392090 0.262756
0.756317 0.392090 0.262756
0.783508 0.392090 0.262756
0.810364 0.392090 0.262756
0.840637 0.392090 0.262756
0.871582 0.392090 0.262756
0.899536 0.392090 0.262756
0.922913 0.392090 0.262756
0.940979 0.392090 0.262756
0.953644 0.392090 0.262756
0.963867 0.392090 0.262756
0.974945 0.392090 0.262756
0.987183 0.392090 0.262756
1.000000 0.392090 0.262756
0.000000 0.427429 0.262756
0.012909 0.427429 0.262756
0.025848 0.427429 0.262756
0.038788 0.427429 0.262756
0.052856 0.427429 0.262756
0.068604 0.427429 0.262756
0.078339 0.427429 0.262756
0.076599 0.427429 0.262756
0.099701 0.427429 0.262756
0.195557 0.427429 0.262756
0.315338 0.427429 0.262756
0.400299 0.427429 0.262756
0.455505 0.427429 0.262756
0.506836 0.427429 0.262756
0.553833 0.427429 0.262756
0.593658 0.427429 0.262756
0.633362 0.427429 0.262756
0.679169 0.427429 0.262756
0.722839 0.427429 0.262756
0.756317 0.427429 0.262756
0.783508 0.427429 0.262756
0.810364 0.427429 0.262756
0.840637 0.427429 0.262756
0.871582 0.427429 0.262756
0.899536 0.427429 0.262756
0.922913 0.427429 0.262756
0.940979 0.427429 0.262756
0.953644 0.427429 0.262756
0.963867 0.427429 0.262756
0.974945 0.427429 0.262756
0.987183 0.427429 0.262756
1.000000 0.427429 0.262756
0.000000 0.464996 0.262756
0.012909 0.464996 0.262756
0.025848 0.464996 0.262756
0.038788 0.464996 0.262756
0.052856 0.464996 0.262756
0.068604 0.464996 0.262756
0.078339 0.464996 0.262756
0.076599 0.464996 0.262756
0.099701 0.464996 0.262756
0.195557 0.464996 0.262756
0.315338 0.464996 0.262756
0.400299 0.464996 0.262756
0.455505 0.464996 0.262756
0.506836 0.464996 0.262756
0.553833 0.464996 0.262756
0.593658 0.464996 0.262756
0.633362 0.464996 0.262756
0.679169 0.464996 0.262756
0.722839 0.464996 0.262756
0.756317 0.464996 0.262756
0.783508 0.464996 0.262756
0.810364 0.464996 0.262756
0.840637 0.464996 0.262756
0.871582 0.464996 0.262756
0.899536 0.464996 0.262756
0.922913 0.464996 0.262756
0.940979 0.464996 0.262756
0.953644 0.464996 0.262756
0.963867 0.464996 0.262756
0.974945 0.464996 0.262756
0.987183 0.464996 0.262756
1.000000 0.464996 0.262756
0.000000 0.499054 0.262756
0.012909 0.499054 0.262756
0.025848 0.499054 0.262756
0.038788 0.499054 0.262756
0.052856 0.499054 0.262756
0.068604 0.499054 0.262756
0.078339 0.499054 0.262756
0.076599 0.499054 0.262756
0.099701 0.499054 0.262756
0.195557 0.499054 0.262756
0.315338 0.499054 0.262756
0.400299 0.499054 0.262756
0.455505 0.499054 0.262756
0.506836 0.499054 0.262756
0.553833 0.499054 0.262756
0.593658 0.499054 0.262756
0.633362 0.499054 0.262756
0.679169 0.499054 0.262756
0.722839 0.499054 0.262756
0.756317 0.499054 0.262756
0.783508 0.499054 0.262756
0.810364 0.499054 0.262756
0.840637 0.499054 0.262756
0.871582 0.499054 0.262756
0.899536 0.499054 0.262756
0.922913 0.499054 0.262756
0.940979 0.499054 0.262756
0.953644 0.499054 0.262756
0.963867 0.499054 0.262756
0.974945 0.499054 0.262756
0.987183 0.499054 0.262756
1.000000 0.499054 0.262756
0.000000 0.529724 0.262756
0.012909 0.529724 0.262756
0.025848 0.529724 0.262756
0.038788 0.529724 0.262756
0.052856 0.529724 0.262756
0.068604 0.529724 0.262756
0.078339 0.529724 0.262756
0.076599 0.529724 0.262756
0.099701 0.529724 0.262756
0.195557 0.529724 0.262756
0.315338 0.529724 0.262756
0.400299 0.529724 0.262756
0.455505 0.529724 0.262756
0.506836 0.529724 0.262756
0.553833 0.529724 0.262756
0.593658 0.529724 0.262756
0.633362 0.529724 0.262756
0.679169 0.529724 0.262756
0.722839 0.529724 0.262756
0.756317 0.529724 0.262756
0.783508 0.529724 0.262756
0.810364 0.529724 0.262756
0.840637 0.529724 0.262756
0.871582 0.529724 0.262756
0.899536 0.529724 0.262756
0.922913 0.529724 0.262756
0.940979 0.529724 0.262756
0.953644 0.529724 0.262756
0.963867 0.529724 0.262756
0.974945 0.529724 0.262756
0.987183 0.529724 0.262756
1.000000 0.529724 0.262756
0.000000 0.559387 0.262756
0.012909 0.559387 0.262756
0.025848 0.559387 0.262756
0.038788 0.559387 0.262756
0.052856 0.559387 0.262756
0.068604 0.559387 0.262756
0.078339 0.559387 0.262756
0.076599 0.559387 0.262756
0.099701 0.559387 0.262756
0.195557 0.559387 0.262756
0.315338 0.559387 0.262756
0.400299 0.559387 0.262756
0.455505 0.559387 0.262756
0.506836 0.559387 0.262756
0.553833 0.559387 0.262756
0.593658 0.559387 0.262756
0.633362 0.559387 0.262756
0.679169 0.559387 0.262756
0.722839 0.559387 0.262756
0.756317 0.559387 0.262756
0.783508 0.559387 0.262756
0.810364 0.559387 0.262756
0.840637 0.559387 0.262756
0.871582 0.559387 0.262756
0.899536 0.559387 0.262756
0.922913 0.559387 0.262756
0.940979 0.559387 0.262756
0.953644 0.559387 0.262756
0.963867 0.559387 0.262756
0.974945 0.559387 0.262756
0.987183 0.559387 0.262756
1.000000 0.559387 0.262756
0.000000 0.590607 0.262756
0.012909 0.590607 0.262756
0.025848 0.590607 0.262756
0.038788 0.590607 0.262756
0.052856 0.590607 0.262756
0.068604 0.590607 0.262756
0.078339 0.590607 0.262756
0.076599 0.590607 0.262756
0.099701 0.590607 0.262756
0.195557 0.590607 0.262756
0.315338 0.590607 0.262756
0.400299 0.590607 0.262756
0.455505 0.590607 0.262756
0.506836 0.590607 0.262756
0.553833 0.590607 0.262756
0.593658 0.590607 0.262756
0.633362 0.590607 0.262756
0.679169 0.590607 0.262756
0.722839 0.590607 0.262756
0.756317 0.590607 0.262756
0.783508 0.590607 0.262756
0.810364 0.590607 0.262756
0.840637 0.590607 0.262756
0.871582 0.590607 0.262756
0.899536 0.590607 0.262756
0.922913 0.590607 0.262756
0.940979 0.590607 0.262756
0.953644 0.590607 0.262756
0.963867 0.590607 0.262756
0.974945 0.590607 0.262756
0.987183 0.590607 0.262756
1.000000 0.590607 0.262756
0.000000 0.624695 0.262756
0.012909 0.624695 0.262756
0.025848 0.624695 0.262756
0.038788 0.624695 0.262756
0.052856 0.624695 0.262756
0.068604 0.624695 0.262756
0.078339 0.624695 0.262756
0.076599 0.624695 0.262756
0.099701 0.624695 0.262756
0.195557 0.624695 0.262756
0.315338 0.624695 0.262756
0.400299 0.624695 0.262756
0.455505 0.624695 0.262756
0.506836 0.624695 0.262756
0.553833 0.624695 0.262756
0.593658 0.624695 0.262756
0.633362 0.624695 0.262756
0.679169 0.624695 0.262756
0.722839 0.624695 0.262756
0.756317 0.624695 0.262756
0.783508 0.624695 0.262756
0.810364 0.624695 0.262756
0.840637 0.624695 0.262756
0.871582 0.624695 0.262756
0.899536 0.624695 0.262756
0.922913 0.624695 0.262756
0.940979 0.624695 0.262756
0.953644 0.624695 0.262756
0.963867 0.624695 0.262756
0.974945 0.624695 0.262756
0.987183 0.624695 0.262756
1.000000 0.624695 0.262756
0.000000 0.656525 0.262756
0.012909 0.656525 0.262756
0.025848 0.656525 0.262756
0.038788 0.656525 0.262756
0.052856 0.656525 0.262756
0.068604 0.656525 0.262756
0.078339 0.656525 0.262756
0.076599 0.656525 0.262756
0.099701 0.656525 0.262756
0.195557 0.656525 0.262756
0.315338 0.656525 0.262756
0.400299 0.656525 0.262756
0.455505 0.656525 0.262756
0.506836 0.656525 0.262756
0.553833 0.656525 0.262756
0.593658 0.656525 0.262756
0.633362 0.656525 0.262756
0.679169 0.656525 0.262756
0.722839 0.656525 0.262756
0.756317 0.656525 0.262756
0.783508 0.656525 0.262756
0.810364 0.656525 0.262756
0.840637 0.656525 0.262756
0.871582 0.656525 0.262756
0.899536 0.656525 0.262756
0.922913 0.656525 0.262756
0.940979 0.656525 0.262756
0.953644 0.656525 0.262756
0.963867 0.656525 0.262756
0.974945 0.656525 0.262756
0.987183 0.656525 0.262756
1.000000 0.656525 0.262756
0.000000 0.679749 0.262756
0.012909 0.679749 0.262756
0.025848 0.679749 0.262756
0.038788 0.679749 0.262756
0.052856 0.679749 0.262756
0.068604 0.679749 0.262756
0.078339 0.679749 0.262756
0.076599 0.679749 0.262756
0.099701 0.679749 0.262756
0.195557 0.679749 0.262756
0.315338 0.679749 0.262756
0.400299 0.679749 0.262756
0.455505 0.679749 0.262756
0.506836 0.679749 0.262756
0.553833 0.679749 0.262756
0.593658 0.679749 0.262756
0.633362 0.679749 0.262756
0.679169 0.679749 0.262756
0.722839 0.679749 0.262756
0.756317 0.679749 0.262756
0.783508 0.679749 0.262756
0.810364 0.679749 0.262756
0.840637 0.679749 0.262756
0.871582 0.679749 0.262756
0.899536 0.679749 0.262756
0.922913 0.679749 0.262756
0.940979 0.679749 0.262756
0.953644 0.679749 0.262756
0.963867 0.679749 0.262756
0.974945 0.679749 0.262756
0.987183 0.679749 0.262756
1.000000 0.679749 0.262756
0.000000 0.699982 0.262756
0.012909 0.699982 0.262756
0.025848 0.699982 0.262756
0.038788 0.699982 0.262756
0.052856 0.699982 0.262756
0.068604 0.699982 0.262756
0.078339 0.699982 0.262756
0.076599 0.699982 0.262756
0.099701 0.699982 0.262756
0.195557 0.699982 0.262756
0.315338 0.699982 0.262756
0.400299 0.699982 0.262756
0.455505 0.699982 0.262756
0.506836 0.699982 0.262756
0.553833 0.699982 0.262756
0.593658 0.699982 0.262756
0.633362 0.699982 0.262756
0.679169 0.699982 0.262756
0.722839 0.699982 0.262756
0.756317 0.699982 0.262756
0.783508 0.699982 0.262756
0.810364 0.699982 0.262756
0.840637 0.699982 0.262756
0.871582 0.699982 0.262756
0.899536 0.699982 0.262756
0.922913 0.699982 0.262756
0.940979 0.699982 0.262756
0.953644 0.699982 0.262756
0.963867 0.699982 0.262756
0.974945 0.699982 0.262756
0.987183 0.699982 0.262756
1.000000 0.699982 0.262756
0.000000 0.728760 0.262756
0.012909 0.728760 0.262756
0.025848 0.728760 0.262756
0.038788 0.728760 0.262756
0.052856 0.728760 0.262756
0.068604 0.728760 0.262756
0.078339 0.728760 0.262756
0.076599 0.728760 0.262756
0.099701 0.728760 0.262756
0.195557 0.728760 0.262756
0.315338 0.728760 0.262756
0.400299 0.728760 0.262756
0.455505 0.728760 0.262756
0.506836 0.728760 0.262756
0.553833 0.728760 0.262756
0.593658 0.728760 0.262756
0.633362 0.728760 0.262756
0.679169 0.728760 0.262756
0.722839 0.728760 0.262756
0.756317 0.728760 0.262756
0.783508 0.728760 0.262756
0.810364 0.728760 0.262756
0.840637 0.728760 0.262756
0.871582 0.728760 0.262756
0.899536 0.728760 0.262756
0.922913 0.728760 0.262756
0.940979 0.728760 0.262756
0.953644 0.728760 0.262756
0.963867 0.728760 0.262756
0.974945 0.728760 0.262756
0.987183 0.728760 0.262756
1.000000 0.728760 0.262756
0.000000 0.767670 0.262756
0.012909 0.767670 0.262756
0.025848 0.767670 0.262756
0.038788 0.767670 0.262756
0.052856 0.767670 0.262756
0.068604 0.767670 0.262756
0.078339 0.767670 0.262756
0.076599 0.767670 0.262756
0.099701 0.767670 0.262756
0.195557 0.767670 0.262756
0.315338 0.767670 0.262756
0.400299 0.767670 0.262756
0.455505 0.767670 0.262756
0.506836 0.767670 0.262756
0.553833 0.767670 0.262756
0.593658 0.767670 0.262756
0.633362 0.767670 0.262756
0.679169 0.767670 0.262756
0.722839 0.767670 0.262756
0.756317 0.767670 0.262756
0.783508 0.767670 0.262756
0.810364 0.767670 0.262756
0.840637 0.767670 0.262756
0.871582 0.767670 0.262756
0.899536 0.767670 0.262756
0.922913 0.767670 0.262756
0.940979 0.767670 0.262756
0.953644 0.767670 0.262756
0.963867 0.767670 0.262756
0.974945 0.767670 0.262756
0.987183 0.767670 0.262756
1.000000 0.767670 0.262756
0.000000 0.803131 0.262756
0.012909 0.803131 0.262756
0.025848 0.803131 0.262756
0.038788 0.803131 0.262756
0.052856 0.803131 0.262756
0.068604 0.803131 0.262756
0.078339 0.803131 0.262756
0.076599 0.803131 0.262756
0.099701 0.803131 0.262756
0.195557 0.803131 0.262756
0.315338 0.803131 0.262756
0.400299 0.803131 0.262756
0.455505 0.803131 0.262756
0.506836 0.803131 0.262756
0.553833 0.803131 0.262756
0.593658 0.803131 0.262756
0.633362 0.803131 0.262756
0.679169 0.803131 0.262756
0.722839 0.803131 0.262756
0.756317 0.803131 0.262756
0.783508 0.803131 0.262756
0.810364 0.803131 0.262756
0.840637 0.803131 0.262756
0.871582 0.803131 0.262756
0.899536 0.803131 0.262756
0.922913 0.803131 0.262756
0.940979 0.803131 0.262756
0.953644 0.803131 0.262756
0.963867 0.803131 0.262756
0.974945 0.803131 0.262756
0.987183 0.803131 0.262756
1.000000 0.803131 0.262756
0.000000 0.821686 0.262756
0.012909 0.821686 0.262756
0.025848 0.821686 0.262756
0.038788 0.821686 0.262756
0.052856 0.821686 0.262756
0.068604 0.821686 0.262756
0.078339 0.821686 0.262756
0.076599 0.821686 0.262756
0.099701 0.821686 0.262756
0.195557 0.821686 0.262756
0.315338 0.821686 0.262756
0.400299 0.821686 0.262756
0.455505 0.821686 0.262756
0.506836 0.821686 0.262756
0.553833 0.821686 0.262756
0.593658 0.821686 0.262756
0.633362 0.821686 0.262756
0.679169 0.821686 0.262756
0.722839 0.821686 0.262756
0.756317 0.821686 0.262756
0.783508 0.821686 0.262756
0.810364 0.821686 0.262756
0.840637 0.821686 0.262756
0.871582 0.821686 0.262756
0.899536 0.821686 0.262756
0.922913 0.821686 0.262756
0.940979 0.821686 0.262756
0.953644 0.821686 0.262756
0.963867 0.821686 0.262756
0.974945 0.821686 0.262756
0.987183 0.821686 0.262756
1.000000 0.821686 0.262756
0.000000 0.827759 0.262756
0.012909 0.827759 0.262756
0.025848 0.827759 0.262756
0.038788 0.827759 0.262756
0.052856 0.827759 0.262756
0.068604 0.827759 0.262756
0.078339 0.827759 0.262756
0.076599 0.827759 0.262756
0.099701 0.827759 0.262756
0.195557 0.827759 0.262756
0.315338 0.827759 0.262756
0.400299 0.827759 0.262756
0.455505 0.827759 0.262756
0.506836 0.827759 0.262756
0.553833 0.827759 0.262756
0.593658 0.827759 0.262756
0.633362 0.827759 0.262756
0.679169 0.827759 0.262756
0.722839 0.827759 0.262756
0.756317 0.827759 0.262756
0.783508 0.827759 0.262756
0.810364 0.827759 0.262756
0.840637 0.827759 0.262756
0.871582 0.827759 0.262756
0.899536 0.827759 0.262756
0.922913 0.827759 0.262756
0.940979 0.827759 0.262756
0.953644 0.827759 0.262756
0.963867 0.827759 0.262756
0.974945 0.827759 0.262756
0.987183 0.827759 0.262756
1.000000 0.827759 0.262756
0.000000 0.836975 0.262756
0.012909 0.836975 0.262756
0.025848 0.836975 0.262756
0.038788 0.836975 0.262756
0.052856 0.836975 0.262756
0.068604 0.836975 0.262756
0.078339 0.836975 0.262756
0.076599 0.836975 0.262756
0.099701 0.836975 0.262756
0.195557 0.836975 0.262756
0.315338 0.836975 0.262756
0.400299 0.836975 0.262756
0.455505 0.836975 0.262756
0.506836 0.836975 0.262756
0.553833 0.836975 0.262756
0.593658 0.836975 0.262756
0.633362 0.836975 0.262756
0.679169 0.836975 0.262756
0.722839 0.836975 0.262756
0.756317 0.836975 0.262756
0.783508 0.836975 0.262756
0.810364 0.836975 0.262756
0.840637 0.836975 0.262756
0.871582 0.836975 0.262756
0.899536 0.836975 0.262756
0.922913 0.836975 0.262756
0.940979 0.836975 0.262756
0.953644 0.836975 0.262756
0.963867 0.836975 0.262756
0.974945 0.836975 0.262756
0.987183 0.836975 0.262756
1.000000 0.836975 0.262756
0.000000 0.854156 0.262756
0.012909 0.854156 0.262756
0.025848 0.854156 0.262756
0.038788 0.854156 0.262756
0.052856 0.854156 0.262756
0.068604 0.854156 0.262756
0.078339 0.854156 0.262756
0.076599 0.854156 0.262756
0.099701 0.854156 0.262756
0.195557 0.854156 0.262756
0.315338 0.854156 0.262756
0.400299 0.854156 0.262756
0.455505 0.854156 0.262756
0.506836 0.854156 0.262756
0.553833 0.854156 0.262756
0.593658 0.854156 0.262756
0.633362 0.854156 0.262756
0.679169 0.854156 0.262756
0.722839 0.854156 0.262756
0.756317 0.854156 0.262756
