LUT/scenery01.cube
TITLE "Scenery 01"
#LUT size
LUT_3D_SIZE 8
#data domain
#LUT data points
DOMAIN_MIN 0.000000 0.000000 0.000000
DOMAIN_MAX 0.903226 0.903226 0.903226
0.000000 0.000000 0.262756
0.052856 0.000000 0.262756
0.099701 0.000000 0.262756
0.455505 0.000000 0.262756
0.633362 0.000000 0.262756
0.783508 0.000000 0.262756
0.899536 0.000000 0.262756
0.963867 0.000000 0.262756
0.000000 0.105316 0.262756
0.052856 0.105316 0.262756
0.099701 0.105316 0.262756
0.455505 0.105316 0.262756
0.633362 0.105316 0.262756
0.783508 0.105316 0.262756
0.899536 0.105316 0.262756
0.963867 0.105316 0.262756
0.000000 0.328827 0.262756
0.052856 0.328827 0.262756
0.099701 0.328827 0.262756
0.455505 0.328827 0.262756
0.633362 0.328827 0.262756
0.783508 0.328827 0.262756
0.899536 0.328827 0.262756
0.963867 0.328827 0.262756
0.000000 0.464996 0.262756
0.052856 0.464996 0.262756
0.099701 0.464996 0.262756
0.455505 0.464996 0.262756
0.633362 0.464996 0.262756
0.783508 0.464996 0.262756
0.899536 0.464996 0.262756
0.963867 0.464996 0.262756
0.000000 0.590607 0.262756
0.052856 0.590607 0.262756
0.099701 0.590607 0.262756
0.455505 0.590607 0.262756
0.633362 0.590607 0.262756
0.783508 0.590607 0.262756
0.899536 0.590607 0.262756
0.963867 0.590607 0.262756
0.000000 0.699982 0.262756
0.052856 0.699982 0.262756
0.099701 0.699982 0.262756
0.455505 0.699982 0.262756
0.633362 0.699982 0.262756
0.783508 0.699982 0.262756
0.899536 0.699982 0.262756
0.963867 0.699982 0.262756
0.000000 0.821686 0.262756
0.052856 0.821686 0.262756
0.099701 0.821686 0.262756
0.455505 0.821686 0.262756
0.633362 0.821686 0.262756
0.783508 0.821686 0.262756
0.899536 0.821686 0.262756
0.963867 0.821686 0.262756
0.000000 0.872131 0.262756
0.052856 0.872131 0.262756
0.099701 0.872131 0.262756
0.455505 0.872131 0.262756
0.633362 0.872131 0.262756
0.783508 0.872131 0.262756
0.899536 0.872131 0.262756
0.963867 0.872131 0.262756
0.000000 0.000000 0.324066
0.052856 0.000000 0.324066
0.099701 0.000000 0.324066
0.455505 0.000000 0.324066
0.633362 0.000000 0.324066
0.783508 0.000000 0.324066
0.899536 0.000000 0.324066
0.963867 0.000000 0.324066
0.000000 0.105316 0.324066
0.052856 0.105316 0.324066
0.099701 0.105316 0.324066
0.455505 0.105316 0.324066
0.633362 0.105316 0.324066
0.783508 0.105316 0.324066
0.899536 0.105316 0.324066
0.963867 0.105316 0.324066
0.000000 0.328827 0.324066
0.052856 0.328827 0.324066
0.099701 0.328827 0.324066
0.455505 0.328827 0.324066
0.633362 0.328827 0.324066
0.783508 0.328827 0.324066
0.899536 0.328827 0.324066
0.963867 0.328827 0.324066
0.000000 0.464996 0.324066
0.052856 0.464996 0.324066
0.099701 0.464996 0.324066
0.455505 0.464996 0.324066
0.633362 0.464996 0.324066
0.783508 0.464996 0.324066
0.899536 0.464996 0.324066
0.963867 0.464996 0.324066
0.000000 0.590607 0.324066
0.052856 0.590607 0.324066
0.099701 0.590607 0.324066
0.455505 0.590607 0.324066
0.633362 0.590607 0.324066
0.783508 0.590607 0.324066
0.899536 0.590607 0.324066
0.963867 0.590607 0.324066
0.000000 0.699982 0.324066
0.052856 0.699982 0.324066
0.099701 0.699982 0.324066
0.455505 0.699982 0.324066
0.633362 0.699982 0.324066
0.783508 0.699982 0.324066
0.899536 0.699982 0.324066
0.963867 0.699982 0.324066
0.000000 0.821686 0.324066
0.052856 0.821686 0.324066
0.099701 0.821686 0.324066
0.455505 0.821686 0.324066
0.633362 0.821686 0.324066
0.783508 0.821686 0.324066
0.899536 0.821686 0.324066
0.963867 0.821686 0.324066
0.000000 0.872131 0.324066
0.052856 0.872131 0.324066
0.099701 0.872131 0.324066
0.455505 0.872131 0.324066
0.633362 0.872131 0.324066
0.783508 0.872131 0.324066
0.899536 0.872131 0.324066
0.963867 0.872131 0.324066
0.000000 0.000000 0.404846
0.052856 0.000000 0.404846
0.099701 0.000000 0.404846
0.455505 0.000000 0.404846
0.633362 0.000000 0.404846
0.783508 0.000000 0.404846
0.899536 0.000000 0.404846
0.963867 0.000000 0.404846
0.000000 0.105316 0.404846
0.052856 0.105316 0.404846
0.099701 0.105316 0.404846
0.455505 0.105316 0.404846
0.633362 0.105316 0.404846
0.783508 0.105316 0.404846
0.899536 0.105316 0.404846
0.963867 0.105316 0.404846
0.000000 0.328827 0.404846
0.052856 0.328827 0.404846
0.099701 0.328827 0.404846
0.455505 0.328827 0.404846
0.633362 0.328827 0.404846
0.783508 0.328827 0.404846
0.899536 0.328827 0.404846
0.963867 0.328827 0.404846
0.000000 0.464996 0.404846
0.052856 0.464996 0.404846
0.099701 0.464996 0.404846
0.455505 0.464996 0.404846
0.633362 0.464996 0.404846
0.783508 0.464996 0.404846
0.899536 0.464996 0.404846
0.963867 0.464996 0.404846
0.000000 0.590607 0.404846
0.052856 0.590607 0.404846
0.099701 0.590607 0.404846
0.455505 0.590607 0.404846
0.633362 0.590607 0.404846
0.783508 0.590607 0.404846
0.899536 0.590607 0.404846
0.963867 0.590607 0.404846
0.000000 0.699982 0.404846
0.052856 0.699982 0.404846
0.099701 0.699982 0.404846
0.455505 0.699982 0.404846
0.633362 0.699982 0.404846
0.783508 0.699982 0.404846
0.899536 0.699982 0.404846
0.963867 0.699982 0.404846
0.000000 0.821686 0.404846
0.052856 0.821686 0.404846
0.099701 0.821686 0.404846
0.455505 0.821686 0.404846
0.633362 0.821686 0.404846
0.783508 0.821686 0.404846
0.899536 0.821686 0.404846
0.963867 0.821686 0.404846
0.000000 0.872131 0.404846
0.052856 0.872131 0.404846
0.099701 0.872131 0.404846
0.455505 0.872131 0.404846
0.633362 0.872131 0.404846
0.783508 0.872131 0.404846
0.899536 0.872131 0.404846
0.963867 0.872131 0.404846
0.000000 0.000000 0.482941
0.052856 0.000000 0.482941
0.099701 0.000000 0.482941
0.455505 0.000000 0.482941
0.633362 0.000000 0.482941
0.783508 0.000000 0.482941
0.899536 0.000000 0.482941
0.963867 0.000000 0.482941
0.000000 0.105316 0.482941
0.052856 0.105316 0.482941
0.099701 0.105316 0.482941
0.455505 0.105316 0.482941
0.633362 0.105316 0.482941
0.783508 0.105316 0.482941
0.899536 0.105316 0.482941
0.963867 0.105316 0.482941
0.000000 0.328827 0.482941
0.052856 0.328827 0.482941
0.099701 0.328827 0.482941
0.455505 0.328827 0.482941
0.633362 0.328827 0.482941
0.783508 0.328827 0.482941
0.899536 0.328827 0.482941
0.963867 0.328827 0.482941
0.000000 0.464996 0.482941
0.052856 0.464996 0.482941
0.099701 0.464996 0.482941
0.455505 0.464996 0.482941
0.633362 0.464996 0.482941
0.783508 0.464996 0.482941
0.899536 0.464996 0.482941
0.963867 0.464996 0.482941
0.000000 0.590607 0.482941
0.052856 0.590607 0.482941
0.099701 0.590607 0.482941
0.455505 0.590607 0.482941
0.633362 0.590607 0.482941
0.783508 0.590607 0.482941
0.899536 0.590607 0.482941
0.963867 0.590607 0.482941
0.000000 0.699982 0.482941
0.052856 0.699982 0.482941
0.099701 0.699982 0.482941
0.455505 0.699982 0.482941
0.633362 0.699982 0.482941
0.783508 0.699982 0.482941
0.899536 0.699982 0.482941
0.963867 0.699982 0.482941
0.000000 0.821686 0.482941
0.052856 0.821686 0.482941
0.099701 0.821686 0.482941
0.455505 0.821686 0.482941
0.633362 0.821686 0.482941
0.783508 0.821686 0.482941
0.899536 0.821686 0.482941
0.963867 0.821686 0.482941
0.000000 0.872131 0.482941
0.052856 0.872131 0.482941
0.099701 0.872131 0.482941
0.455505 0.872131 0.482941
0.633362 0.872131 0.482941
0.783508 0.872131 0.482941
0.899536 0.872131 0.482941
0.963867 0.872131 0.482941
0.000000 0.000000 0.558502
0.052856 0.000000 0.558502
0.099701 0.000000 0.558502
0.455505 0.000000 0.558502
0.633362 0.000000 0.558502
0.783508 0.000000 0.558502
0.899536 0.000000 0.558502
0.963867 0.000000 0.558502
0.000000 0.105316 0.558502
0.052856 0.105316 0.558502
0.099701 0.105316 0.558502
0.455505 0.105316 0.558502
0.633362 0.105316 0.558502
0.783508 0.105316 0.558502
0.899536 0.105316 0.558502
0.963867 0.105316 0.558502
0.000000 0.328827 0.558502
0.052856 0.328827 0.558502
0.099701 0.328827 0.558502
0.455505 0.328827 0.558502
0.633362 0.328827 0.558502
0.783508 0.328827 0.558502
0.899536 0.328827 0.558502
0.963867 0.328827 0.558502
0.000000 0.464996 0.558502
0.052856 0.464996 0.558502
0.099701 0.464996 0.558502
0.455505 0.464996 0.558502
0.633362 0.464996 0.558502
0.783508 0.464996 0.558502
0.899536 0.464996 0.558502
0.963867 0.464996 0.558502
0.000000 0.590607 0.558502
0.052856 0.590607 0.558502
0.099701 0.590607 0.558502
0.455505 0.590607 0.558502
0.633362 0.590607 0.558502
0.783508 0.590607 0.558502
0.899536 0.590607 0.558502
0.963867 0.590607 0.558502
0.000000 0.699982 0.558502
0.052856 0.699982 0.558502
0.099701 0.699982 0.558502
0.455505 0.699982 0.558502
0.633362 0.699982 0.558502
0.783508 0.699982 0.558502
0.899536 0.699982 0.558502
0.963867 0.699982 0.558502
0.000000 0.821686 0.558502
0.052856 0.821686 0.558502
0.099701 0.821686 0.558502
0.455505 0.821686 0.558502
0.633362 0.821686 0.558502
0.783508 0.821686 0.558502
0.899536 0.821686 0.558502
0.963867 0.821686 0.558502
0.000000 0.872131 0.558502
0.052856 0.872131 0.558502
0.099701 0.872131 0.558502
0.455505 0.872131 0.558502
0.633362 0.872131 0.558502
0.783508 0.872131 0.558502
0.899536 0.872131 0.558502
0.963867 0.872131 0.558502
0.000000 0.000000 0.637115
0.052856 0.000000 0.637115
0.099701 0.000000 0.637115
0.455505 0.000000 0.637115
0.633362 0.000000 0.637115
0.783508 0.000000 0.637115
0.899536 0.000000 0.637115
0.963867 0.000000 0.637115
0.000000 0.105316 0.637115
0.052856 0.105316 0.637115
0.099701 0.105316 0.637115
0.455505 0.105316 0.637115
0.633362 0.105316 0.637115
0.783508 0.105316 0.637115
0.899536 0.105316 0.637115
0.963867 0.105316 0.637115
0.000000 0.328827 0.637115
0.052856 0.328827 0.637115
0.099701 0.328827 0.637115
0.455505 0.328827 0.637115
0.633362 0.328827 0.637115
0.783508 0.328827 0.637115
0.899536 0.328827 0.637115
0.963867 0.328827 0.637115
0.000000 0.464996 0.637115
0.052856 0.464996 0.637115
0.099701 0.464996 0.637115
0.455505 0.464996 0.637115
0.633362 0.464996 0.637115
0.783508 0.464996 0.637115
0.899536 0.464996 0.637115
0.963867 0.464996 0.637115
0.000000 0.590607 0.637115
0.052856 0.590607 0.637115
0.099701 0.590607 0.637115
0.455505 0.590607 0.637115
0.633362 0.590607 0.637115
0.783508 0.590607 0.637115
0.899536 0.590607 0.637115
0.963867 0.590607 0.637115
0.000000 0.699982 0.637115
0.052856 0.699982 0.637115
0.099701 0.699982 0.637115
0.455505 0.699982 0.637115
0.633362 0.699982 0.637115
0.783508 0.699982 0.637115
0.899536 0.699982 0.637115
0.963867 0.699982 0.637115
0.000000 0.821686 0.637115
0.052856 0.821686 0.637115
0.099701 0.821686 0.637115
0.455505 0.821686 0.637115
0.633362 0.821686 0.637115
0.783508 0.821686 0.637115
0.899536 0.821686 0.637115
0.963867 0.821686 0.637115
0.000000 0.872131 0.637115
0.052856 0.872131 0.637115
0.099701 0.872131 0.637115
0.455505 0.872131 0.637115
0.633362 0.872131 0.637115
0.783508 0.872131 0.637115
0.899536 0.872131 0.637115
0.963867 0.872131 0.637115
0.000000 0.000000 0.720276
0.052856 0.000000 0.720276
0.099701 0.000000 0.720276
0.455505 0.000000 0.720276
0.633362 0.000000 0.720276
0.783508 0.000000 0.720276
0.899536 0.000000 0.720276
0.963867 0.000000 0.720276
0.000000 0.105316 0.720276
0.052856 0.105316 0.720276
0.099701 0.105316 0.720276
0.455505 0.105316 0.720276
0.633362 0.105316 0.720276
0.783508 0.105316 0.720276
0.899536 0.105316 0.720276
0.963867 0.105316 0.720276
0.000000 0.328827 0.720276
0.052856 0.328827 0.720276
0.099701 0.328827 0.720276
0.455505 0.328827 0.720276
0.633362 0.328827 0.720276
0.783508 0.328827 0.720276
0.899536 0.328827 0.720276
0.963867 0.328827 0.720276
0.000000 0.464996 0.720276
0.052856 0.464996 0.720276
0.099701 0.464996 0.720276
0.455505 0.464996 0.720276
0.633362 0.464996 0.720276
0.783508 0.464996 0.720276
0.899536 0.464996 0.720276
0.963867 0.464996 0.720276
0.000000 0.590607 0.720276
0.052856 0.590607 0.720276
0.099701 0.590607 0.720276
0.455505 0.590607 0.720276
0.633362 0.590607 0.720276
0.783508 0.590607 0.720276
0.899536 0.590607 0.720276
0.963867 0.590607 0.720276
0.000000 0.699982 0.720276
0.052856 0.699982 0.720276
0.099701 0.699982 0.720276
0.455505 0.699982 0.720276
0.633362 0.699982 0.720276
0.783508 0.699982 0.720276
0.899536 0.699982 0.720276
0.963867 0.699982 0.720276
0.000000 0.821686 0.720276
0.052856 0.821686 0.720276
0.099701 0.821686 0.720276
0.455505 0.821686 0.720276
0.633362 0.821686 0.720276
0.783508 0.821686 0.720276
0.899536 0.821686 0.720276
0.963867 0.821686 0.720276
0.000000 0.872131 0.720276
0.052856 0.872131 0.720276
0.099701 0.872131 0.720276
0.455505 0.872131 0.720276
0.633362 0.872131 0.720276
0.783508 0.872131 0.720276
0.899536 0.872131 0.720276
0.963867 0.872131 0.720276
0.000000 0.000000 0.781158
0.052856 0.000000 0.781158
0.099701 0.000000 0.781158
0.455505 0.000000 0.781158
0.633362 0.000000 0.781158
0.783508 0.000000 0.781158
0.899536 0.000000 0.781158
0.963867 0.000000 0.781158
0.000000 0.105316 0.781158
0.052856 0.105316 0.781158
0.099701 0.105316 0.781158
0.455505 0.105316 0.781158
0.633362 0.105316 0.781158
0.783508 0.105316 0.781158
0.899536 0.105316 0.781158
0.963867 0.105316 0.781158
0.000000 0.328827 0.781158
0.052856 0.328827 0.781158
0.099701 0.328827 0.781158
0.455505 0.328827 0.781158
0.633362 0.328827 0.781158
0.783508 0.328827 0.781158
0.899536 0.328827 0.781158
0.963867 0.328827 0.781158
0.000000 0.464996 0.781158
0.052856 0.464996 0.781158
0.099701 0.464996 0.781158
0.455505 0.464996 0.781158
0.633362 0.464996 0.781158
0.783508 0.464996 0.781158
0.899536 0.464996 0.781158
0.963867 0.464996 0.781158
0.000000 0.590607 0.781158
0.052856 0.590607 0.781158
0.099701 0.590607 0.781158
0.455505 0.590607 0.781158
0.633362 0.590607 0.781158
0.783508 0.590607 0.781158
0.899536 0.590607 0.781158
0.963867 0.590607 0.781158
0.000000 0.699982 0.781158
0.052856 0.699982 0.781158
0.099701 0.699982 0.781158
0.455505 0.699982 0.781158
0.633362 0.699982 0.781158
0.783508 0.699982 0.781158
0.899536 0.699982 0.781158
0.963867 0.699982 0.781158
0.000000 0.821686 0.781158
0.052856 0.821686 0.781158
0.099701 0.821686 0.781158
0.455505 0.821686 0.781158
0.633362 0.821686 0.781158
0.783508 0.821686 0.781158
0.899536 0.821686 0.781158
0.963867 0.821686 0.781158
0.000000 0.872131 0.781158
0.052856 0.872131 0.781158
0.099701 0.872131 0.781158
0.455505 0.872131 0.781158
0.633362 0.872131 0.781158
0.783508 0.872131 0.781158
0.899536 0.872131 0.781158
0.963867 0.872131 0.781158
